docs/7.视频剪辑/assets/LUT/apple_log_to_rec709_02_lut.cube
TITLE "Generated by Resolve"
LUT_3D_SIZE 33
0 0 0
0 0 0
0 0 0
0 0 0
0 0 0
0.000976577 0 0
0.0265507 0 0
0.0614023 0 0
0.0949264 0 0
0.130343 0 0
0.171572 0 0
0.223056 0 0
0.280873 0 0
0.34519 0 0
0.416953 0 0
0.497261 0 0
0.586542 0 0
0.682383 0 0
0.767147 0 0
0.845502 0 0
0.922438 0 0
0.984161 0 0
1 0 0
1 0 0
1 0 0
1 0 0
1 0 0
1 0 0
1 0 0
1 0 0
1 0 0
1 0 0
1 0 0
0 0 0
0 0 0
0 0 0
0 0 0
0 0 0
0.000900282 0 0
0.0262913 0 0
0.0611276 0 0
0.0946365 0 0
0.130037 0 0
0.171191 0 0
0.222599 0 0
0.280369 0 0
0.34464 0 0
0.416419 0 0
0.496574 0 0
0.585779 0 0
0.68162 0 0
0.766506 0 0
0.844846 0 0
0.921889 0 0
0.983719 0 0
1 0 0
1 0 0
1 0 0
1 0 0
1 0 0
1 0 0
1 0 0
1 0 0
1 0 0
1 0 0
1 0 0
0 0 0
0 0 0
0 0 0
0 0 0
0 0 0
0.000839246 0 0
0.0260014 0 0
0.060853 0 0
0.0943618 0 0
0.129717 0 0
0.170825 0 0
0.222232 0 0
0.279881 0 0
0.344091 0 0
0.41593 0 0
0.495872 0 0
0.585 0 0
0.680827 0 0
0.76585 0 0
0.84419 0 0
0.92134 0 0
0.983276 0 0
1 0 0
1 0 0
1 0 0
1 0 0
1 0 0
1 0 0
1 0 0
1 0 0
1 0 0
1 0 0
1 0 0
0 0 0
0 0 0
0 0 0
0 0 0
0 0 0
0.000747692 0 0
0.0257267 0 0
0.0605631 0 0
0.0940719 0 0
0.129412 0 0
0.170443 0 0
0.221881 0 0
0.279377 0 0
0.343542 0 0
0.41532 0 0
0.495171 0 0
0.584222 0 0
0.680049 0 0
0.765179 0 0
0.843534 0 0
0.920775 0 0
0.982834 0 0
1 0 0
1 0 0
1 0 0
1 0 0
1 0 0
1 0 0
1 0 0
1 0 0
1 0 0
1 0 0
1 0 0
0 0 0
0 0 0
0 0 0
0 0 0
0 0 0
0.000640879 0 0
0.0254215 0 0
0.0602731 0 0
0.0937819 0 0
0.129107 0 0
0.170062 0 0
0.221439 0 0
0.278889 0 0
0.343099 0 0
0.414694 0 0
0.494469 0 0
0.583429 0 0
0.679271 0 0
0.764523 0 0
0.843 0 0
0.920226 0 0
0.982406 0 0
1 0 0
1 0 0
1 0 0
1 0 0
1 0 0
1 0 0
1 0 0
1 0 0
1 0 0
1 0 0
1 0 0
0 0 0
0 0 0
0 0 0
0 0 0
0 0 0
0 0 0
0.021973 0 0
0.0564584 0 0
0.0905165 0 0
0.126207 0 0
0.167224 0 0
0.218418 0 0
0.276417 0 0
0.340673 0 0
0.412299 0 0
0.49218 0 0
0.58143 0 0
0.677363 0 0
0.763134 0 0
0.841825 0 0
0.919249 0 0
0.981735 0 0
1 0 0
1 0 0
1 0 0
1 0 0
1 0 0
1 0 0
1 0 0
1 0 0
1 0 0
1 0 0
1 0 0
0 0.0132448 0
0 0.0131991 0
0 0.0131685 0
0 0.0131228 0
0 0.0130922 0
0 0.0124514 0
0.012726 0.0105745 0
0.0438544 0.00923171 0
0.0802167 0.00776684 0
0.117342 0.00579843 0
0.159258 0.00256352 0
0.210727 0 0
0.269505 0 0
0.334462 0 0
0.406699 0 0
0.487053 0 0
0.576471 0 0
0.673487 0 0
0.760266 0 0
0.839384 0 0
0.917662 0 0
0.980591 0 0
1 0 0
1 0 0
1 0 0
1 0 0
1 0 0
1 0 0
1 0 0
1 0 0
1 0 0
1 0 0
1 0 0
0 0.0372778 0
0 0.037232 0
0 0.0371862 0
0 0.0371405 0
0 0.0370947 0
0 0.0362707 0
0.00508125 0.0338293 0
0.032517 0.0307927 0
0.0652171 0.028748 0
0.103517 0.0255283 0
0.147021 0.0203555 0
0.19939 0.0123751 0
0.260029 0.00262455 0
0.326528 0 0
0.400122 0 0
0.48098 0 0
0.570901 0 0
0.668666 0 0
0.757092 0 0
0.836545 0 0
0.915572 0 0
0.979309 0 0
1 0 0
1 0 0
1 0 0
1 0 0
1 0 0
1 0 0
1 0 0
1 0 0
1 0 0
1 0 0
1 0 0
0 0.0633249 0
0 0.0632792 0
0 0.0632334 0
0 0.0632029 0
0 0.0631571 0
0 0.062562 0
0.000137331 0.0603647 0
0.020264 0.0571298 0
0.0560006 0.0542763 0
0.0916609 0.0512856 0.00190738
0.13138 0.0471199 0.0009308
0.184268 0.0389258 0
0.247349 0.0270695 0
0.315511 0.0133364 0
0.391257 0 0
0.47396 0 0
0.565194 0 0
0.663798 0 0
0.75346 0 0
0.833753 0 0
0.913329 0 0
0.97789 0 0
1 0 0
1 0 0
1 0 0
1 0 0
1 0 0
1 0 0
1 0 0
1 0 0
1 0 0
1 0 0
1 0 0
0 0.0910506 0
0 0.0910048 0
0 0.090959 0
0 0.090898 0
0 0.0908522 0
0 0.0902266 0
0 0.088365 0
0.00836194 0.085832 0
0.0395514 0.0829633 0
0.0818799 0.0799268 0
0.121706 0.0762188 0.00318914
0.167254 0.0707256 0.00250248
0.228992 0.0604105 0
0.300999 0.0465705 0
0.378317 0.0298466 0
0.463111 0.00979629 0
0.556664 0 0
0.657786 0 0
0.749386 0 0
0.830182 0 0
0.910719 0 0
0.976257 0 0
1 0 0
1 0 0
1 0 0
1 0 0
1 0 0
1 0 0
1 0 0
1 0 0
1 0 0
1 0 0
1 0 0
0 0.120546 0
0 0.120485 0
0 0.120439 0
0 0.120394 0
0 0.120333 0
0 0.11986 0
0 0.118364 0
0 0.116381 0
0.0205234 0.113634 0
0.0627756 0.110933 0
0.110124 0.107866 0
0.156939 0.103044 0.00392157
0.212711 0.0955825 0.00302129
0.281498 0.0848859 0
0.362036 0.0700999 0
0.449958 0.0512703 0
0.545113 0.0279545 0
0.649088 0 0
0.743374 0 0
0.826047 0 0
0.907683 0 0
0.974258 0 0
1 0 0
1 0 0
1 0 0
1 0 0
1 0 0
1 0 0
1 0 0
1 0 0
1 0 0
1 0 0
1 0 0
0 0.153887 0
0 0.153826 0
0 0.153765 0
0 0.153719 0
0 0.153658 0
0 0.153216 0
0 0.15172 0
0 0.149935 0
0.00192264 0.147875 0
0.0370031 0.145113 0
0.0879988 0.142779 0
0.142306 0.139254 0
0.200732 0.132662 0.00421149
0.265888 0.124804 0.0047303
0.342626 0.113939 0
0.433051 0.0986496 0
0.533196 0.0786145 0
0.640055 0.0529946 0
0.735958 0.0180667 0
0.820661 0 0
0.904143 0 0
0.971725 0 0
1 0 0
1 0 0
1 0 0
1 0 0
1 0 0
1 0 0
1 0 0
1 0 0
1 0 0
1 0 0
1 0 0
0 0.193576 0
0 0.193484 0
0 0.193408 0
0 0.193332 0
0 0.19324 0
0 0.192737 0
0 0.191333 0
0 0.189746 0
0 0.187854 0
0.00631724 0.185336 0
0.0545815 0.183368 0
0.114809 0.18175 0
0.181308 0.177417 0
0.253361 0.169726 0.00479133
0.328161 0.162646 0.00943008
0.414878 0.152361 0.00503548
0.517205 0.136889 0
0.63061 0.115373 0
0.731716 0.0833448 0
0.817426 0.0407568 0
0.90222 0 0
0.969543 0 0
1 0 0
1 0 0
1 0 0
1 0 0
1 0 0
1 0 0
1 0 0
1 0 0
1 0 0
1 0 0
1 0 0
0 0.241856 0
0 0.241794 0
0 0.241718 0
0 0.241627 0
0 0.241535 0
0 0.241032 0
0 0.239612 0
0 0.237842 0
0 0.235996 0
0 0.234012 0
0.0138857 0.231891 0
0.0761425 0.23238 0
0.147967 0.232013 0
0.231312 0.226581 0
0.314702 0.219043 0.00584421
0.398367 0.211353 0.0151217
0.495232 0.200351 0.0132296
0.608133 0.18262 0.00430304
0.718257 0.152453 0
0.813809 0.112718 0
0.903624 0.0677958 0
0.97142 0.012604 0
1 0 0
1 0 0
1 0 0
1 0 0
1 0 0
1 0 0
1 0 0
1 0 0
1 0 0
1 0 0
1 0 0
0 0.300954 0
0 0.300847 0
0 0.300755 0
0 0.300664 0
0 0.300557 0
0 0.300145 0
0 0.298833 0
0 0.297078 0
0 0.295247 0
0 0.293034 0
0 0.291005 0
0.0299382 0.290532 0
0.105745 0.29276 0
0.193164 0.290883 0
0.289281 0.284215 0
0.383429 0.275502 0.00646983
0.47628 0.266835 0.0202182
0.581857 0.254078 0.019791
0.687724 0.227604 0.0110475
0.793545 0.188067 0
0.897932 0.145098 0
0.975479 0.094377 0
1 0.031693 0
1 0 0
1 0 0
1 0 0
1 0 0
1 0 0
1 0 0
1 0 0
1 0 0
1 0 0
1 0 0
0 0.369345 0
0 0.369223 0
0 0.369085 0
0 0.368948 0
0 0.368826 0
0 0.368338 0
0 0.367132 0
0 0.36553 0
0 0.363836 0
0 0.361791 0
0 0.359548 0
0 0.357458 0
0.0513924 0.358404 0
0.14136 0.360571 0
0.24625 0.356146 0
0.354147 0.348608 0
0.460319 0.338842 0.00700389
0.562722 0.32781 0.0254978
0.661768 0.304555 0.0258335
0.759945 0.268788 0.0167544
0.870481 0.228153 0.00315862
0.965652 0.17763 0
1 0.118273 0
1 0.0499275 0
1 0 0
1 0 0
1 0 0
1 0 0
1 0 0
1 0 0
1 0 0
1 0 0
1 0 0
0 0.445686 0
0 0.445548 0
0 0.445426 0
0 0.445319 0
0 0.445197 0
0 0.444846 0
0 0.443778 0
0 0.442313 0
0 0.440757 0
0 0.438895 0
0 0.436667 0
0 0.433906 0
0 0.432349 0
0.0764019 0.434745 0
0.185504 0.435462 0
0.305623 0.429236 0
0.426337 0.42089 0
0.5449 0.408209 0.00756847
0.641871 0.38497 0.0303197
0.734646 0.351019 0.0310674
0.837736 0.314549 0.0233768
0.934569 0.266758 0.00917067
1 0.207584 0
1 0.1411 0
1 0.0662547 0
1 0 0
1 0 0
1 0 0
1 0 0
1 0 0
1 0 0
1 0 0
1 0 0
0 0.530129 0
0 0.529976 0
0 0.529839 0
0 0.529717 0
0 0.52958 0
0 0.529259 0
0 0.528389 0
0 0.527184 0
0 0.525902 0
0 0.524376 0
0 0.522591 0
0 0.520302 0
0 0.517586 0
0.00933852 0.516747 0
0.105074 0.520439 0
0.237552 0.518578 0
0.371862 0.511086 0
0.505333 0.499489 0
0.621836 0.472709 0.0078584
0.714244 0.437552 0.0341497
0.813993 0.403067 0.0372625
0.90454 0.358358 0.0298772
0.983856 0.301885 0.0151522
1 0.236103 0
1 0.160937 0
1 0.0796521 0
1 0 0
1 0 0
1 0 0
1 0 0
1 0 0
1 0 0
1 0 0
0 0.607111 0
0 0.606973 0
0 0.606851 0
0 0.606714 0
0 0.606577 0
0 0.606287 0
0 0.6056 0
0 0.604746 0
0 0.604044 0
0 0.603159 0
0 0.601862 0
0 0.600259 0
0 0.598291 0
0 0.596017 0
0.0227665 0.596139 0
0.135058 0.600198 0
0.286854 0.594995 0
0.433387 0.585611 0
0.571847 0.566369 0
0.692683 0.532631 0.00825513
0.793988 0.496925 0.0384985
0.883986 0.452705 0.0429847
0.957076 0.398566 0.0361028
1 0.334768 0.0209659
1 0.260304 0.00323491
1 0.177935 0
1 0.0917983 0
1 0.0052491 0
1 0 0
1 0 0
1 0 0
1 0 0
1 0 0
0 0.678386 0
0 0.678279 0
0 0.678157 0
0 0.67805 0
0 0.677943 0
0 0.677699 0
0 0.677195 0
0 0.676463 0
0 0.675669 0
0 0.6748 0
0 0.673686 0
0 0.672297 0
0 0.670604 0
0 0.668513 0
0 0.666407 0
0.0350652 0.667292 0
0.163516 0.670817 0
0.331685 0.664408 0
0.489082 0.653941 0
0.63859 0.633555 0
0.770825 0.59942 0.00808728
0.865766 0.552804 0.0419776
0.940444 0.497963 0.0479591
1 0.435325 0.0415351
1 0.362234 0.0263981
1 0.280049 0.00714122
1 0.193118 0
1 0.102342 0
1 0.0114748 0
1 0 0
1 0 0
1 0 0
1 0 0
0 0.757321 0
0 0.757183 0
0 0.757046 0
0 0.756909 0
0 0.756771 0
0 0.756512 0
0 0.755947 0
0 0.755245 0
0 0.754574 0
0 0.75378 0
0 0.752926 0
0 0.75172 0
0 0.750164 0
0 0.748272 0
0 0.745998 0
0 0.743847 0
0.0482338 0.745342 0
0.198352 0.748104 0
0.380896 0.74078 0
0.551263 0.729747 0
0.712642 0.70837 0
0.84242 0.66244 0.00819409
0.925689 0.604105 0.0442054
0.98735 0.539635 0.0522927
1 0.465919 0.0458686
1 0.384298 0.0310521
1 0.297658 0.0109407
1 0.206317 0
1 0.111162 0
1 0.0168765 0
1 0 0
1 0 0
1 0 0
0 0.831159 0
0 0.831037 0
0 0.8309 0
0 0.830777 0
0 0.83064 0
0 0.830427 0
0 0.829999 0
0 0.829465 0
0 0.828916 0
0 0.828275 0
0 0.827619 0
0 0.826856 0
0 0.825803 0
0 0.824414 0
0 0.822705 0
0 0.820615 0
0 0.818982 0
0.0626078 0.821973 0
0.233738 0.823056 0
0.429786 0.814618 0
0.611429 0.801846 0
0.776562 0.773053 0
0.903822 0.719783 0.00759899
0.975601 0.650935 0.0452888
1 0.573846 0.0550393
1 0.490333 0.0489967
1 0.403967 0.0348516
1 0.312917 0.0145113
1 0.216938 0
1 0.118318 0
1 0.021622 0
1 0 0
1 0 0
0 0.893797 0
0 0.89369 0
0 0.893584 0
0 0.893477 0
0 0.893355 0
0 0.893202 0
0 0.892882 0
0 0.892515 0
0 0.892119 0
0 0.891691 0
0 0.891249 0
0 0.89073 0
0 0.889998 0
0 0.889113 0
0 0.887968 0
0 0.886549 0
0 0.884794 0
0 0.883635 0
0.0740673 0.887404 0
0.264576 0.887526 0
0.472755 0.878462 0
0.66508 0.864897 0
0.835752 0.834195 0
0.954696 0.771664 0.00569161
1 0.689357 0.0446326
1 0.601511 0.0569467
1 0.512444 0.0514687
1 0.420996 0.0382544
1 0.325139 0.0173037
1 0.225879 0
1 0.124559 0
1 0.0254673 0
1 0 0
0 0.945541 0
0 0.945464 0
0 0.945373 0
0 0.945296 0
0 0.94522 0
0 0.945113 0
0 0.9449 0
0 0.944656 0
0 0.944411 0
0 0.944121 0
0 0.943786 0
0 0.943374 0
0 0.942885 0
0 0.942336 0
0 0.94168 0
0 0.940932 0
0 0.93991 0
0 0.938582 0
0 0.937819 0
0.0855116 0.94284 0
0.293797 0.942504 0
0.513359 0.933242 0
0.713252 0.919066 0
0.88394 0.884855 0
0.99263 0.81355 0.00436408
1 0.72047 0.0431525
1 0.62649 0.0577554
1 0.53138 0.0534829
1 0.434455 0.0406043
1 0.335515 0.0198367
1 0.233753 0
1 0.129961 0
1 0.029099 0
0 0.983368 0
0 0.983307 0
0 0.983246 0
0 0.9832 0
0 0.983139 0
0 0.983063 0
0 0.98294 0
0 0.982788 0
0 0.982635 0
0 0.982452 0
0 0.982254 0
0 0.98201 0
0 0.98172 0
0 0.981369 0
0 0.980957 0
0 0.980438 0
0 0.979797 0
0 0.979019 0
0 0.978088 0
0 0.978241 0
0.0960555 0.98439 0
0.31899 0.983474 0
0.546731 0.974197 0
0.752483 0.960189 0
0.920317 0.92343 0
1 0.846555 0.00321965
1 0.748196 0.0406653
1 0.64744 0.0578012
1 0.545953 0.0545815
1 0.445624 0.0426184
1 0.344411 0.021912
1 0.240085 0
1 0.134768 0
0 1 0
0 1 0
0 1 0
0 1 0
0 1 0
0 1 0
0 1 0
0 1 0
0 1 0
0 1 0
0 1 0
0 1 0
0 1 0
0 1 0
0 1 0
0 1 0
0 1 0
0 1 0
0 1 0
0 1 0
0 1 0
0.104311 1 0
0.338537 1 0
0.573556 1 0
0.783597 0.990616 0
0.949096 0.953841 0
1 0.875608 0.00177005
1 0.771771 0.0373388
1 0.664073 0.0572824
1 0.558618 0.0557107
1 0.45539 0.0441138
1 0.351415 0.0234531
1 0.246036 0.00015259
0 1 0
0 1 0
0 1 0
0 1 0
0 1 0
0 1 0
0 1 0
0 1 0
0 1 0
0 1 0
0 1 0
0 1 0
0 1 0
0 1 0
0 1 0
0 1 0
0 1 0
0 1 0
0 1 0
0 1 0
0 1 0
0 1 0
0.111604 1 0
0.355306 1 0
0.596506 1 0
0.810162 1 0
0.973465 0.979339 0
1 0.898985 0.00062562
1 0.790066 0.0337072
1 0.678309 0.0561685
1 0.569741 0.0565957
1 0.463142 0.0452277
1 0.358251 0.0251926
0 1 0
0 1 0
0 1 0
0 1 0
0 1 0
0 1 0
0 1 0
0 1 0
0 1 0
