docs/7.视频剪辑/assets/LUT/apple_log_to_rec709_02_lut.cube
TITLE "Generated by Resolve"
LUT_3D_SIZE 5
0 0 0
0.0949264 0 0
0.586542 0 0
1 0 0
1 0 0
0 0.0633249 0
0.0560006 0.0542763 0
0.565194 0 0
1 0 0
1 0 0
0 0.445686 0
0 0.440757 0
0.426337 0.42089 0
1 0.0662547 0
1 0 0
0 0.983368 0
0 0.982635 0
0 0.979797 0
0.920317 0.92343 0
1 0.134768 0
0 1 0
0 1 0
0 1 0
0 1 0
1 1 0
0 0 0.0641337
0.0907759 0 0.0640879
0.584146 0 0.0211337
1 0 0
1 0 0
0 0.0628061 0.0592508
0.0504921 0.0536202 0.0568399
0.5626 0 0.0172732
1 0 0
1 0 0
0 0.44625 0
0 0.441306 0
0.423423 0.421286 0
1 0.0666972 0
1 0 0
0 0.983536 0
0 0.982803 0
0 0.97998 0
0.918868 0.924163 0
1 0.135424 0
0 1 0
0 1 0
0 1 0
0 1 0
1 1 0
0 0 0.473671
0.0456397 0 0.471626
0.560906 0 0.436866
1 0 0.202609
1 0 0
0 0.0502632 0.470893
0.00407416 0.0414282 0.469001
0.538582 0 0.438315
1 0 0.206027
1 0 0
0 0.449088 0.436408
0 0.444053 0.435187
0.405798 0.424994 0.445792
1 0.0687877 0.223743
1 0 0
0 0.987335 0.12372
0 0.986603 0.123384
0 0.983993 0.120974
0.917479 0.929137 0.110491
1 0.135836 0
0 1 0
0 1 0
0 1 0
0 1 0
1 1 0
0 0 1
0 0 1
0.318593 0 1
1 0 0.952926
1 0 0.292012
0 0 1
0 0 1
0.296345 0 1
1 0 0.962707
1 0 0.298421
0 0.302632 1
0 0.299062 1
0.158785 0.284932 1
1 0.0507057 0.999069
1 0 0.303502
0 0.963226 0.956832
0 0.962295 0.956939
0 0.957748 0.958801
0.865599 0.910307 0.954177
1 0.136873 0.33637
0 1 0.20087
0 1 0.200992
0 1 0.200793
0 1 0.198703
1 1 0.173709
0 0 1
0 0 1
0 0 1
0.458488 0 1
1 0 1
0 0 1
0 0 1
0 0 1
0.445457 0 1
1 0 1
0 0.0434424 1
0 0.0420233 1
0 0.031281 1
0.411261 0 1
1 0 1
0 0.423606 1
0 0.422812 1
0 0.417762 1
0.235416 0.400519 1
1 0.115358 1
0 1 1
0 1 1
0 1 1
0 1 1
0.978363 1 1
