docs/7.视频剪辑/assets/LUT/apple_log_to_rec709_02_lut.cube
TITLE "Generated by Resolve"
LUT_3D_SIZE 9
0 0 0
0 0 0
0.0949264 0 0
0.280873 0 0
0.586542 0 0
0.922438 0 0
1 0 0
1 0 0
1 0 0
0 0 0
0 0 0
0.0937819 0 0
0.278889 0 0
0.583429 0 0
0.920226 0 0
1 0 0
1 0 0
1 0 0
0 0.0633249 0
0 0.0631571 0
0.0560006 0.0542763 0
0.247349 0.0270695 0
0.565194 0 0
0.913329 0 0
1 0 0
1 0 0
1 0 0
0 0.193576 0
0 0.19324 0
0 0.187854 0
0.181308 0.177417 0
0.517205 0.136889 0
0.90222 0 0
1 0 0
1 0 0
1 0 0
0 0.445686 0
0 0.445197 0
0 0.440757 0
0 0.432349 0
0.426337 0.42089 0
0.837736 0.314549 0.0233768
1 0.0662547 0
1 0 0
1 0 0
0 0.757321 0
0 0.756771 0
0 0.754574 0
0 0.750164 0
0.0482338 0.745342 0
0.712642 0.70837 0
1 0.465919 0.0458686
1 0.111162 0
1 0 0
0 0.983368 0
0 0.983139 0
0 0.982635 0
0 0.98172 0
0 0.979797 0
0.0960555 0.98439 0
0.920317 0.92343 0
1 0.545953 0.0545815
1 0.134768 0
0 1 0
0 1 0
0 1 0
0 1 0
0 1 0
0 1 0
0.122866 1 0
1 1 0
1 0.586618 0.0573587
0 1 0
0 1 0
0 1 0
0 1 0
0 1 0
0 1 0
0 1 0
0.134066 1 0
1 1 0
0 0 0
0 0 0
0.0948806 0 0
0.280812 0 0
0.586465 0 0
0.922377 0 0
1 0 0
1 0 0
1 0 0
0 0 0
0 0 0
0.0937362 0 0
0.278828 0 0
0.583337 0 0
0.920165 0 0
1 0 0
1 0 0
1 0 0
0 0.063386 0
0 0.0632334 0
0.0558938 0.0543526 0
0.247242 0.0271763 0
0.565087 0 0
0.913268 0 0
1 0 0
1 0 0
1 0 0
0 0.193713 0
0 0.193378 0
0 0.187991 0
0.181125 0.177584 0
0.517037 0.137057 0
0.902129 0 0
1 0 0
1 0 0
1 0 0
0 0.445945 0
0 0.445396 0
0 0.441016 0
0 0.432609 0
0.426093 0.421164 0
0.837552 0.314809 0.0233768
1 0.0666209 0
1 0 0
1 0 0
0 0.757565 0
0 0.757015 0
0 0.754803 0
0 0.750408 0
0.047837 0.745571 0
0.71223 0.708705 0
1 0.46627 0.0458686
1 0.111559 0
1 0 0
0 0.983459 0
0 0.98323 0
0 0.982727 0
0 0.981811 0
0 0.979904 0
0.0954452 0.984451 0
0.919829 0.923735 0
1 0.54641 0.054612
1 0.135119 0
0 1 0
0 1 0
0 1 0
0 1 0
0 1 0
0 1 0
0.122255 1 0
1 1 0
1 0.587091 0.0573892
0 1 0
0 1 0
0 1 0
0 1 0
0 1 0
0 1 0
0 1 0
0.133272 1 0
1 1 0
0 0 0.0641337
0 0 0.0639658
0.0907759 0 0.0640879
0.277607 0 0.0532387
0.584146 0 0.0211337
0.92192 0 0
1 0 0
1 0 0
1 0 0
0 0 0.0646372
0 0 0.0644694
0.0895857 0 0.0645914
0.275517 0 0.0539406
0.58117 0 0.0219883
0.919692 0 0
1 0 0
1 0 0
1 0 0
0 0.0628061 0.0592508
0 0.062623 0.0590829
0.0504921 0.0536202 0.0568399
0.245594 0.0260014 0.0469673
0.5626 0 0.0172732
0.912703 0 0
1 0 0
1 0 0
1 0 0
0 0.193637 0.0332341
0 0.193317 0.0331579
0 0.187686 0.0326543
0.177462 0.177707 0.0354467
0.522423 0.135943 0.0259403
0.901778 0 0
1 0 0
1 0 0
1 0 0
0 0.44625 0
0 0.445686 0
0 0.441306 0
0 0.43267 0
0.423423 0.421286 0
0.836774 0.314946 0.0242313
1 0.0666972 0
1 0 0
1 0 0
0 0.757687 0
0 0.757122 0
0 0.75491 0
0 0.75053 0
0.0454261 0.745449 0
0.710506 0.709102 0
1 0.466651 0.0458534
1 0.111849 0
1 0 0
0 0.983536 0
0 0.983307 0
0 0.982803 0
0 0.981903 0
0 0.97998 0
0.0937209 0.984375 0
0.918868 0.924163 0
1 0.546914 0.0546578
1 0.135424 0
0 1 0
0 1 0
0 1 0
0 1 0
0 1 0
0 1 0
0.120653 1 0
1 1 0
1 0.587579 0.0574044
0 1 0
0 1 0
0 1 0
0 1 0
0 1 0
0 1 0
0 1 0
0.132097 1 0
1 1 0
0 0 0.207736
0 0 0.207446
0.0796521 0 0.20679
0.268727 0 0.196551
0.578393 0 0.167865
0.92079 0 0.102586
1 0 0.0234989
1 0 0
1 0 0
0 0 0.208484
0 0 0.20824
0.0783703 0 0.207752
0.26656 0 0.197696
0.575128 0 0.169055
0.918746 0 0.103792
1 0 0.0248569
1 0 0
1 0 0
0 0.0602121 0.203586
0 0.0600137 0.203281
0.0371252 0.0510262 0.201389
0.236301 0.024094 0.192737
0.55668 0 0.166796
0.91165 0 0.102052
1 0 0.0232853
1 0 0
1 0 0
0 0.193332 0.184421
0 0.192996 0.184176
0 0.187335 0.183764
0.170275 0.179278 0.18883
0.531548 0.136309 0.176242
0.902358 0 0.1037
1 0 0.0174411
1 0 0
1 0 0
0 0.450126 0.146029
0 0.449622 0.145739
0 0.445167 0.144884
0 0.436103 0.14403
0.4215 0.425544 0.153643
0.857694 0.315145 0.130999
1 0.0673228 0.0295262
1 0 0
1 0 0
0 0.759838 0.050721
0 0.759274 0.0506447
0 0.757061 0.0495918
0 0.752575 0.0479744
0.0424353 0.746853 0.0495766
0.708843 0.711345 0.0487068
1 0.46743 0.061677
1 0.111986 0
1 0 0
0 0.983581 0
0 0.983352 0
0 0.982849 0
0 0.981949 0
0 0.980041 0
0.0902876 0.984222 0
0.917235 0.924804 0
1 0.547494 0.0547036
1 0.135683 0
0 1 0
0 1 0
0 1 0
0 1 0
0 1 0
0 1 0
0.117968 1 0
1 1 0
1 0.588113 0.057435
0 1 0
0 1 0
0 1 0
0 1 0
0 1 0
0 1 0
0 1 0
0.130419 1 0
1 1 0
0 0 0.473671
0 0 0.473182
0.0456397 0 0.471626
0.243626 0 0.463355
0.560906 0 0.436866
0.913619 0 0.347356
1 0 0.202609
1 0 0.0568551
1 0 0
0 0 0.475212
0 0 0.474708
0.0441291 0 0.473121
0.241276 0 0.464805
0.557824 0 0.438727
0.911208 0 0.349767
1 0 0.205142
1 0 0.0583047
1 0 0
0 0.0502632 0.470893
0 0.0501259 0.470436
0.00407416 0.0414282 0.469001
0.209964 0.0154421 0.462669
0.538582 0 0.438315
0.903914 0 0.350958
1 0 0.206027
1 0 0.0587625
1 0 0
0 0.187564 0.459953
0 0.187243 0.459449
0 0.181384 0.459052
0.145663 0.174975 0.465843
0.517021 0.13315 0.456519
0.895338 0 0.358221
1 0 0.205249
1 0 0.0577554
1 0 0
0 0.449088 0.436408
0 0.448478 0.43595
0 0.444053 0.435187
0 0.434318 0.434043
0.405798 0.424994 0.445792
0.874235 0.310231 0.378729
1 0.0687877 0.223743
1 0 0.0523995
1 0 0
0 0.761151 0.328588
0 0.760632 0.328267
0 0.758495 0.327825
0 0.753796 0.327062
0.0324254 0.747265 0.329976
0.703365 0.714748 0.329046
1 0.469505 0.234195
1 0.112856 0.0733043
1 0 0
0 0.987335 0.12372
0 0.987106 0.123705
0 0.986603 0.123384
0 0.985824 0.122774
0 0.983993 0.120974
0.0888533 0.987594 0.126955
0.917479 0.929137 0.110491
1 0.549615 0.0924239
1 0.135836 0
0 1 0
0 1 0
0 1 0
0 1 0
0 1 0
0 1 0
0.113054 1 0
1 1 0
1 0.588754 0.0574655
0 1 0
0 1 0
0 1 0
0 1 0
0 1 0
0 1 0
0 1 0
0.12752 1 0
1 1 0
0 0 0.856519
0 0 0.856077
0 0 0.855161
0.172778 0 0.84622
0.493156 0 0.813107
0.897231 0 0.735348
1 0 0.510567
1 0 0.261112
1 0 0.0742351
0 0 0.857832
0 0 0.857343
0 0 0.856626
0.169894 0 0.847974
0.48954 0 0.814984
0.894545 0 0.738643
1 0 0.514351
1 0 0.264271
1 0 0.0760204
0 0.027863 0.851774
0 0.0277256 0.851286
0 0.0197299 0.85124
0.138781 0 0.847227
0.470436 0 0.816785
0.886625 0 0.743252
1 0 0.518593
1 0 0.266682
1 0 0.0773327
0 0.162997 0.840894
0 0.162737 0.840436
0 0.156924 0.840177
0.0730755 0.148089 0.842847
0.443976 0.11104 0.831037
0.876219 0 0.755077
1 0 0.522835
1 0 0.268666
1 0 0.0778973
0 0.404288 0.8094
0 0.403861 0.808927
0 0.399863 0.808637
0 0.391089 0.808682
0.328099 0.381048 0.817349
0.85301 0.304784 0.782635
1 0.0639658 0.549233
1 0 0.268971
1 0 0.0769513
0 0.750195 0.73846
0 0.74963 0.738079
0 0.747524 0.738094
0 0.742962 0.738476
0.00502022 0.733867 0.740932
0.673777 0.706325 0.742336
1 0.46157 0.55285
1 0.113207 0.297047
1 0 0.0716259
0 0.985382 0.488365
0 0.985153 0.488304
0 0.984665 0.488365
0 0.983795 0.488533
0 0.981842 0.489418
0.0734569 0.984024 0.49897
0.908522 0.92987 0.476066
1 0.553277 0.301259
1 0.137102 0.0958724
0 1 0.172213
0 1 0.172244
0 1 0.172198
0 1 0.172015
0 1 0.171405
0 1 0.169696
0.109743 1 0.177005
1 1 0.149554
1 0.591409 0.109606
0 1 0
0 1 0
0 1 0
0 1 0
0 1 0
0 1 0
0 1 0
0.121538 1 0
1 1 0
0 0 1
0 0 1
0 0 1
0.0203403 0 1
0.318593 0 1
0.737667 0 1
1 0 0.952926
1 0 0.59997
1 0 0.292012
0 0 1
0 0 1
0 0 1
0.0175784 0 1
0.314626 0 1
0.732387 0 1
1 0 0.957076
1 0 0.604562
1 0 0.295201
0 0 1
0 0 1
0 0 1
0 0 1
0.296345 0 1
0.719417 0 1
1 0 0.962707
1 0 0.609735
1 0 0.298421
0 0.101091 1
0 0.100923 1
0 0.0964523 1
0 0.0860304 1
0.258915 0.05626 1
0.697581 0 1
1 0 0.969512
1 0 0.615167
1 0 0.301152
0 0.302632 1
0 0.302358 1
0 0.299062 1
0 0.291554 1
0.158785 0.284932 1
0.669017 0.228153 1
1 0.0507057 0.999069
1 0 0.621988
1 0 0.303502
0 0.605447 1
0 0.605081 1
0 0.603098 1
0 0.59884 1
0 0.588663 1
0.495827 0.570001 1
1 0.452155 1
1 0.107973 0.659205
1 0 0.304341
0 0.963226 0.956832
0 0.963012 0.956741
0 0.962295 0.956939
0 0.960906 0.957427
0 0.957748 0.958801
0.0263981 0.953246 0.965835
0.865599 0.910307 0.954177
1 0.544427 0.650965
1 0.136873 0.33637
0 1 0.576822
0 1 0.576867
0 1 0.57705
0 1 0.577432
0 1 0.578302
0 1 0.580392
0.0922866 1 0.59379
0.993393 1 0.558709
1 0.596109 0.337896
0 1 0.20087
0 1 0.200961
0 1 0.200992
0 1 0.200977
0 1 0.200793
0 1 0.200229
0 1 0.198703
0.116533 1 0.206912
1 1 0.173709
0 0 1
0 0 1
0 0 1
0 0 1
0.0627451 0 1
0.414176 0 1
0.874586 0 1
1 0 1
1 0 0.646586
0 0 1
0 0 1
0 0 1
0 0 1
0.0593118 0 1
0.409537 0 1
0.869276 0 1
1 0 1
1 0 0.651621
0 0 1
0 0 1
0 0 1
0 0 1
0.0446784 0 1
0.398077 0 1
0.861051 0 1
1 0 1
1 0 0.656825
0 0.0250706 1
0 0.0249943 1
0 0.022034 1
0 0.0148013 1
0.0145571 0 1
0.377203 0 1
0.847974 0 1
1 0 1
1 0 0.662547
0 0.155718 1
0 0.155596 1
0 0.153216 1
0 0.147951 1
0 0.135134 1
0.345846 0.107622 1
0.830518 0 1
1 0 1
1 0 0.66865
0 0.38645 1
0 0.386282 1
0 0.384741 1
0 0.381247 1
0 0.373159 1
0.21442 0.365148 1
0.786877 0.298131 1
1 0.0932326 1
1 0 0.676463
0 0.714305 1
0 0.714076 1
0 0.713146 1
0 0.71136 1
0 0.70695 1
0 0.696773 1
0.582727 0.671885 1
1 0.531624 1
1 0.131151 0.718029
0 1 1
0 1 1
0 1 1
0 1 1
0 1 1
0 1 1
0.0370947 1 1
0.94638 0.996536 1
1 0.587152 0.704982
0 1 0.624842
0 1 0.624933
0 1 0.625071
0 1 0.62533
0 1 0.625818
0 1 0.626886
0 1 0.629175
0.0979477 1 0.64361
1 1 0.605249
0 0 1
0 0 1
0 0 1
0 0 1
0 0 1
0.0833753 0 1
0.458488 0 1
0.927901 0 1
1 0 1
0 0 1
0 0 1
0 0 1
0 0 1
0 0 1
0.0796826 0 1
0.453498 0 1
0.92285 0 1
1 0 1
0 0 1
0 0 1
0 0 1
0 0 1
0 0 1
0.0707408 0 1
0.445457 0 1
0.916396 0 1
1 0 1
0 0 1
0 0 1
0 0 1
0 0 1
0 0 1
0.0552529 0 1
0.433387 0 1
0.908461 0 1
1 0 1
0 0.0434424 1
0 0.0433814 1
0 0.0420233 1
0 0.0389868 1
0 0.031281 1
0.0211337 0.0107118 1
0.411261 0 1
0.896391 0 1
1 0 1
0 0.183368 1
0 0.183276 1
0 0.182254 1
0 0.179843 1
0 0.174075 1
0 0.160464 1
0.381292 0.131777 1
0.882124 0.00581369 1
1 0 1
0 0.423606 1
0 0.423484 1
0 0.422812 1
0 0.421332 1
0 0.417762 1
0 0.409506 1
0.235416 0.400519 1
0.833753 0.330144 1
1 0.115358 1
0 0.761868 1
0 0.761715 1
0 0.761364 1
0 0.760571 1
0 0.758648 1
0 0.754147 1
0 0.743954 1
0.617456 0.716793 1
1 0.570062 1
0 1 1
0 1 1
0 1 1
0 1 1
0 1 1
0 1 1
0 1 1
0.040177 1 1
0.978363 1 1
