docs/7.视频剪辑/assets/LUT/iphone_17_pro_applelog2_02_lut.cube
TITLE "Generated by Resolve"
LUT_3D_SIZE 5
0 0 0
0.237873 0 0
0.908049 0 0
1 0 0
1 0 0
0 0.123018 0
0.0735332 0.0809644 0
0.843473 0.0206149 0
1 0 0
1 0 0
0.0398566 0.690959 0.0439307
0.0385748 0.678614 0.042649
0.624262 0.552743 0
1 0.435996 0
1 0.344366 0
0.05066 1 0.050721
0.0511025 1 0.0511788
0.0520638 1 0.0522011
1 1 0
1 1 0
0.0463417 1 0.0461738
0.0463417 1 0.0461585
0.0463417 1 0.0461585
1 1 0
1 1 0
0 0 0.140352
0.170138 0 0.0852674
0.884947 0 0.0376898
1 0 0
1 0 0
0 0.0733196 0.0437781
0.0367132 0.0337987 0.0193484
0.825422 0 0
1 0 0
1 0 0
0.037583 0.666621 0.0416419
0.0363317 0.654307 0.0404974
0.599435 0.527794 0
1 0.404303 0
1 0.314351 0
0.0513619 1 0.0514687
0.0515755 1 0.0516976
0.0525368 1 0.0527047
1 1 0
1 1 0
0.0463569 1 0.0461738
0.0463417 1 0.0461585
0.0463417 1 0.0461738
1 1 0
1 1 0
0 0.0738079 0.830716
0.0813916 0.0331731 0.816281
0.824643 0 0.636133
1 0 0.553155
1 0 0.515511
0 0.0692149 0.800214
0 0.0683604 0.794842
0.767452 0 0.614389
1 0 0.520088
1 0 0.48072
0 0.600519 0.616373
0 0.586252 0.613672
0.532738 0.509957 0.476402
1 0.354482 0.382742
1 0.22356 0.329473
0.0330053 1 0.265507
0.0341497 1 0.262531
0.0374762 1 0.252644
1 1 0.151614
1 1 0.114488
0.0442206 1 0.125139
0.044419 1 0.120333
0.0451514 1 0.104341
1 1 0
1 1 0
0 0.133623 1
0 0.133639 1
0.706584 0 1
1 0 1
1 0 1
0 0.133791 1
0 0.133806 1
0.63978 0 1
1 0 1
1 0 1
0 0.485649 1
0 0.472175 1
0.283452 0.404059 1
1 0.0412299 1
1 0 1
0 1 1
0 1 1
0 1 1
1 1 1
1 1 1
0 1 1
0 1 1
0 1 1
0.930617 1 1
1 1 0.997101
0 0.131167 1
0 0.131167 1
0.541787 0 1
1 0 1
1 0 1
0 0.131167 1
0 0.131167 1
0.360922 0 1
1 0 1
1 0 1
0 0.34049 1
0 0.321202 1
0.109178 0.230335 1
1 0 1
1 0 1
0 1 1
0 1 1
0 1 1
1 1 1
1 1 1
0 1 1
0 1 1
0 1 1
0.793011 1 1
1 1 1
