docs/7.视频剪辑/assets/LUT/iphone_17_pro_applelog2_02_lut.cube
TITLE "Generated by Resolve"
LUT_3D_SIZE 33
0 0 0
0 0 0
0 0 0
0.0146487 0 0
0.0607004 0 0
0.105852 0 0
0.150195 0 0
0.190005 0 0
0.237873 0 0
0.295033 0 0
0.361944 0 0
0.434684 0 0
0.512505 0 0
0.596902 0 0
0.687892 0 0
0.790875 0 0
0.908049 0 0
1 0 0
1 0 0
1 0 0
1 0 0
1 0 0
1 0 0
1 0 0
1 0 0
1 0 0
1 0 0
1 0 0
1 0 0
1 0 0
1 0 0
1 0 0
1 0 0
0 0 0
0 0 0
0 0 0
0 0 0
0.0327306 0 0
0.0746777 0 0
0.116411 0 0
0.159701 0 0
0.210864 0 0
0.269368 0 0
0.338659 0 0
0.416281 0 0
0.495766 0 0
0.581598 0 0
0.674632 0 0
0.777874 0 0
0.895964 0 0
1 0 0
1 0 0
1 0 0
1 0 0
1 0 0
1 0 0
1 0 0
1 0 0
1 0 0
1 0 0
1 0 0
1 0 0
1 0 0
1 0 0
1 0 0
1 0 0
0 0 0
0 0 0
0 0 0
0 0 0
0.0120851 0 0
0.0563973 0 0
0.0932021 0 0
0.139971 0 0
0.191424 0 0
0.251255 0 0
0.322286 0 0
0.401709 0 0
0.483146 0 0
0.570764 0 0
0.665125 0 0
0.768643 0 0
0.88719 0 0
0.996933 0 0
1 0 0
1 0 0
1 0 0
1 0 0
1 0 0
1 0 0
1 0 0
1 0 0
1 0 0
1 0 0
1 0 0
1 0 0
1 0 0
1 0 0
1 0 0
0 0 0
0 0 0
0 0 0
0 0 0
0 0 0
0.038529 0 0
0.0759747 0 0
0.119799 0 0
0.173968 0 0
0.235981 0 0
0.306996 0 0
0.389136 0 0
0.472435 0 0
0.561761 0 0
0.657282 0 0
0.761013 0 0
0.880003 0 0
0.992447 0 0
1 0 0
1 0 0
1 0 0
1 0 0
1 0 0
1 0 0
1 0 0
1 0 0
1 0 0
1 0 0
1 0 0
1 0 0
1 0 0
1 0 0
1 0 0
0 0 0
0 0 0
0 0 0
0 0 0
0 0 0
0.0225834 0 0
0.0619211 0 0
0.10425 0 0
0.160266 0 0
0.221729 0 0
0.294774 0 0
0.376745 0 0
0.463218 0 0
0.553689 0 0
0.65008 0 0
0.754498 0 0
0.873579 0 0
0.98851 0 0
1 0 0
1 0 0
1 0 0
1 0 0
1 0 0
1 0 0
1 0 0
1 0 0
1 0 0
1 0 0
1 0 0
1 0 0
1 0 0
1 0 0
1 0 0
0 0.0264744 0
0 0.0196689 0
0 0.0152285 0
0 0.0111849 0
0 0.0062562 0
0.00222782 0.00158694 0
0.0461128 0 0
0.0911727 0 0
0.146838 0 0
0.212879 0 0
0.283009 0 0
0.363821 0 0
0.452674 0 0
0.546777 0 0
0.643565 0 0
0.748714 0 0
0.867811 0 0
0.985122 0 0
1 0 0
1 0 0
1 0 0
1 0 0
1 0 0
1 0 0
1 0 0
1 0 0
1 0 0
1 0 0
1 0 0
1 0 0
1 0 0
1 0 0
1 0 0
0 0.0589609 0
0 0.0532998 0
0 0.0482185 0
0 0.0441596 0
0 0.039765 0
0 0.032578 0
0.0250553 0.0265049 0
0.0692607 0.0250553 0
0.131624 0.0235904 0
0.201114 0.022034 0
0.272831 0.0169223 0
0.351888 0.0105745 0
0.440391 0.00325017 0
0.53518 0 0
0.635981 0 0
0.742473 0 0
0.862577 0 0
0.981918 0 0
1 0 0
1 0 0
1 0 0
1 0 0
1 0 0
1 0 0
1 0 0
1 0 0
1 0 0
1 0 0
1 0 0
1 0 0
1 0 0
1 0 0
1 0 0
0 0.0885328 0
0 0.0825666 0
0 0.0779583 0
0 0.0743572 0
0 0.0708629 0
0 0.0661021 0
0.0123903 0.0590372 0
0.046128 0.0510872 0
0.103166 0.0502632 0
0.182025 0.0498054 0
0.259037 0.0463874 0
0.339773 0.0408331 0
0.427665 0.0338903 0
0.522164 0.0239719 0
0.624094 0.0127108 0
0.733623 0.00109865 0
0.855741 0 0
0.978225 0 0
1 0 0
1 0 0
1 0 0
1 0 0
1 0 0
1 0 0
1 0 0
1 0 0
1 0 0
1 0 0
1 0 0
1 0 0
1 0 0
1 0 0
1 0 0
0 0.123018 0
0 0.117647 0
0 0.11339 0
0 0.109789 0
0 0.106798 0
0 0.103029 0
0.00158694 0.0986038 0
0.0357824 0.091371 0
0.0735332 0.0809644 0
0.147204 0.0803235 0
0.237552 0.0776837 0
0.323278 0.0737621 0
0.412863 0.0677195 0
0.507225 0.0597086 0
0.60885 0.0490272 0
0.719341 0.0359503 0
0.843473 0.0206149 0
0.971832 0.00549325 0
1 0 0
1 0 0
1 0 0
1 0 0
1 0 0
1 0 0
1 0 0
1 0 0
1 0 0
1 0 0
1 0 0
1 0 0
1 0 0
1 0 0
1 0 0
0 0.163653 0
0 0.158221 0
0 0.154345 0
0 0.150942 0
0 0.14789 0
0 0.14551 0
0 0.140993 0
0.0251011 0.136767 0
0.0624399 0.129107 0
0.107042 0.11487 0
0.19826 0.114107 0
0.299229 0.10985 0
0.394537 0.104936 0
0.491051 0.0982986 0
0.593912 0.0899367 0
0.703685 0.0782635 0
0.827115 0.065919 0
0.960372 0.0497139 0
1 0.0218509 0
1 0 0
1 0 0
1 0 0
1 0 0
1 0 0
1 0 0
1 0 0
1 0 0
1 0 0
1 0 0
1 0 0
1 0 0
1 0 0
1 0 0
0 0.213199 0
0 0.207996 0
0 0.204425 0
0 0.201175 0
0 0.198337 0
0 0.195987 0
0 0.193042 0
0.00715648 0.188571 0
0.0513924 0.181842 0
0.0940414 0.173709 0
0.156268 0.153338 0
0.258122 0.153826 0
0.36875 0.147601 0
0.472175 0.142016 0
0.576974 0.134203 0
0.68748 0.125277 0
0.809903 0.114046 0
0.946883 0.101518 0
1 0.0789044 0
1 0.0493324 0
1 0.0162203 0
1 0 0
1 0 0
1 0 0
1 0 0
1 0 0
1 0 0
1 0 0
1 0 0
1 0 0
1 0 0
1 0 0
1 0 0
0 0.272923 0
0 0.268238 0
0 0.264546 0
0 0.261494 0
0 0.258824 0
0 0.25655 0
0 0.254322 0
0 0.250889 0
0.0323186 0.245121 0
0.0839857 0.238514 0
0.128115 0.227298 0
0.211978 0.197742 0
0.329824 0.20206 0
0.446647 0.194537 0
0.555322 0.185397 0
0.667704 0.176806 0
0.790402 0.167071 0
0.928588 0.156725 0
1 0.137636 0
1 0.112917 0
1 0.085893 0
1 0.0539406 0
1 0.0181277 0
1 0 0
1 0 0
1 0 0
1 0 0
1 0 0
1 0 0
1 0 0
1 0 0
1 0 0
1 0 0
0 0.343816 0
0 0.339437 0
0 0.335958 0
0 0.33312 0
0 0.330755 0
0 0.328435 0
0 0.326406 0
0 0.324208 0
0.00813306 0.319738 0
0.0655375 0.312886 0
0.122042 0.305287 0
0.182971 0.292927 0
0.279789 0.251789 0
0.410666 0.259663 0
0.531365 0.249744 0
0.643595 0.236286 0
0.766751 0.226978 0
0.904311 0.216815 0
1 0.201602 0
1 0.180209 0
1 0.15584 0
1 0.128679 0
1 0.101045 0
1 0.0715343 0
1 0.0418097 0
1 0.0118257 0
1 0 0
1 0 0
1 0 0
1 0 0
1 0 0
1 0 0
1 0 0
0.00468452 0.424979 0.0112459
0.00386053 0.420645 0.0104524
0.00332647 0.417517 0.00996414
0.00285344 0.415045 0.00952163
0.00241093 0.412665 0.00910964
0.00202945 0.410529 0.00874342
0.00149538 0.408652 0.00822461
0.00132753 0.406836 0.00807202
0.0009308 0.404364 0.00772107
0.0366369 0.39826 0.00531014
0.103944 0.390753 0.00259403
0.163775 0.38172 0
0.261295 0.364889 0
0.359304 0.315663 0
0.496239 0.325322 0
0.619135 0.31635 0
0.738689 0.297185 0
0.876265 0.285161 0
1 0.272526 0
1 0.251759 0
1 0.229587 0
1 0.206577 0
1 0.182544 0
1 0.157519 0
1 0.134249 0
1 0.111681 0
1 0.0906386 0
1 0.0699016 0
1 0.0504921 0
1 0.0327611 0
1 0.0175631 0
1 0.00567636 0
1 0 0
0.0176089 0.510353 0.0232395
0.0168154 0.506737 0.0225071
0.0163577 0.50399 0.0221103
0.0162356 0.501976 0.0220951
0.0158999 0.499947 0.0218509
0.0154116 0.498222 0.0214389
0.0151522 0.496605 0.0211948
0.0148775 0.494896 0.0209201
0.0146792 0.492821 0.020676
0.0168765 0.490089 0.0201114
0.0715496 0.483833 0.017731
0.147051 0.475334 0.0151522
0.204807 0.465705 0.0108644
0.34696 0.44564 0
0.445365 0.388434 0
0.586038 0.399405 0
0.711681 0.393072 0
0.843626 0.369116 0
0.984482 0.352377 0
1 0.333227 0
1 0.3122 0
1 0.289921 0
1 0.267491 0
1 0.244907 0
1 0.225193 0
1 0.206561 0
1 0.189441 0
1 0.173495 0
1 0.158892 0
1 0.145968 0
1 0.134874 0
1 0.125307 0
1 0.117906 0
0.0299992 0.599939 0.0347143
0.0296635 0.597208 0.0343938
0.0294499 0.595041 0.0342107
0.0292668 0.59324 0.0340429
0.0291142 0.591653 0.0339055
0.0289616 0.590234 0.0337682
0.0287785 0.589136 0.0336004
0.0287022 0.587839 0.0335241
0.0284733 0.586023 0.0333104
0.0281682 0.583734 0.0330358
0.0362249 0.580377 0.0322118
0.110216 0.572244 0.0292363
0.194553 0.56321 0.0266728
0.242161 0.551278 0.0195773
0.434287 0.52903 0
0.534096 0.467674 0
0.676249 0.478218 0
0.810941 0.478065 0
0.953826 0.45153 0
1 0.431296 0
1 0.408499 0
1 0.384176 0
1 0.362341 0
1 0.340841 0
1 0.322545 0
1 0.305394 0
1 0.289387 0
1 0.275578 0
1 0.263218 0
1 0.252415 0
1 0.243214 0
1 0.235676 0
1 0.229664 0
0.0398566 0.690959 0.0439307
0.0394446 0.68838 0.043534
0.0394598 0.686702 0.0435798
0.0393072 0.6851 0.0434424
0.0391699 0.68368 0.0433051
0.0390631 0.682399 0.043183
0.0389715 0.68127 0.0430915
0.0386969 0.68014 0.0427863
0.0385748 0.678614 0.042649
0.0385595 0.676783 0.0426032
0.038468 0.674372 0.0424659
0.0574655 0.670222 0.0414435
0.151858 0.66154 0.0385595
0.243778 0.65211 0.0354925
0.300389 0.638071 0.0210574
0.52314 0.615961 0
0.624262 0.552743 0
0.768399 0.562051 0
0.913802 0.56492 0
1 0.545159 0
1 0.524208 0
1 0.501457 0
1 0.478462 0
1 0.455665 0
1 0.435996 0
1 0.418296 0
1 0.401877 0
1 0.386816 0
1 0.374716 0
1 0.364904 0
1 0.356634 0
1 0.349554 0
1 0.344366 0
0.0497749 0.787839 0.0526894
0.0496834 0.785687 0.0526284
0.049546 0.783993 0.0525216
0.049424 0.782574 0.0524147
0.0493172 0.781338 0.0523384
0.0491798 0.78024 0.0522164
0.0489509 0.779309 0.0520027
0.0488594 0.778271 0.0519265
0.0487373 0.776928 0.0518502
0.0487678 0.775357 0.0518807
0.048661 0.773251 0.0518349
0.048249 0.77052 0.0514534
0.0835737 0.764828 0.0500191
0.199313 0.754543 0.0461128
0.292393 0.743572 0.0437476
0.419379 0.72488 0.00680552
0.609506 0.703655 0
0.71519 0.641917 0
0.866056 0.650889 0
1 0.653239 0
1 0.6374 0
1 0.619486 0
1 0.600931 0
1 0.581262 0
1 0.563546 0
1 0.548302 0
1 0.534218 0
1 0.521126 0
1 0.509346 0
1 0.498939 0
1 0.490471 0
1 0.483589 0
1 0.477943 0
0.0622568 0.892164 0.0641947
0.0619974 0.889982 0.0639658
0.0617838 0.888258 0.0637522
0.0614328 0.8869 0.063447
0.0614023 0.885817 0.063447
0.0613718 0.88484 0.0634623
0.0612497 0.883848 0.0633707
0.0610971 0.882811 0.0632792
0.0609293 0.881468 0.0631571
0.0607004 0.879744 0.0629892
0.0602426 0.877592 0.0625467
0.0600748 0.874968 0.0624094
0.059617 0.871519 0.0620127
0.133059 0.863203 0.0595254
0.256031 0.851774 0.055787
0.331655 0.83975 0.052369
0.519432 0.81706 0
0.700511 0.796551 0.00509651
0.809308 0.733883 0
0.96231 0.740276 0
1 0.729686 0
1 0.71667 0
1 0.703395 0
1 0.689662 0
1 0.676249 0
1 0.66569 0
1 0.655329 0
1 0.646067 0
1 0.63772 0
1 0.630396 0
1 0.624094 0
1 0.618692 0
1 0.614572 0
0.0726635 0.979507 0.0739605
0.0725567 0.978149 0.0738689
0.0726024 0.977096 0.07393
0.0726635 0.976242 0.0739757
0.0727092 0.975494 0.0740215
0.0727245 0.974838 0.0740673
0.0727703 0.974243 0.0740978
0.0728008 0.973648 0.0741283
0.0728466 0.972976 0.0741894
0.0728008 0.972015 0.0741436
0.0725109 0.970703 0.0738689
0.072221 0.969009 0.0735943
0.0719463 0.966842 0.0733501
0.0716564 0.964141 0.0730144
0.19205 0.956512 0.0691997
0.31873 0.94757 0.0658122
0.352361 0.936858 0.0572366
0.616724 0.914946 0
0.795727 0.894972 0.0172885
0.90544 0.827253 0.00321965
1 0.816098 0
1 0.802869 0
1 0.78999 0
1 0.777798 0
1 0.766186 0
1 0.757855 0
1 0.750439 0
1 0.743587 0
1 0.737545 0
1 0.732235 0
1 0.727779 0
1 0.724285 0
1 0.721325 0
0.0677653 1 0.0687419
0.0678111 1 0.0688182
0.0678569 1 0.068864
0.0679484 1 0.0689403
0.0680552 1 0.0690623
0.0681621 1 0.0691691
0.0682383 1 0.0692454
0.0682536 1 0.069276
0.0682994 1 0.0693065
0.0683452 1 0.0693523
0.0683909 1 0.0694133
0.0684825 1 0.0694896
0.0685588 1 0.0695964
0.0686809 1 0.0697185
0.0946365 1 0.0693828
0.248051 1 0.06598
0.365347 1 0.0646677
0.486564 1 0.0386816
0.721218 0.998581 0
0.883833 0.973022 0.0257267
0.992813 0.917067 0.011429
1 0.90454 0.00949111
1 0.889784 0.00653086
1 0.875654 0.00358587
1 0.862043 4.57771e-05
1 0.851392 0
1 0.842954 0
1 0.835874 0
1 0.829831 0
1 0.824491 0
1 0.819959 0
1 0.816587 0
1 0.813687 0
0.0633707 1 0.0641337
0.0634318 1 0.0641947
0.0634775 1 0.06421
0.063508 1 0.0642405
0.0635386 1 0.064271
0.0635538 1 0.0642863
0.0635843 1 0.0643015
0.0636149 1 0.0643168
0.0636454 1 0.064332
0.0636912 1 0.0643626
0.0637369 1 0.0644083
0.0638132 1 0.0644541
0.0638895 1 0.0645151
0.0641947 1 0.0647746
0.0643626 1 0.0649577
0.147341 1 0.0632639
0.308888 1 0.059968
0.35848 1 0.054612
0.629496 1 0
0.827268 1 0.0107881
0.950103 0.994171 0.0105898
1 0.977707 0.0053254
1 0.970092 0.00419623
1 0.962661 0.00321965
1 0.955367 0.00236515
1 0.9467 0.00181582
1 0.940551 0.00228885
1 0.934997 0.00268559
1 0.930175 0.00311284
1 0.925948 0.00331121
1 0.922652 0.00375372
1 0.919707 0.00395209
1 0.917449 0.00393683
0.0586862 1 0.0592203
0.0588998 1 0.0594034
0.0590372 1 0.0595407
0.0590677 1 0.0595865
0.0590982 1 0.0596323
0.0591135 1 0.0596475
0.059144 1 0.059678
0.0591745 1 0.059678
0.059205 1 0.0597238
0.0592355 1 0.0597696
0.0592813 1 0.0598306
0.0593576 1 0.0598764
0.0594339 1 0.059968
0.0595254 1 0.0600748
0.0596475 1 0.0602121
0.0598001 1 0.0603647
0.224125 1 0.0571908
0.364645 1 0.0549783
0.511788 1 0.0232395
0.752483 1 0
0.907729 1 0.013138
1 1 0.000228885
1 1 0
1 1 0
1 1 0
1 1 0
1 1 0
1 0.997223 0
1 0.993881 0
1 0.991257 0
1 0.988876 0
1 0.986908 0
1 0.985367 0
0.0546273 1 0.054902
0.0546731 1 0.054963
0.0547036 1 0.0549935
0.0547341 1 0.0550393
0.0548257 1 0.0551308
0.0549172 1 0.0551919
0.0549935 1 0.0552682
0.0550698 1 0.0553597
0.0551156 1 0.0554055
0.0551461 1 0.0554513
0.0551919 1 0.0555123
0.0552682 1 0.0555581
0.0553292 1 0.0556344
0.0554208 1 0.0557412
0.0555428 1 0.0558633
0.0556802 1 0.0560159
0.117647 1 0.054612
0.307561 1 0.0508125
0.351736 1 0.0429999
0.666896 1 0
0.862562 1 0.0112001
0.977691 1 0
1 1 0
1 1 0
1 1 0
1 1 0
1 1 0
1 1 0
1 1 0
1 1 0
1 1 0
1 1 0
1 1 0
0.05066 1 0.050721
0.0508278 1 0.0509041
0.0509499 1 0.0510262
0.0509804 1 0.0510719
0.0509957 1 0.0511025
0.0510262 1 0.0511177
0.0510414 1 0.0511482
0.0510719 1 0.0511482
0.0511025 1 0.0511788
0.051133 1 0.0512245
0.0511788 1 0.0512703
0.0512398 1 0.0513466
0.0513161 1 0.0514076
0.0513924 1 0.0514992
0.0515145 1 0.0516213
0.0516365 1 0.0517739
0.0520638 1 0.0522011
0.228779 1 0.0484779
0.374212 1 0.0459754
0.570977 1 0
0.799542 1 0
0.938415 1 0
1 1 0
1 1 0
1 1 0
1 1 0
1 1 0
1 1 0
1 1 0
1 1 0
1 1 0
1 1 0
1 1 0
0.0473335 1 0.0472114
0.047364 1 0.0472572
0.0474098 1 0.047303
0.047425 1 0.0473335
0.0474556 1 0.0473335
0.0474861 1 0.047364
0.0475013 1 0.0473793
0.0475166 1 0.0474098
0.0475471 1 0.0474403
0.0475776 1 0.0474861
0.0476234 1 0.0475319
0.0476692 1 0.0475929
0.047776 1 0.0476844
0.0480964 1 0.0480049
0.0482032 1 0.0481117
0.0483253 1 0.0482643
0.0484932 1 0.0484321
0.138643 1 0.0463569
0.333837 1 0.0431525
0.448676 1 0.0222629
0.73164 1 0
0.901335 1 0.00128176
1 1 0
1 1 0
1 1 0
1 1 0
1 1 0
1 1 0
1 1 0
1 1 0
1 1 0
1 1 0
1 1 0
0.0463417 1 0.0461738
0.0463417 1 0.0461738
0.0463264 1 0.0461585
0.0463417 1 0.0461585
0.0463417 1 0.0461585
0.0463417 1 0.0461585
0.0463264 1 0.0461585
0.0463264 1 0.0461585
0.0463417 1 0.0461585
0.0463417 1 0.0461585
0.0463417 1 0.0461585
0.0463417 1 0.0461585
0.0463417 1 0.0461738
0.0463417 1 0.0461585
0.0463417 1 0.0461585
0.0463417 1 0.0461585
0.0463417 1 0.0461738
0.0636912 1 0.0458381
0.276814 1 0.0409857
0.362417 1 0.0351568
0.66125 1 0
0.864546 1 0.000122072
0.980926 1 0
1 1 0
1 1 0
1 1 0
1 1 0
1 1 0
1 1 0
1 1 0
1 1 0
1 1 0
1 1 0
0.0463417 1 0.0461738
0.0463264 1 0.0461585
0.0463264 1 0.0461585
0.0463264 1 0.0461585
0.0463264 1 0.0461585
0.0463264 1 0.0461585
0.0463264 1 0.0461433
0.0463264 1 0.0461585
0.0463264 1 0.0461585
