docs/7.视频剪辑/assets/LUT/iphone_17_pro_applelog2_02_lut.cube
TITLE "Generated by Resolve"
LUT_3D_SIZE 9
0 0 0
0.0607004 0 0
0.237873 0 0
0.512505 0 0
0.908049 0 0
1 0 0
1 0 0
1 0 0
1 0 0
0 0 0
0 0 0
0.160266 0 0
0.463218 0 0
0.873579 0 0
1 0 0
1 0 0
1 0 0
1 0 0
0 0.123018 0
0 0.106798 0
0.0735332 0.0809644 0
0.412863 0.0677195 0
0.843473 0.0206149 0
1 0 0
1 0 0
1 0 0
1 0 0
0 0.343816 0
0 0.330755 0
0.00813306 0.319738 0
0.279789 0.251789 0
0.766751 0.226978 0
1 0.15584 0
1 0.0418097 0
1 0 0
1 0 0
0.0398566 0.690959 0.0439307
0.0391699 0.68368 0.0433051
0.0385748 0.678614 0.042649
0.151858 0.66154 0.0385595
0.624262 0.552743 0
1 0.524208 0
1 0.435996 0
1 0.374716 0
1 0.344366 0
0.0677653 1 0.0687419
0.0680552 1 0.0690623
0.0682994 1 0.0693065
0.0685588 1 0.0695964
0.365347 1 0.0646677
0.992813 0.917067 0.011429
1 0.862043 4.57771e-05
1 0.829831 0
1 0.813687 0
0.05066 1 0.050721
0.0509957 1 0.0511025
0.0511025 1 0.0511788
0.0513161 1 0.0514076
0.0520638 1 0.0522011
0.799542 1 0
1 1 0
1 1 0
1 1 0
0.0463417 1 0.0461585
0.0463264 1 0.0461585
0.0463264 1 0.0461585
0.0463264 1 0.0461585
0.0463264 1 0.0461585
0.536019 1 0.00227359
1 1 0
1 1 0
1 1 0
0.0463417 1 0.0461738
0.0463417 1 0.0461585
0.0463417 1 0.0461585
0.0463417 1 0.0461585
0.0463417 1 0.0461585
0.365286 1 0.0359808
1 1 0
1 1 0
1 1 0
0 0 0
0.0271611 0 0
0.20531 0 0
0.491859 0 0
0.892973 0 0
1 0 0
1 0 0
1 0 0
1 0 0
0 0 0
0 0 0
0.120409 0 0
0.440421 0 0
0.857862 0 0
1 0 0
1 0 0
1 0 0
1 0 0
0 0.0901961 0
0 0.0728008 0
0.0467231 0.0495155 0
0.393713 0.0354009 0
0.832715 0 0
1 0 0
1 0 0
1 0 0
1 0 0
0 0.316976 0
0 0.303304 0
0 0.293828 0
0.252384 0.228885 0
0.753796 0.204379 0
1 0.130526 0
1 0.00830091 0
1 0 0
1 0 0
0.0385748 0.67538 0.0426032
0.0376745 0.667796 0.0417182
0.037232 0.663005 0.0413367
0.124269 0.646845 0.0374762
0.608698 0.536614 0
1 0.505013 0
1 0.415824 0
1 0.355932 0
1 0.325124 0
0.0684062 1 0.0694285
0.068574 1 0.0696117
0.0686961 1 0.0697337
0.0690929 1 0.0701457
0.356497 1 0.0654612
0.984695 0.908568 0.0119631
1 0.851225 0
1 0.819348 0
1 0.803494 0
0.051194 1 0.0512856
0.0513313 1 0.0514229
0.0514076 1 0.0515145
0.0516213 1 0.0517433
0.0523537 1 0.0525368
0.785061 1 0
1 1 0
1 1 0
1 1 0
0.0463417 1 0.0461738
0.0463264 1 0.0461585
0.0463264 1 0.0461585
0.0463264 1 0.0461585
0.0463264 1 0.0461585
0.50573 1 0.00976577
1 1 0
1 1 0
1 1 0
0.0463417 1 0.0461738
0.0463417 1 0.0461738
0.0463417 1 0.0461585
0.0463417 1 0.0461738
0.0463417 1 0.0461738
0.374044 1 0.0376898
1 1 0
1 1 0
1 1 0
0 0 0.140352
0.0146181 0 0.120104
0.170138 0 0.0852674
0.480873 0 0.0585641
0.884947 0 0.0376898
1 0 0
1 0 0
1 0 0
1 0 0
0 0 0.101061
0 0 0.0921492
0.088716 0 0.0577707
0.426108 0 0.0333715
0.851164 0 0.00970474
1 0 0
1 0 0
1 0 0
1 0 0
0 0.0733196 0.0437781
0 0.0536049 0.0407568
0.0367132 0.0337987 0.0193484
0.380438 0.0142367 0.00360113
0.825422 0 0
1 0 0
1 0 0
1 0 0
1 0 0
0 0.301518 0.0122835
0 0.288045 0.00584421
0 0.278721 0.00601205
0.237049 0.216052 0
0.746395 0.191623 0
1 0.116243 0
1 0 0
1 0 0
1 0 0
0.037583 0.666621 0.0416419
0.0368658 0.65919 0.041001
0.0363317 0.654307 0.0404974
0.108263 0.638666 0.03682
0.599435 0.527794 0
1 0.494194 0
1 0.404303 0
1 0.345403 0
1 0.314351 0
0.0686351 1 0.0696574
0.0687877 1 0.0698405
0.0689097 1 0.0699474
0.0694285 1 0.0704814
0.350118 1 0.0657511
0.979889 0.902861 0.0117647
1 0.845136 0
1 0.813779 0
1 0.797589 0
0.0513619 1 0.0514687
0.0514839 1 0.051606
0.0515755 1 0.0516976
0.0519875 1 0.0521096
0.0525368 1 0.0527047
0.776867 1 0
1 1 0
1 1 0
1 1 0
0.0463417 1 0.0461585
0.0463264 1 0.0461585
0.0463264 1 0.0461585
0.0463264 1 0.0461585
0.0463264 1 0.0461585
0.488746 1 0.0135348
1 1 0
1 1 0
1 1 0
0.0463569 1 0.0461738
0.0463417 1 0.0461738
0.0463417 1 0.0461585
0.0463417 1 0.0461585
0.0463417 1 0.0461738
0.378912 1 0.0387427
1 1 0
1 1 0
1 1 0
0 0.00619516 0.406851
0 0 0.399313
0.137087 0 0.362737
0.45008 0 0.291081
0.870787 0 0.198718
1 0 0.170062
1 0 0.140215
1 0 0.11809
1 0 0.10547
0 0.00138857 0.376852
0 0.000427253 0.370993
0.0775158 0 0.356878
0.389425 0 0.271092
0.837613 0 0.17969
1 0 0.154574
1 0 0.122484
1 0 0.0991836
1 0 0.0859998
0 0.0742962 0.33518
0 0.0550851 0.334157
0.0075227 0.0302739 0.328344
0.344228 0 0.254154
0.815625 0 0.170932
1 0 0.143816
1 0 0.110674
1 0 0.0864118
1 0 0.0726177
0 0.269932 0.251362
0 0.255512 0.248997
0 0.246159 0.247227
0.21886 0.205264 0.176242
0.734676 0.175189 0.144366
1 0.0821546 0.105531
1 0 0.084062
1 0 0.0572824
1 0 0.0409247
0.0232395 0.647517 0.167025
0.0229953 0.639948 0.162875
0.0229038 0.634836 0.160433
0.0639506 0.62002 0.151934
0.578744 0.513771 0.0836347
1 0.470008 0
1 0.380041 0
1 0.323827 0
1 0.29247 0
0.0688182 1 0.0865492
0.0692454 1 0.0836347
0.069398 1 0.0814832
0.0697337 1 0.0772869
0.33785 0.998947 0.0670329
0.969558 0.891585 0.0111543
1 0.834318 0
1 0.80264 0
1 0.786648 0
0.0516823 1 0.0518196
0.052079 1 0.0522164
0.0521553 1 0.0523079
0.0523537 1 0.0525216
0.0531319 1 0.053315
0.7608 1 0
1 1 0
1 1 0
1 1 0
0.0463417 1 0.0461585
0.0463264 1 0.0461585
0.0463264 1 0.0461585
0.0463264 1 0.0461585
0.0463264 1 0.0461585
0.453864 1 0.0189517
1 1 0
1 1 0
1 1 0
0.0463569 1 0.0461738
0.0463417 1 0.0461738
0.0463417 1 0.0461585
0.0463417 1 0.0461738
0.0463417 1 0.0461585
0.377218 1 0.0395361
1 1 0
1 1 0
1 1 0
0 0.0738079 0.830716
0 0.0734112 0.82739
0.0813916 0.0331731 0.816281
0.399359 0 0.72491
0.824643 0 0.636133
1 0 0.590051
1 0 0.553155
1 0 0.528817
1 0 0.515511
0 0.0709697 0.811505
0 0.0704051 0.808469
0 0.0640421 0.803525
0.310994 0 0.751354
0.790204 0 0.623194
1 0 0.573083
1 0 0.53315
1 0 0.508217
1 0 0.494621
0 0.0692149 0.800214
0 0.0686809 0.796902
0 0.0683604 0.794842
0.250217 0 0.758968
0.767452 0 0.614389
1 0 0.562112
1 0 0.520088
1 0 0.494545
1 0 0.48072
0 0.282322 0.731807
0 0.270832 0.729244
0 0.262898 0.727794
0.144488 0.225681 0.68748
0.703822 0.0624552 0.57644
1 0 0.533181
1 0 0.491539
1 0 0.465187
1 0 0.450813
0 0.600519 0.616373
0 0.591836 0.614282
0 0.586252 0.613672
0 0.57319 0.611399
0.532738 0.509957 0.476402
1 0.449119 0.422812
1 0.354482 0.382742
1 0.270787 0.347326
1 0.22356 0.329473
0.0167544 1 0.303761
0.0178836 1 0.302998
0.0184024 1 0.302373
0.0196078 1 0.300847
0.270146 0.976486 0.308736
0.939178 0.877806 0.337636
1 0.824598 0.285359
1 0.792813 0.250614
1 0.77644 0.231846
0.0330053 1 0.265507
0.0337072 1 0.263676
0.0341497 1 0.262531
0.0354009 1 0.260136
0.0374762 1 0.252644
0.702235 1 0.127291
1 1 0.151614
1 1 0.126131
1 1 0.114488
0.0408484 1 0.178653
0.0410163 1 0.175448
0.0411231 1 0.173419
0.0413672 1 0.168597
0.0423133 1 0.156222
0.352331 1 0.119417
1 1 0.0446479
1 1 0.0176089
1 1 0.00474556
0.0442206 1 0.125139
0.0443275 1 0.122179
0.044419 1 0.120333
0.0446479 1 0.115877
0.0451514 1 0.104341
0.357855 1 0.0748608
1 1 0
1 1 0
1 1 0
0 0.125017 1
0 0.125048 1
0 0.125063 1
0.249699 0.058854 1
0.770367 0 1
1 0 1
1 0 1
1 0 0.993759
1 0 0.988922
0 0.1252 1
0 0.125246 1
0 0.125246 1
0.191394 0.0726635 1
0.738445 0 1
1 0 1
1 0 0.995224
1 0 0.985977
1 0 0.981109
0 0.125338 1
0 0.125338 1
0 0.125353 1
0.150942 0.0871901 1
0.71696 0 1
1 0 1
1 0 0.990173
1 0 0.98088
1 0 0.975494
0 0.227863 1
0 0.212085 1
0 0.198169 1
0.0369879 0.154131 1
0.670695 0 1
1 0 0.999817
1 0 0.979599
1 0 0.969802
1 0 0.964752
0 0.576608 1
0 0.569909 1
0 0.56527 1
0 0.555032 1
0.430488 0.515328 1
1 0.31957 0.94667
1 0.208698 0.924163
1 0.130053 0.917922
1 0.0843977 0.914443
0 0.977707 1
0 0.972412 1
0 0.968856 1
0 0.9608 1
0 0.930877 1
0.879515 0.854459 0.82385
1 0.793271 0.79411
1 0.749508 0.776196
1 0.726848 0.768032
0 1 0.850706
0 1 0.848768
0 1 0.847669
0 1 0.844694
0 1 0.836866
0.560281 1 0.68661
1 1 0.680613
1 1 0.664271
1 1 0.658412
0 1 0.719188
0 1 0.716472
0 1 0.715023
0 1 0.710506
0 1 0.699474
0.262715 1 0.611582
1 1 0.591409
1 1 0.568795
1 1 0.56199
0 1 0.66688
0 1 0.66421
0 1 0.662638
0 1 0.658274
0 1 0.646723
0.179339 1 0.579553
1 1 0.556115
1 1 0.530434
1 1 0.520714
0 0.133623 1
0 0.133639 1
0 0.133639 1
0.073228 0.106279 1
0.706584 0 1
1 0 1
1 0 1
1 0 1
1 0 1
0 0.13373 1
0 0.133745 1
0 0.133745 1
0 0.12987 1
0.669093 0 1
1 0 1
1 0 1
1 0 1
1 0 1
0 0.133791 1
0 0.133791 1
0 0.133806 1
0 0.133822 1
0.63978 0 1
1 0 1
1 0 1
1 0 1
1 0 1
0 0.133913 1
0 0.133913 1
0 0.133928 1
0 0.133959 1
0.560372 0 1
1 0 1
1 0 1
1 0 1
1 0 1
0 0.485649 1
0 0.477684 1
0 0.472175 1
0 0.459739 1
0.283452 0.404059 1
1 0.158083 1
1 0.0412299 1
1 0 1
1 0 1
0 0.892058 1
0 0.886397 1
0 0.882536 1
0 0.873976 1
0 0.853407 1
0.790799 0.797498 1
1 0.707027 1
1 0.660502 1
1 0.637827 1
0 1 1
0 1 1
0 1 1
0 1 1
0 1 1
0.422278 1 1
1 1 1
1 1 1
1 1 1
0 1 1
0 1 1
0 1 1
0 1 1
0 1 1
0.044419 1 1
1 1 1
1 1 1
1 1 1
0 1 1
0 1 1
0 1 1
0 1 1
0 1 1
0 1 1
0.930617 1 1
1 1 1
1 1 0.997101
0 0.131167 1
0 0.131167 1
0 0.131167 1
0 0.131167 1
0.62034 0 1
1 0 1
1 0 1
1 0 1
1 0 1
0 0.131167 1
0 0.131167 1
0 0.131167 1
0 0.131167 1
0.551934 0 1
1 0 1
1 0 1
1 0 1
1 0 1
0 0.131167 1
0 0.131167 1
0 0.131167 1
0 0.131167 1
0.481315 0 1
1 0 1
1 0 1
1 0 1
1 0 1
0 0.131167 1
0 0.131167 1
0 0.131167 1
0 0.131167 1
0.349538 0 1
1 0 1
1 0 1
1 0 1
1 0 1
0 0.397345 1
0 0.387579 1
0 0.381064 1
0 0.365042 1
0.167544 0.298894 1
1 0.00695811 1
1 0 1
1 0 1
1 0 1
0 0.829892 1
0 0.824613 1
0 0.821118 1
0 0.813153 1
0 0.794202 1
0.720897 0.741222 1
1 0.634485 1
1 0.586374 1
1 0.561303 1
0 1 1
0 1 1
0 1 1
0 1 1
0 1 1
0.31931 1 1
1 1 1
1 1 1
1 1 1
0 1 1
0 1 1
0 1 1
0 1 1
0 1 1
0 1 1
0.937942 1 1
1 1 1
1 1 1
0 1 1
0 1 1
0 1 1
0 1 1
0 1 1
0 1 1
0.831373 1 1
1 1 1
1 1 1
0 0.131167 1
0 0.131167 1
0 0.131167 1
0 0.131167 1
0.541787 0 1
1 0 1
1 0 1
1 0 1
1 0 1
0 0.131167 1
0 0.131167 1
0 0.131167 1
0 0.131167 1
0.422599 0 1
1 0 1
1 0 1
1 0 1
1 0 1
0 0.131167 1
0 0.131167 1
0 0.131167 1
0 0.131167 1
0.360922 0 1
1 0 1
1 0 1
1 0 1
1 0 1
0 0.131182 1
0 0.131167 1
0 0.131167 1
0 0.131167 1
0.306661 0.0208133 1
1 0 1
1 0 1
1 0 1
1 0 1
0 0.34049 1
0 0.329107 1
0 0.321202 1
0 0.302617 1
0.109178 0.230335 1
0.986618 0 1
1 0 1
1 0 1
1 0 1
0 0.800015 1
0 0.794705 1
0 0.791287 1
0 0.783246 1
0 0.764508 1
0.685359 0.71162 1
1 0.594553 1
1 0.544778 1
1 0.516091 1
0 1 1
0 1 1
0 1 1
0 1 1
0 1 1
0.254795 1 1
1 1 1
1 1 1
1 1 1
0 1 1
0 1 1
0 1 1
0 1 1
0 1 1
0 1 1
0.909209 1 1
1 1 1
1 1 1
0 1 1
0 1 1
0 1 1
0 1 1
0 1 1
0 1 1
0.793011 1 1
1 1 1
1 1 1
