work-blog-website-frontend/docs/7.视频剪辑/assets/LUT/iphone_17_pro_applelog2_01_lut.cube
TITLE "Generated by Resolve"
LUT_3D_SIZE 9
0 0 0
0.0856184 0 0
0.175372 0 0
0.304051 0 0
0.51989 0 0
0.812482 0 0
1 0 0
1 0 0
1 0 0
0 0.0257877 0
0.00848402 0.00865187 0
0.12015 0.00224308 0
0.265568 0 0
0.493202 0 0
0.793072 0 0
1 0 0
1 0 0
1 0 0
0 0.113481 0
0 0.0979477 0
0.0900893 0.0903639 0
0.246509 0.0745861 0
0.480476 0.0326696 0
0.783932 0 0
1 0 0
1 0 0
1 0 0
0 0.232136 0
0 0.221546 0
0.0184939 0.216526 0
0.206134 0.206424 0
0.454643 0.181689 0
0.765652 0.129671 0
1 0.0426337 0
1 0 0
1 0 0
0 0.424125 0
0 0.416846 0
0 0.413443 0
0.0871138 0.406668 0
0.390158 0.390539 0
0.721721 0.359152 0
1 0.316243 0
1 0.279011 0
1 0.25745 0
0 0.680385 0
0 0.67512 0
0 0.672663 0
0 0.667796 0
0.245502 0.656321 0
0.633906 0.63444 0
0.96347 0.605661 0
1 0.581842 0
1 0.568612 0
0 0.932342 0
0 0.92813 0
0 0.926177 0
0 0.922286 0
0 0.913176 0
0.507424 0.895949 0
0.872862 0.873533 0
1 0.855222 0
1 0.845151 0
0 1 0
0 1 0
0 1 0
0 1 0
0 1 0
0.38793 1 0
0.794903 1 0
1 1 0
1 1 0
0 1 0
0 1 0
0 1 0
0 1 0
0 1 0
0.311803 1 0
0.750118 1 0
0.998169 1 0
1 1 0
0 0 0.0144503
0.0583963 0 0.00885023
0.156497 0 0.00643931
0.29044 0 0.00218204
0.510323 0 0
0.805478 0 0
1 0 0
1 0 0
1 0 0
0 0.00163272 0
0 0 0
0.0970321 0 0
0.250767 0 0
0.483284 0 0
0.785946 0 0
1 0 0
1 0 0
1 0 0
0 0.0894942 0
0 0.0721752 0
0.0634928 0.0635843 0
0.231037 0.045243 0
0.470375 0.00636301 0
0.776745 0 0
1 0 0
1 0 0
1 0 0
0 0.215961 0
0 0.204929 0
0 0.19968 0
0.188922 0.18909 0
0.444175 0.163027 0
0.758343 0.107271 0
1 0.0141756 0
1 0 0
1 0 0
0 0.413062 0
0 0.405676 0
0 0.402197 0
0.0601053 0.3953 0
0.378576 0.378882 0
0.714092 0.346822 0
1 0.302876 0
1 0.264546 0
1 0.242267 0
0 0.672389 0
0 0.667079 0
0 0.664591 0
0 0.659678 0
0.229984 0.648112 0
0.625559 0.626032 0
0.957275 0.596979 0
1 0.572931 0
1 0.559548 0
0 0.925948 0
0 0.921721 0
0 0.919753 0
0 0.915846 0
0 0.906691 0
0.497688 0.889372 0
0.866209 0.866835 0
1 0.848432 0
1 0.8383 0
0 1 0
0 1 0
0 1 0
0 1 0
0 1 0
0.376287 1 0
0.787778 1 0
1 1 0
1 1 0
0 1 0
0 1 0
0 1 0
0 1 0
0 1 0
0.298405 1 0
0.742702 1 0
0.992142 1 0
1 1 0
0 0 0.0989853
0.0441291 0 0.0933394
0.147311 0 0.0906691
0.283986 0 0.0852979
0.505837 0 0.0722057
0.802213 0 0.0449073
1 0 0.01149
1 0 0
1 0 0
0 0 0.073106
0 0 0.066743
0.0854658 0 0.0637064
0.243717 0 0.057557
0.47863 0 0.0422675
0.782605 0 0.0158389
1 0 0
1 0 0
1 0 0
0 0.0774243 0.0598917
0 0.0590066 0.0530556
0.0497902 0.0497902 0.0497902
0.223636 0.0311589 0.0430304
0.465629 0 0.028275
0.773388 0 0.00477607
1 0 0
1 0 0
1 0 0
0 0.208209 0.0316472
0 0.196933 0.0250401
0 0.191577 0.0220645
0.180621 0.180743 0.0164187
0.439246 0.153979 0.0047303
0.75494 0.0961318 0
1 0.00354009 0
1 0 0
1 0 0
0 0.407858 0
0 0.400397 0
0 0.396902 0
0.0459449 0.389944 0
0.373098 0.373373 0
0.710536 0.340993 0
1 0.296529 0
1 0.257664 0
1 0.235004 0
0 0.66865 0
0 0.66331 0
0 0.660822 0
0 0.655894 0
0.222568 0.644266 0
0.621653 0.622095 0
0.954376 0.592905 0
1 0.56875 0
1 0.555291 0
0 0.922972 0
0 0.91873 0
0 0.916762 0
0 0.91284 0
0 0.90367 0
0.493126 0.88629 0
0.863096 0.863706 0
1 0.845258 0
1 0.835096 0
0 1 0
0 1 0
0 1 0
0 1 0
0 1 0
0.370794 1 0
0.784466 1 0
1 1 0
1 1 0
0 1 0
0 1 0
0 1 0
0 1 0
0 1 0
0.292058 1 0
0.739239 1 0
0.989319 1 0
1 1 0
0 0 0.215915
0.0177157 0 0.2121
0.128298 0 0.210315
0.270985 0 0.20676
0.496895 0 0.198322
0.795727 0 0.181979
1 0 0.159854
1 0 0.140871
1 0 0.130007
0 0 0.198886
0 0 0.194903
0.0606088 0 0.193027
0.229435 0 0.189303
0.469352 0 0.180438
0.776013 0 0.16318
1 0 0.139651
1 0 0.119249
1 0 0.107454
0 0.0512551 0.190707
0 0.0309758 0.186618
0.0224613 0.0222782 0.184695
0.208606 0.00703441 0.18088
0.456184 0 0.171801
0.76672 0 0.15407
1 0 0.129763
1 0 0.108553
1 0 0.0962234
0 0.192416 0.173953
0 0.180621 0.16965
0 0.175006 0.167636
0.163622 0.163622 0.163622
0.429419 0.135286 0.154025
0.748165 0.0723888 0.13521
1 0 0.109102
1 0 0.0859693
1 0 0.072282
0 0.397452 0.131029
0 0.389868 0.12607
0 0.386313 0.123735
0.0192721 0.379232 0.119051
0.362158 0.362356 0.10779
0.703471 0.32932 0.0851606
1 0.283772 0.0522164
1 0.243748 0.0235904
1 0.22031 0.010193
0 0.661219 0.024918
0 0.655833 0.0186313
0 0.65333 0.0158236
0 0.648356 0.0105592
0.207492 0.636637 0.000518807
0.613901 0.614282 0
0.948653 0.584833 0
1 0.560433 0
1 0.546838 0
0 0.917067 0
0 0.91281 0
0 0.910826 0
0 0.906889 0
0 0.897673 0
0.484031 0.880217 0
0.856947 0.857511 0
1 0.838956 0
1 0.828748 0
0 1 0
0 1 0
0 1 0
0 1 0
0 1 0
0.359808 1 0
0.777874 1 0
1 1 0
1 1 0
0 1 0
0 1 0
0 1 0
0 1 0
0 1 0
0.279271 1 0
0.732372 1 0
0.983749 1 0
1 1 0
0 0 0.402884
0 0 0.400275
0.0775464 0 0.399054
0.239033 0 0.396643
0.475563 0 0.390982
0.780423 0 0.380209
1 0 0.366155
1 0 0.35462
1 0 0.348226
0 0 0.391363
0 0 0.388693
0.00207523 0 0.387457
0.193912 0 0.385
0.447181 0 0.379217
0.760433 0 0.368231
1 0 0.353887
1 0 0.342077
1 0 0.335561
0 0 0.385916
0 0 0.38323
0 0 0.381979
0.170886 0 0.379507
0.43357 0 0.373663
0.751019 0 0.362585
1 0 0.348089
1 0 0.336156
1 0 0.329564
0 0.152438 0.375051
0 0.139055 0.372305
0 0.132616 0.371038
0.119799 0.119448 0.368505
0.405859 0.0857099 0.36257
0.732174 0.0106966 0.351263
1 0 0.336461
1 0 0.324269
1 0 0.317525
0 0.372442 0.348821
0 0.364538 0.345953
0 0.36083 0.344625
0 0.353429 0.34197
0.335744 0.335744 0.335744
0.686748 0.300969 0.323873
1 0.252522 0.308278
1 0.209293 0.295384
1 0.183566 0.288228
0 0.643626 0.29604
0 0.638148 0.292866
0 0.635584 0.291386
0 0.630518 0.288457
0.16965 0.61857 0.281514
0.595499 0.595743 0.268254
0.935195 0.565652 0.250706
1 0.540658 0.236072
1 0.526741 0.227878
0 0.903166 0.218692
0 0.898848 0.214893
0 0.896849 0.213123
0 0.892882 0.209598
0 0.883543 0.201236
0.462318 0.865888 0.185016
0.842451 0.842908 0.163104
1 0.824125 0.144335
1 0.813779 0.133608
0 1 0.143023
0 1 0.138277
0 1 0.136034
0 1 0.131563
0 1 0.120836
0.333272 1 0.0994583
0.762325 1 0.0688792
1 1 0.0403906
1 0.999786 0.0251926
0 1 0.0921492
0 1 0.0863203
0 1 0.0835737
0 1 0.0780194
0 1 0.0644388
0.247944 1 0.0363775
0.716136 1 0.00514229
0.970642 1 0
1 1 0
0 0 0.651301
0 0 0.649409
0 0 0.648539
0.171328 0 0.646799
0.433829 0 0.64271
0.751186 0 0.635019
1 0 0.625086
1 0 0.617029
1 0 0.612619
0 0 0.642985
0 0 0.641077
0 0 0.640192
0.115267 0 0.638437
0.403571 0 0.634318
0.730648 0 0.626551
1 0 0.616526
1 0 0.608392
1 0 0.603937
0 0 0.639094
0 0 0.637171
0 0 0.636286
0.0845502 0 0.634516
0.388998 0 0.630381
0.720958 0 0.622599
1 0 0.612528
1 0 0.604349
1 0 0.599878
0 0.0573587 0.631357
0 0.0369879 0.629419
0 0.0279698 0.628519
0.0129091 0.01178 0.626749
0.359167 0 0.622583
0.701549 0 0.61471
1 0 0.604562
1 0 0.596307
1 0 0.591791
0 0.322469 0.613031
0 0.313802 0.611063
0 0.309728 0.610132
0 0.301564 0.608316
0.282399 0.281987 0.604059
0.654673 0.242924 0.596033
0.978988 0.186877 0.585657
1 0.134264 0.577234
1 0.101015 0.57261
0 0.609751 0.577646
0 0.604059 0.575601
0 0.601404 0.574639
0 0.596139 0.572747
0.0828412 0.583719 0.568307
0.559945 0.559945 0.559945
0.90959 0.528481 0.549096
1 0.502281 0.540291
1 0.487633 0.535454
0 0.876692 0.530114
0 0.872297 0.527932
0 0.870253 0.526909
0 0.866194 0.52491
0 0.856657 0.520195
0.41973 0.83859 0.511299
0.814801 0.815076 0.499763
1 0.795819 0.490379
1 0.785214 0.485206
0 1 0.489738
0 1 0.487434
0 1 0.486366
0 1 0.484245
0 1 0.479271
0.279667 1 0.469871
0.732586 1 0.457664
0.983917 0.984329 0.4477
1 0.975235 0.442206
0 1 0.466819
0 1 0.464439
0 1 0.46334
0 1 0.461158
0 1 0.456016
0.181964 1 0.446296
0.685008 1 0.433646
0.945724 1 0.423316
1 1 0.417624
0 0 0.895109
0 0 0.893599
0 0 0.892897
0.0542611 0 0.891508
0.376242 0 0.888258
0.712581 0 0.882139
1 0 0.874281
1 0 0.867933
1 0 0.864469
0 0 0.888472
0 0 0.886961
0 0 0.886244
0 0 0.884855
0.342901 0 0.88159
0.691234 0 0.875441
1 0 0.867536
1 0 0.861143
1 0 0.857664
0 0 0.885374
0 0 0.883848
0 0 0.883146
0 0 0.881743
0.326696 0 0.878462
0.681147 0 0.872312
0.999023 0 0.864378
1 0 0.857984
1 0 0.854475
0 0 0.87924
0 0 0.877714
0 0 0.876997
0 0 0.875593
0.293141 0 0.872297
0.660945 0 0.866102
0.983703 0 0.858137
1 0 0.851698
1 0 0.848188
0 0.250477 0.86479
0 0.24036 0.863233
0 0.235569 0.862516
0 0.225956 0.861097
0.203662 0.202518 0.857755
0.611963 0.154025 0.851484
0.947234 0.0772717 0.843427
1 0.0021973 0.836912
1 0 0.833341
0 0.564416 0.837232
0 0.558419 0.835645
0 0.555627 0.834913
0 0.550057 0.833448
0 0.536919 0.830045
0.512078 0.511711 0.823621
0.876066 0.478187 0.815366
1 0.450095 0.808682
1 0.434318 0.805035
0 0.841978 0.801007
0 0.837446 0.799374
0 0.83534 0.798611
0 0.831159 0.797116
0 0.821332 0.793591
0.360754 0.802716 0.786969
0.778424 0.778424 0.778424
1 0.758526 0.771527
1 0.747555 0.767758
0 1 0.771054
0 1 0.769375
0 1 0.768597
0 1 0.767056
0 1 0.763439
0.200366 0.990265 0.756619
0.693248 0.969436 0.747845
0.952285 0.952483 0.740749
1 0.94316 0.736858
0 1 0.754421
0 1 0.752712
0 1 0.751919
0 1 0.750347
0 1 0.74667
0.0708934 1 0.739757
0.643702 1 0.730831
0.913146 1 0.723613
1 1 0.719661
0 0 1
0 0 1
0 0 1
0 0 1
0.325582 0 1
0.680476 0 1
0.998505 0 1
1 0 1
1 0 1
0 0 1
0 0 1
0 0 1
0 0 1
0.288823 0 1
0.658412 0 1
0.981796 0 1
1 0 1
1 0 1
0 0 1
0 0 1
0 0 1
0 0 1
0.270741 0 1
0.647974 0 1
0.973968 0 1
1 0 1
1 0 1
0 0 1
0 0 1
0 0 1
0 0 1
0.232746 0 1
0.627039 0 1
0.958358 0 1
1 0 1
1 0 1
0 0.182452 1
0 0.170306 1
0 0.164508 1
0 0.152728 1
0.125383 0.123247 1
0.57612 0.0564584 1
0.921172 0 1
1 0 1
1 0 1
0 0.526146 1
0 0.51986 1
0 0.516915 1
0 0.51107 1
0 0.497261 1
0.471351 0.470665 0.997787
0.848447 0.435096 0.9906
1 0.405112 0.984802
1 0.38819 0.981643
0 0.813336 0.978149
0 0.808698 0.97673
0 0.806531 0.976074
0 0.802243 0.974762
0 0.792172 0.971725
0.308568 0.773053 0.965988
0.748318 0.748104 0.958633
0.996704 0.727626 0.952697
1 0.71632 0.949447
0 0.999405 0.952285
0 0.995407 0.950851
0 0.993545 0.950164
0 0.989853 0.948837
0 0.981201 0.945739
0.121141 0.964843 0.939895
0.660487 0.943618 0.932387
0.926329 0.926329 0.926329
1 0.916823 0.923018
0 1 0.938003
0 1 0.936553
0 1 0.935866
0 1 0.934524
0 1 0.93138
0 1 0.925475
0.60914 1 0.917891
0.886366 1 0.911757
1 1 0.9084
0 0 1
0 0 1
0 0 1
0 0 1
0.295872 0 1
0.662547 0 1
0.984924 0 1
1 0 1
1 0 1
0 0 1
0 0 1
0 0 1
0 0 1
0.256672 0 1
0.64007 0 1
0.968048 0 1
1 0 1
1 0 1
0 0 1
0 0 1
0 0 1
0 0 1
0.237217 0 1
0.629419 0 1
0.960128 0 1
1 0 1
1 0 1
0 0 1
0 0 1
0 0 1
0 0 1
0.195819 0 1
0.608057 0 1
0.944366 0 1
1 0 1
1 0 1
0 0.139055 1
0 0.125017 1
0 0.118242 1
0 0.104295 1
0.0712139 0.0680552 1
0.555962 0 1
0.906767 0 1
1 0 1
1 0 1
0 0.504524 1
0 0.498054 1
0 0.495018 1
0 0.489006 1
0 0.474769 1
0.448188 0.447303 1
0.833158 0.410452 1
1 0.379248 1
1 0.361563 1
0 0.797452 1
0 0.792752 1
0 0.790555 1
0 0.786206 1
0 0.775982 1
0.27779 0.756573 1
0.731579 0.731228 1
0.983108 0.710414 1
1 0.698909 1
0 0.985733 1
0 0.981689 1
0 0.979812 1
0 0.976089 1
0 0.967346 1
0.0658274 0.95082 1
0.642191 0.929366 1
0.911986 0.911879 1
1 0.902251 1
0 1 1
0 1 1
0 1 1
0 1 1
0 1 1
0 1 1
0.589761 1 1
0.871565 1 1
1 1 1
