work-blog-website-frontend/docs/7.视频剪辑/assets/LUT/iphone_17_pro_applelog2_01_lut.cube
TITLE "Generated by Resolve"
LUT_3D_SIZE 33
0 0 0
0 0 0
0.00860609 0 0
0.05037 0 0
0.0856184 0 0
0.11284 0 0
0.135058 0 0
0.154177 0 0
0.175372 0 0
0.200504 0 0
0.230045 0 0
0.264424 0 0
0.304051 0 0
0.349279 0 0
0.400336 0 0
0.457267 0 0
0.51989 0 0
0.587732 0 0
0.659968 0 0
0.735393 0 0
0.812482 0 0
0.889479 0 0
0.964508 0 0
1 0 0
1 0 0
1 0 0
1 0 0
1 0 0
1 0 0
1 0 0
1 0 0
1 0 0
1 0 0
0 0 0
0 0 0
0 0 0
0.011902 0 0
0.0480659 0 0
0.0801556 0 0
0.105379 0 0
0.126589 0 0
0.149737 0 0
0.176791 0 0
0.208194 0 0
0.244358 0 0
0.285679 0 0
0.332479 0 0
0.38497 0 0
0.443198 0 0
0.507012 0 0
0.575891 0 0
0.649042 0 0
0.725277 0 0
0.803067 0 0
0.880644 0 0
0.956176 0 0
1 0 0
1 0 0
1 0 0
1 0 0
1 0 0
1 0 0
1 0 0
1 0 0
1 0 0
1 0 0
0 0 0
0 0 0
0 0 0
0.000198367 0 0
0.0304875 0 0
0.0644846 0 0
0.0914626 0 0
0.113848 0 0
0.138033 0 0
0.166094 0 0
0.198428 0 0
0.235462 0 0
0.277577 0 0
0.325109 0 0
0.378256 0 0
0.437079 0 0
0.501411 0 0
0.570764 0 0
0.644312 0 0
0.720897 0 0
0.798993 0 0
0.876844 0 0
0.95259 0 0
1 0 0
1 0 0
1 0 0
1 0 0
1 0 0
1 0 0
1 0 0
1 0 0
1 0 0
1 0 0
0 0.00216678 0
0 0 0
0 0 0
0 0 0
0.0180209 0 0
0.0512703 0 0
0.0799725 0 0
0.103426 0 0
0.128542 0 0
0.157458 0 0
0.1906 0 0
0.228367 0 0
0.271138 0 0
0.319265 0 0
0.372946 0 0
0.432258 0 0
0.497002 0 0
0.56672 0 0
0.640604 0 0
0.717464 0 0
0.795804 0 0
0.873854 0 0
0.949783 0 0
1 0 0
1 0 0
1 0 0
1 0 0
1 0 0
1 0 0
1 0 0
1 0 0
1 0 0
1 0 0
0 0.0257877 0
0 0.0170291 0
0 0.013489 0
0 0.0108339 0
0.00848402 0.00865187 0
0.0392309 0.00679026 0
0.0696117 0.00518807 0
0.0941329 0.00378424 0
0.12015 0.00224308 0
0.149889 0.000549325 0
0.183764 0 0
0.222187 0 0
0.265568 0 0
0.314214 0 0
0.368368 0 0
0.428092 0 0
0.493202 0 0
0.563256 0 0
0.637415 0 0
0.714519 0 0
0.793072 0 0
0.87129 0 0
0.947372 0 0
1 0 0
1 0 0
1 0 0
1 0 0
1 0 0
1 0 0
1 0 0
1 0 0
1 0 0
1 0 0
0 0.0520485 0
0 0.0419013 0
0 0.0376898 0
0 0.0344396 0
0.00149538 0.0317235 0
0.0290837 0.0293278 0
0.0598764 0.0271916 0
0.0855116 0.0252537 0
0.112428 0.0229801 0
0.142962 0.0201572 0
0.177554 0.0166934 0
0.216602 0.0124971 0
0.260533 0.00761425 0
0.309667 0.00231937 0
0.364263 0 0
0.424353 0 0
0.489815 0 0
0.560143 0 0
0.634562 0 0
0.711894 0 0
0.790616 0 0
0.869001 0 0
0.94522 0 0
1 0 0
1 0 0
1 0 0
1 0 0
1 0 0
1 0 0
1 0 0
1 0 0
1 0 0
1 0 0
0 0.0744182 0
0 0.065507 0
0 0.0615549 0
0 0.0584115 0
0 0.0556802 0
0.0204623 0.0532082 0
0.0506752 0.0509499 0
0.0774395 0.0488289 0
0.105272 0.0461128 0
0.136584 0.0428931 0
0.171847 0.03888 0
0.21149 0.0339208 0
0.25594 0.0279088 0
0.305531 0.0207675 0
0.360525 0.0125734 0
0.420981 0.00389105 0
0.486732 0 0
0.557336 0 0
0.631983 0 0
0.709514 0 0
0.788403 0 0
0.866941 0 0
0.943267 0 0
1 0 0
1 0 0
1 0 0
1 0 0
1 0 0
1 0 0
1 0 0
1 0 0
1 0 0
1 0 0
0 0.0931258 0
0 0.0849928 0
0 0.0814069 0
0 0.0785687 0
0 0.0760967 0
0.0130465 0.0738842 0
0.0416266 0.0718547 0
0.069688 0.0699626 0
0.0984512 0.067689 0
0.130556 0.0647746 0
0.166476 0.0610208 0
0.206699 0.0561837 0
0.251652 0.0499428 0
0.301686 0.0417945 0
0.357046 0.0322881 0
0.417838 0.0214084 0
0.483879 0.00965896 0
0.554726 0 0
0.629587 0 0
0.707301 0 0
0.786358 0 0
0.865019 0 0
0.941466 0 0
1 0 0
1 0 0
1 0 0
1 0 0
1 0 0
1 0 0
1 0 0
1 0 0
1 0 0
1 0 0
0 0.113481 0
0 0.106035 0
0 0.10277 0
0 0.100191 0
0 0.0979477 0
0.00520333 0.0959335 0
0.0314794 0.0941024 0
0.06009 0.0924086 0
0.0900893 0.0903639 0
0.123217 0.0877546 0
0.160006 0.0843977 0
0.200946 0.0800946 0
0.246509 0.0745861 0
0.297078 0.0675364 0
0.352895 0.0584878 0
0.414084 0.0468605 0
0.480476 0.0326696 0
0.551629 0.0175326 0
0.626749 0.00296025 0
0.704677 0 0
0.783932 0 0
0.862745 0 0
0.93933 0 0
1 0 0
1 0 0
1 0 0
1 0 0
1 0 0
1 0 0
1 0 0
1 0 0
1 0 0
1 0 0
0 0.137194 0
0 0.130404 0
0 0.127428 0
0 0.125078 0
0 0.123064 0
0 0.121248 0
0.0194247 0.1196 0
0.0471351 0.118059 0
0.0790112 0.116228 0
0.113619 0.113878 0
0.151583 0.110887 0
0.1935 0.107057 0
0.239887 0.102174 0
0.291157 0.0959793 0
0.347585 0.0881056 0
0.409293 0.0781415 0
0.476127 0.0655375 0
0.547662 0.049546 0
0.623117 0.0303502 0
0.701335 0.0113527 0
0.780819 0 0
0.859861 0 0
0.936599 0 0
1 0 0
1 0 0
1 0 0
1 0 0
1 0 0
1 0 0
1 0 0
1 0 0
1 0 0
1 0 0
0 0.164645 0
0 0.15845 0
0 0.155749 0
0 0.153628 0
0 0.151797 0
0 0.150164 0
0.00608835 0.148669 0
0.0304723 0.14728 0
0.0640879 0.145632 0
0.100893 0.143526 0
0.140566 0.140841 0
0.183856 0.137423 0
0.231357 0.133089 0
0.283574 0.127596 0
0.340795 0.120684 0
0.403174 0.112047 0
0.470588 0.101259 0
0.542626 0.0879072 0
0.618509 0.0713817 0
0.697093 0.0509346 0
0.776898 0.0273136 0
0.856184 0.00608835 0
0.93315 0 0
1 0 0
1 0 0
1 0 0
1 0 0
1 0 0
1 0 0
1 0 0
1 0 0
1 0 0
1 0 0
0 0.19617 0
0 0.190539 0
0 0.188098 0
0 0.186175 0
0 0.184512 0
0 0.183032 0
0 0.181689 0
0.0119783 0.180438 0
0.0433356 0.178958 0
0.0838483 0.177066 0
0.12607 0.174655 0
0.171298 0.171588 0
0.220356 0.167712 0
0.273823 0.162829 0
0.332113 0.156725 0
0.395377 0.149126 0
0.463554 0.139773 0
0.536233 0.128328 0
0.612665 0.114488 0
0.691722 0.0979019 0
0.771908 0.0781872 0
0.851545 0.0548257 0
0.928786 0.0286259 0
1 0.00634775 0
1 0 0
1 0 0
1 0 0
1 0 0
1 0 0
1 0 0
1 0 0
1 0 0
1 0 0
0 0.232136 0
0 0.227008 0
0 0.224796 0
0 0.223041 0
0 0.221546 0
0 0.220203 0
0 0.218997 0
0 0.217868 0
0.0184939 0.216526 0
0.0603799 0.214817 0
0.106752 0.21265 0
0.154879 0.209903 0
0.206134 0.206424 0
0.261341 0.202075 0
0.321035 0.196628 0
0.385489 0.189914 0
0.454643 0.181689 0
0.528161 0.171725 0
0.60531 0.159838 0
0.684947 0.145861 0
0.765652 0.129671 0
0.845701 0.111254 0
0.923308 0.0906233 0
0.99675 0.0678111 0
1 0.0426337 0
1 0.0196689 0
1 0.00260929 0
1 0 0
1 0 0
1 0 0
1 0 0
1 0 0
1 0 0
0 0.272786 0
0 0.268132 0
0 0.266117 0
0 0.26453 0
0 0.263188 0
0 0.261967 0
0 0.260868 0
0 0.259846 0
0 0.25864 0
0.0281376 0.257099 0
0.0803693 0.255146 0
0.133165 0.252659 0
0.187671 0.249546 0
0.245319 0.24564 0
0.30695 0.240772 0
0.372961 0.234791 0
0.443427 0.227497 0
0.518029 0.218723 0
0.596063 0.208347 0
0.676478 0.196277 0
0.757824 0.182528 0
0.838422 0.167193 0
0.916457 0.1505 0
0.990265 0.132769 0
1 0.114351 0
1 0.0956893 0
1 0.0771649 0
1 0.0591287 0
1 0.0418097 0
1 0.0275731 0
1 0.0166018 0
1 0.0084535 0
1 0.00274662 0
0 0.318349 0
0 0.314107 0
0 0.312276 0
0 0.310842 0
0 0.309606 0
0 0.308507 0
0 0.307515 0
0 0.306584 0
0 0.305501 0
0 0.304097 0
0.0424048 0.302327 0
0.103868 0.300099 0
0.163516 0.297276 0
0.224735 0.293751 0
0.289052 0.289387 0
0.357183 0.284016 0
0.429358 0.277516 0
0.505364 0.269718 0
0.584573 0.260548 0
0.665965 0.249973 0
0.748119 0.238041 0
0.829389 0.224887 0
0.908003 0.210788 0
0.982269 0.196094 0
1 0.181201 0
1 0.166537 0
1 0.152499 0
1 0.139422 0
1 0.12752 0
1 0.11696 0
1 0.107759 0
1 0.0999161 0
1 0.0933242 0
0 0.368841 0
0 0.364981 0
0 0.363302 0
0 0.362005 0
0 0.360876 0
0 0.359884 0
0 0.358968 0
0 0.358144 0
0 0.357137 0
0 0.355886 0
0.00114443 0.354269 0
0.0625315 0.352239 0
0.131411 0.349691 0
0.198184 0.346517 0
0.266361 0.342565 0
0.337377 0.337743 0
0.411826 0.331884 0
0.489662 0.32491 0
0.570382 0.316747 0
0.65301 0.307362 0
0.736187 0.296849 0
0.818311 0.285344 0
0.897627 0.273136 0
0.972473 0.260548 0
1 0.247944 0
1 0.235721 0
1 0.224201 0
1 0.213642 0
1 0.204196 0
1 0.195956 0
1 0.188907 0
1 0.182986 0
1 0.178088 0
0 0.424125 0
0 0.420584 0
0 0.419059 0
0 0.417868 0
0 0.416846 0
0 0.415946 0
0 0.415122 0
0 0.414359 0
0 0.413443 0
0 0.412299 0
0 0.410834 0
0.00802625 0.408988 0
0.0871138 0.406668 0
0.163516 0.403784 0
0.237537 0.400198 0
0.312657 0.395834 0
0.390158 0.390539 0
0.470405 0.384253 0
0.553048 0.376913 0
0.637247 0.368521 0
0.721721 0.359152 0
0.804898 0.348959 0
0.885069 0.338201 0
0.960632 0.327184 0
1 0.316243 0
1 0.305715 0
1 0.295872 0
1 0.286931 0
1 0.279011 0
1 0.272145 0
1 0.266316 0
1 0.261463 0
1 0.25745 0
0 0.483772 0
0 0.480537 0
0 0.479149 0
0 0.47805 0
0 0.477119 0
0 0.47628 0
0 0.475532 0
0 0.47483 0
0 0.474006 0
0 0.472953 0
0 0.471611 0
0 0.469932 0
0.0225071 0.467811 0
0.117037 0.465171 0
0.200763 0.461921 0
0.281865 0.457938 0
0.363607 0.453132 0
0.447013 0.447425 0
0.532143 0.440787 0
0.618311 0.433204 0
0.704387 0.424765 0
0.788876 0.415641 0
0.870115 0.406027 0
0.946548 0.396246 0
1 0.386572 0
1 0.37731 0
1 0.368704 0
1 0.360922 0
1 0.354055 0
1 0.348135 0
1 0.34313 0
1 0.338979 0
1 0.335561 0
0 0.547097 0
0 0.544121 0
0 0.54284 0
0 0.541833 0
0 0.540978 0
0 0.540215 0
0 0.539513 0
0 0.538872 0
0 0.538109 0
0 0.537148 0
0 0.535912 0
0 0.534371 0
0 0.532433 0
0.0495766 0.530007 0
0.153033 0.527031 0
0.243595 0.523384 0
0.331304 0.51899 0
0.418967 0.513787 0
0.507271 0.507729 0
0.595941 0.500832 0
0.684001 0.493172 0
0.770077 0.484916 0
0.852613 0.476249 0
0.930083 0.467445 0
1 0.458762 0
1 0.450492 0
1 0.442832 0
1 0.43592 0
1 0.429862 0
1 0.424628 0
1 0.420233 0
1 0.416571 0
1 0.413581 0
0 0.613077 0
0 0.61033 0
0 0.60914 0
0 0.608209 0
0 0.607416 0
0 0.606699 0
0 0.606058 0
0 0.605478 0
0 0.604776 0
0 0.603876 0
0 0.602747 0
0 0.601312 0
0 0.599527 0
0 0.597299 0
0.087892 0.594537 0
0.195727 0.59118 0
0.292332 0.587137 0
0.385763 0.582361 0
0.478202 0.576791 0
0.569986 0.570474 0
0.660471 0.56347 0
0.74847 0.555917 0
0.832547 0.548028 0
0.911254 0.540017 0
0.983352 0.532158 0
1 0.524666 0
1 0.517754 0
1 0.511528 0
1 0.506065 0
1 0.501396 0
1 0.497444 0
1 0.494179 0
1 0.491508 0
0 0.680385 0
0 0.677821 0
0 0.676722 0
0 0.675868 0
0 0.67512 0
0 0.674464 0
0 0.673869 0
0 0.67332 0
0 0.672663 0
0 0.671839 0
0 0.670787 0
0 0.669459 0
0 0.667796 0
0 0.665721 0
0.000686656 0.663172 0
0.13431 0.66006 0
0.245502 0.656321 0
0.347005 0.651881 0
0.444816 0.646738 0
0.54049 0.640894 0
0.633906 0.63444 0
0.724193 0.627482 0
0.810071 0.620218 0
0.890211 0.612863 0
0.96347 0.605661 0
1 0.59881 0
1 0.592493 0
1 0.586816 0
1 0.581842 0
1 0.577585 0
1 0.574014 0
1 0.571038 0
1 0.568612 0
0 0.747524 0
0 0.745113 0
0 0.744091 0
0 0.743282 0
0 0.742596 0
0 0.74197 0
0 0.741421 0
0 0.740902 0
0 0.740291 0
0 0.739513 0
0 0.738537 0
0 0.737285 0
0 0.735729 0
0 0.733806 0
0 0.731426 0
0.0479438 0.728511 0
0.188907 0.725017 0
0.302358 0.720882 0
0.407233 0.716091 0
0.507713 0.710658 0
0.604654 0.704646 0
0.697612 0.698177 0
0.785565 0.691432 0
0.867338 0.684627 0
0.941878 0.677958 0
1 0.671626 0
1 0.665782 0
1 0.660563 0
1 0.655985 0
1 0.652064 0
1 0.648768 0
1 0.646036 0
1 0.643809 0
0 0.812863 0
0 0.810605 0
0 0.809628 0
0 0.808865 0
0 0.808225 0
0 0.807645 0
0 0.807111 0
0 0.806622 0
0 0.806058 0
0 0.805325 0
0 0.804395 0
0 0.803235 0
0 0.80177 0
0 0.799954 0
0 0.797711 0
0 0.794965 0
0.118395 0.791684 0
0.251392 0.787808 0
0.365774 0.783307 0
0.47219 0.778195 0
0.573281 0.772564 0
0.669306 0.766506 0
0.759594 0.760204 0
0.843183 0.753826 0
0.919142 0.747585 0
0.986831 0.74168 0
1 0.736248 0
1 0.731365 0
1 0.727108 0
1 0.723461 0
1 0.720394 0
1 0.717861 0
1 0.715785 0
0 0.874907 0
0 0.872755 0
0 0.871839 0
0 0.871107 0
0 0.870497 0
0 0.869947 0
0 0.869444 0
0 0.868986 0
0 0.868437 0
0 0.86775 0
0 0.866865 0
0 0.865766 0
0 0.864378 0
0 0.862654 0
0 0.860533 0
0 0.857939 0
0.0219577 0.854826 0
0.193301 0.851148 0
0.320912 0.846891 0
0.434669 0.842069 0
0.540566 0.836744 0
0.640024 0.831022 0
0.732876 0.825055 0
0.818418 0.819059 0
0.895888 0.813184 0
0.964767 0.807614 0
1 0.802487 0
1 0.797909 0
1 0.793896 0
1 0.790478 0
1 0.787594 0
1 0.785214 0
1 0.783276 0
0 0.932342 0
0 0.930297 0
0 0.929412 0
0 0.928725 0
0 0.92813 0
0 0.927611 0
0 0.927138 0
0 0.926696 0
0 0.926177 0
0 0.925505 0
0 0.924666 0
0 0.923613 0
0 0.922286 0
0 0.920653 0
0 0.918624 0
0 0.916152 0
0 0.913176 0
0.12575 0.909682 0
0.273228 0.905623 0
0.396017 0.901015 0
0.507424 0.895949 0
0.610636 0.890501 0
0.706218 0.884825 0
0.793805 0.879118 0
0.872862 0.873533 0
0.942946 0.868238 0
1 0.863386 0
1 0.859037 0
1 0.855222 0
1 0.851987 0
1 0.849256 0
1 0.846998 0
1 0.845151 0
0 0.984253 0
0 0.982284 0
0 0.98143 0
0 0.980774 0
0 0.980209 0
0 0.979706 0
0 0.979248 0
0 0.978821 0
0 0.978317 0
0 0.977691 0
0 0.976883 0
0 0.97586 0
0 0.974594 0
0 0.973007 0
0 0.971069 0
0 0.968688 0
0 0.965835 0
0.0403296 0.962478 0
0.223209 0.958572 0
0.357214 0.954162 0
0.474784 0.949294 0
0.58201 0.944076 0
0.680415 0.938643 0
0.770108 0.933165 0
0.850736 0.92781 0
0.922057 0.922759 0
0.984024 0.918105 0
1 0.913939 0
1 0.910307 0
1 0.907195 0
1 0.904585 0
1 0.902434 0
1 0.900679 0
0 1 0
0 1 0
0 1 0
0 1 0
0 1 0
0 1 0
0 1 0
0 1 0
0 1 0
0 1 0
0 1 0
0 1 0
0 1 0
0 1 0
0 1 0
0 1 0
0 1 0
0 1 0
0.171069 1 0
0.319203 1 0
0.443534 0.996307 0
0.554925 0.991272 0
0.656184 0.986023 0
0.747936 0.980743 0
0.830121 0.975586 0
0.902602 0.970703 0
0.965484 0.966217 0
1 0.962203 0
1 0.958709 0
1 0.955718 0
1 0.953201 0
1 0.951125 0
1 0.949432 0
0 1 0
0 1 0
0 1 0
0 1 0
0 1 0
0 1 0
0 1 0
0 1 0
0 1 0
