work-blog-website-frontend/docs/7.视频剪辑/assets/LUT/iphone_17_pro_applelog2_01_lut.cube
TITLE "Generated by Resolve"
LUT_3D_SIZE 5
0 0 0
0.175372 0 0
0.51989 0 0
1 0 0
1 0 0
0 0.113481 0
0.0900893 0.0903639 0
0.480476 0.0326696 0
1 0 0
1 0 0
0 0.424125 0
0 0.413443 0
0.390158 0.390539 0
1 0.316243 0
1 0.25745 0
0 0.932342 0
0 0.926177 0
0 0.913176 0
0.872862 0.873533 0
1 0.845151 0
0 1 0
0 1 0
0 1 0
0.750118 1 0
1 1 0
0 0 0.0989853
0.147311 0 0.0906691
0.505837 0 0.0722057
1 0 0.01149
1 0 0
0 0.0774243 0.0598917
0.0497902 0.0497902 0.0497902
0.465629 0 0.028275
1 0 0
1 0 0
0 0.407858 0
0 0.396902 0
0.373098 0.373373 0
1 0.296529 0
1 0.235004 0
0 0.922972 0
0 0.916762 0
0 0.90367 0
0.863096 0.863706 0
1 0.835096 0
0 1 0
0 1 0
0 1 0
0.739239 1 0
1 1 0
0 0 0.402884
0.0775464 0 0.399054
0.475563 0 0.390982
1 0 0.366155
1 0 0.348226
0 0 0.385916
0 0 0.381979
0.43357 0 0.373663
1 0 0.348089
1 0 0.329564
0 0.372442 0.348821
0 0.36083 0.344625
0.335744 0.335744 0.335744
1 0.252522 0.308278
1 0.183566 0.288228
0 0.903166 0.218692
0 0.896849 0.213123
0 0.883543 0.201236
0.842451 0.842908 0.163104
1 0.813779 0.133608
0 1 0.0921492
0 1 0.0835737
0 1 0.0644388
0.716136 1 0.00514229
1 1 0
0 0 0.895109
0 0 0.892897
0.376242 0 0.888258
1 0 0.874281
1 0 0.864469
0 0 0.885374
0 0 0.883146
0.326696 0 0.878462
0.999023 0 0.864378
1 0 0.854475
0 0.250477 0.86479
0 0.235569 0.862516
0.203662 0.202518 0.857755
0.947234 0.0772717 0.843427
1 0 0.833341
0 0.841978 0.801007
0 0.83534 0.798611
0 0.821332 0.793591
0.778424 0.778424 0.778424
1 0.747555 0.767758
0 1 0.754421
0 1 0.751919
0 1 0.74667
0.643702 1 0.730831
1 1 0.719661
0 0 1
0 0 1
0.295872 0 1
0.984924 0 1
1 0 1
0 0 1
0 0 1
0.237217 0 1
0.960128 0 1
1 0 1
0 0.139055 1
0 0.118242 1
0.0712139 0.0680552 1
0.906767 0 1
1 0 1
0 0.797452 1
0 0.790555 1
0 0.775982 1
0.731579 0.731228 1
1 0.698909 1
0 1 1
0 1 1
0 1 1
0.589761 1 1
1 1 1
