work-blog-website-frontend/docs/7.视频剪辑/assets/LUT/赐福司影调_alogin_02_lut.cube
TITLE "Generated by Resolve"
LUT_3D_SIZE 5
0.000396735 0.0016022 0.00230411
0.416831 0 0
0.493294 0 0
0.493294 0 0
0.493294 0 0
0 0.0940566 0.00395209
0.0320897 0.0504768 0.00469978
0.466331 0 0
0.493294 0 0
0.493294 0 0
0 0.284001 0
0 0.307927 0
0.235904 0.401221 0
0.818219 0.467384 0
0.493294 0 0
0 0.299504 0
0 0.300282 0
0 0.346624 0
0.767193 0.691173 0.159747
0.944762 0.667887 0
0 0.484779 0.563622
0 0.481468 0.544594
0 0.464286 0.464179
0.0153201 0.506233 0.182452
0.952239 0.929656 0.813565
0 0.000213626 0.147402
0.111604 0.000366217 0.0529183
0.447471 0 0.000839246
0.501305 0 0
0.504311 0 0.149783
0 0.0491035 0.0428473
0.0707713 0.0724956 0.0672923
0.538674 0.000411994 0.0312657
0.498558 0 0
0.503578 0 0.0883497
0 0.181567 0.000259403
0 0.266072 0
0.419181 0.435966 0.0464485
0.84741 0.475578 0.0198672
0.501579 0 0.00666819
0 0.292287 0
0 0.293996 0
0 0.340551 0
0.788602 0.731701 0.385199
0.96669 0.76759 0.322271
0 0.485771 0.569299
0 0.482689 0.551598
0 0.467353 0.477714
0.0290074 0.52163 0.21735
0.953414 0.932433 0.822522
0 0.000350958 0.305562
0.0828717 0 0.270176
0.29543 0 0.229099
0.49926 0 0.312459
0.555398 0 0.471
0 0.139162 0.265293
0.029572 0.243137 0.393545
0.470695 0.142107 0.362127
0.48307 0 0.261967
0.549508 0 0.463294
0 0.19675 0.211566
0 0.358633 0.36437
0.508888 0.463432 0.412207
0.828687 0.514397 0.511177
0.525811 0 0.423011
0 0.284413 0
0 0.294301 0
0 0.371252 0.0610056
0.814206 0.773419 0.560113
0.978256 0.843717 0.626322
0 0.487587 0.578851
0 0.484932 0.564508
0 0.473152 0.503777
0.0674907 0.55491 0.288594
0.955932 0.938308 0.841459
0.000686656 0.505104 0.62623
0.336568 0.567575 0.686107
0.630671 0.570626 0.707195
0.753674 0.44744 0.66128
0.55465 0 0.470008
0.000335698 0.515541 0.619715
0.278248 0.591455 0.683909
0.631128 0.621454 0.719371
0.776059 0.523476 0.679667
0.543053 0 0.454078
0 0.508583 0.596246
0.156542 0.609537 0.669444
0.597711 0.668528 0.717678
0.805554 0.631601 0.705699
0.505745 0 0.386847
0 0.38909 0.443748
0 0.45893 0.542977
0.356374 0.703182 0.691005
0.856519 0.824674 0.777295
0.975326 0.894072 0.870146
0 0.491417 0.592004
0 0.490028 0.587411
0 0.484596 0.562585
0.317708 0.690791 0.547036
0.966644 0.957504 0.903426
0.775998 0.852216 0.868147
0.791074 0.857572 0.873549
0.820859 0.868269 0.884337
0.906493 0.89604 0.91339
0.946975 0.87541 0.900328
0.774426 0.852735 0.867964
0.789578 0.85832 0.873518
0.81976 0.869245 0.884504
0.90721 0.898466 0.914916
0.947982 0.878294 0.902052
0.770092 0.853773 0.86743
0.785992 0.859709 0.873228
0.816587 0.870771 0.884306
0.908354 0.903593 0.917967
0.950561 0.885176 0.906142
0.728359 0.846738 0.856031
0.752087 0.855955 0.864469
0.793423 0.872206 0.879667
0.902022 0.915557 0.921569
0.964187 0.921904 0.928435
0 0.437324 0.518334
0 0.449393 0.538216
0 0.628077 0.686336
0.843183 0.914717 0.908217
0.981338 0.977707 0.966491
