work-blog-website-frontend/docs/7.视频剪辑/assets/LUT/赐福司影调_alogin_02_lut.cube
TITLE "Generated by Resolve"
LUT_3D_SIZE 33
0.000396735 0.0016022 0.00230411
0.000396735 0.0016022 0.00230411
0.0138247 0.00262455 0.00239567
0.0607919 0.00442512 0.00189212
0.141787 7.62951e-05 7.62951e-05
0.237934 0 0
0.328771 0 0
0.376501 0 0
0.416831 0 0
0.448386 0 0
0.469047 0 0
0.482612 0 0
0.490013 0 0
0.493294 0 0
0.493294 0 0
0.493294 0 0
0.493294 0 0
0.493294 0 0
0.493294 0 0
0.493294 0 0
0.493294 0 0
0.493294 0 0
0.493294 0 0
0.493294 0 0
0.493294 0 0
0.493294 0 0
0.493294 0 0
0.493294 0 0
0.493294 0 0
0.493294 0 0
0.493294 0 0
0.493294 0 0
0.493294 0 0
0.000396735 0.0016022 0.00230411
0.000396735 0.0016022 0.00230411
0.000396735 0.0016022 0.00230411
0.00683604 0.00215152 0.00238041
0.0303044 0.00381476 0.00236515
0.073579 0.00396735 0.00158694
0.139864 7.62951e-05 7.62951e-05
0.203769 0 0
0.275456 0 0
0.337957 0 0
0.387289 0 0
0.428534 0 0
0.456916 0 0
0.475486 0 0
0.487053 0 0
0.493065 0 0
0.493294 0 0
0.493294 0 0
0.493294 0 0
0.493294 0 0
0.493294 0 0
0.493294 0 0
0.493294 0 0
0.493294 0 0
0.493294 0 0
0.493294 0 0
0.493294 0 0
0.493294 0 0
0.493294 0 0
0.493294 0 0
0.493294 0 0
0.493294 0 0
0.493294 0 0
0.000396735 0.0016022 0.00230411
0.000396735 0.0016022 0.00230411
0.000396735 0.0016022 0.00230411
0.000396735 0.0016022 0.00230411
0.011368 0.00247196 0.00239567
0.0335851 0.00408942 0.00234989
0.0744488 0.00393683 0.00157168
0.12607 0.000427253 0.000213626
0.181598 0 0
0.256947 0 0
0.324742 0 0
0.375006 0 0
0.418128 0 0
0.450004 0 0
0.471168 0 0
0.484932 0 0
0.49221 0 0
0.493294 0 0
0.493294 0 0
0.493294 0 0
0.493294 0 0
0.493294 0 0
0.493294 0 0
0.493294 0 0
0.493294 0 0
0.493294 0 0
0.493294 0 0
0.493294 0 0
0.493294 0 0
0.493294 0 0
0.493294 0 0
0.493294 0 0
0.493294 0 0
0.000656138 0.00614939 0.00335698
0.000534066 0.00386053 0.00282292
0.000488289 0.00300603 0.00262455
0.000457771 0.00259403 0.002533
0.00445563 0.00221256 0.00239567
0.0176089 0.00285344 0.00239567
0.0420081 0.00480659 0.00230411
0.0803388 0.0037232 0.00141909
0.130114 0.000122072 0.000106813
0.188083 0 0
0.263951 0 0
0.329335 0 0
0.377661 0 0
0.419303 0 0
0.451011 0 0
0.472236 0 0
0.485817 0 0
0.492912 0 0
0.493294 0 0
0.493294 0 0
0.493294 0 0
0.493294 0 0
0.493294 0 0
0.493294 0 0
0.493294 0 0
0.493294 0 0
0.493294 0 0
0.493294 0 0
0.493294 0 0
0.493294 0 0
0.493294 0 0
0.493294 0 0
0.493294 0 0
0.000701915 0.0118715 0.00440986
0.000701915 0.00880446 0.00386053
0.000701915 0.00723278 0.00357061
0.000686656 0.00665293 0.0034638
0.000671397 0.00619516 0.00335698
0.0132906 0.00756847 0.00302129
0.0321355 0.00863661 0.00268559
0.0635996 0.00865187 0.0019379
0.106844 0.00369268 0.00077821
0.160861 9.15541e-05 4.57771e-05
0.227008 0 0
0.297704 0 0
0.350988 0 0
0.393591 0 0
0.431403 0 0
0.458946 0 0
0.477897 0 0
0.489067 0 0
0.493294 0 0
0.493294 0 0
0.493294 0 0
0.493294 0 0
0.493294 0 0
0.493294 0 0
0.493294 0 0
0.493294 0 0
0.493294 0 0
0.493294 0 0
0.493294 0 0
0.493294 0 0
0.493294 0 0
0.493294 0 0
0.493294 0 0
0.000640879 0.0227207 0.00665293
0.000686656 0.014313 0.00489815
0.000701915 0.0121157 0.00445563
0.000701915 0.0115206 0.00434882
0.000701915 0.0107729 0.00421149
0.00759899 0.0116121 0.00390631
0.0235599 0.0132296 0.0033875
0.0479744 0.0155489 0.002533
0.0848402 0.0133516 0.00137331
0.13669 0.00177005 0.000122072
0.195972 0 0
0.271809 0 0
0.334432 0 0
0.376501 0 0
0.41709 0 0
0.448569 0 0
0.469047 0 0
0.483696 0 0
0.491722 0 0
0.493294 0 0
0.493294 0 0
0.493294 0 0
0.493294 0 0
0.493294 0 0
0.493294 0 0
0.493294 0 0
0.493294 0 0
0.493294 0 0
0.493294 0 0
0.493294 0 0
0.493294 0 0
0.493294 0 0
0.493294 0 0
0.000442512 0.0364996 0.00833143
0.000610361 0.0262913 0.00740063
0.000640879 0.0227817 0.00666819
0.000640879 0.0211643 0.00633249
0.000656138 0.0190738 0.00588998
0.00157168 0.0175174 0.00547799
0.0158389 0.0191653 0.00450141
0.0374304 0.0206455 0.0033875
0.0673381 0.0213016 0.00192264
0.114076 0.0138094 0.000595102
0.173114 0.00149538 0
0.243091 6.10361e-05 0
0.314733 0 0
0.367697 0 0
0.408896 0 0
0.439704 0 0
0.462562 0 0
0.479438 0 0
0.489204 0 0
0.493294 0 0
0.493294 0 0
0.493294 0 0
0.493294 0 0
0.493294 0 0
0.493294 0 0
0.493294 0 0
0.493294 0 0
0.493294 0 0
0.493294 0 0
0.493294 0 0
0.493294 0 0
0.493294 0 0
0.493294 0 0
4.57771e-05 0.0571145 0.00947585
0.000259403 0.0463264 0.00888075
0.000396735 0.0391394 0.00848402
0.000457771 0.0357824 0.00828565
0.000549325 0.0314641 0.00805676
0.000610361 0.0280156 0.00775158
0.00900282 0.0283513 0.00657664
0.0292668 0.030045 0.00505074
0.0557717 0.0327153 0.00270085
0.095079 0.0324865 0.000885023
0.150454 0.0153658 9.15541e-05
0.212451 0.00260929 0
0.290745 0 0
0.357168 0 0
0.402167 0 0
0.438788 0 0
0.461997 0 0
0.473655 0 0
0.48632 0 0
0.492744 0 0
0.493294 0 0
0.493294 0 0
0.493294 0 0
0.493294 0 0
0.493294 0 0
0.493294 0 0
0.493294 0 0
0.493294 0 0
0.493294 0 0
0.493294 0 0
0.493294 0 0
0.493294 0 0
0.493294 0 0
0 0.0940566 0.00395209
0 0.0809186 0.00610361
0 0.0699779 0.00787366
0 0.0641489 0.00883497
3.0518e-05 0.0581979 0.00953689
0.000106813 0.0537575 0.00929274
0.000183108 0.0498054 0.00906386
0.00715648 0.0497292 0.00640879
0.0320897 0.0504768 0.00469978
0.0730907 0.0530251 0.00143435
0.122469 0.0505531 0.000198367
0.184298 0.0278172 0
0.255344 0.00788891 0
0.332753 0.000259403 0
0.392874 0 0
0.435798 0 0
0.466331 0 0
0.481224 0 0
0.484962 0 0
0.490745 0 0
0.493294 0 0
0.493294 0 0
0.493294 0 0
0.493294 0 0
0.493294 0 0
0.493294 0 0
0.493294 0 0
0.493294 0 0
0.493294 0 0
0.493294 0 0
0.493294 0 0
0.493294 0 0
0.493294 0 0
0 0.128878 0.00129702
0 0.119463 0.00158694
0 0.108171 0.0019379
0 0.102449 0.00259403
0 0.0971542 0.00344854
0 0.0915084 0.00437934
0 0.0865797 0.00517281
0 0.0807507 0.00613413
0.0040589 0.0795911 0.00424201
0.0289158 0.0809949 0.00289921
0.0852979 0.0847791 0.000640879
0.145983 0.0871443 0
0.211749 0.0797436 0
0.287358 0.0399939 0
0.369848 0.00440986 0
0.429755 0.00047303 0
0.472328 0 0
0.494972 0 0
0.500313 0 0
0.496498 0 0
0.493294 0 0
0.493294 0 0
0.493294 0 0
0.493294 0 0
0.493294 0 0
0.493294 0 0
0.493294 0 0
0.493294 0 0
0.493294 0 0
0.493294 0 0
0.493294 0 0
0.493294 0 0
0.493294 0 0
0 0.16199 0.000427253
0 0.155184 0.000488289
0 0.143938 0.000823987
0 0.137545 0.00102235
0 0.134524 0.00111391
0 0.130205 0.00125124
0 0.126055 0.00137331
0 0.121355 0.0015259
0 0.115145 0.00172427
0.00128176 0.115434 0.000289921
0.0211643 0.11902 0.000167849
0.0877089 0.126497 6.10361e-05
0.169787 0.133745 0
0.24242 0.133349 0
0.326162 0.0919661 0
0.412528 0.036408 0
0.472068 0.00962844 0
0.514214 0.00427253 0
0.530205 0.0010071 0
0.525734 0 0
0.510506 0 0
0.493294 0 0
0.493294 0 0
0.493294 0 0
0.493294 0 0
0.493294 0 0
0.493294 0 0
0.493294 0 0
0.493294 0 0
0.493294 0 0
0.493294 0 0
0.493294 0 0
0.493294 0 0
0 0.196521 0.000122072
0 0.194553 0.000137331
0 0.182452 0.000244144
0 0.175418 0.00030518
0 0.173434 0.000335698
0 0.170352 0.000350958
0 0.167269 0.000381476
0 0.163317 0.000427253
0 0.157153 0.00047303
0 0.150164 0.00062562
0.000579843 0.153689 9.15541e-05
0.0207523 0.161074 1.5259e-05
0.10724 0.172717 0
0.198428 0.18471 0
0.277134 0.191333 0
0.370306 0.166934 0
0.462089 0.120592 0
0.521874 0.0847334 0
0.562356 0.0674144 0
0.573785 0.0233463 0
0.563516 0.00289921 0
0.531762 0 0
0.496651 0 0
0.493294 0 0
0.493294 0 0
0.493294 0 0
0.493294 0 0
0.493294 0 0
0.493294 0 0
0.493294 0 0
0.493294 0 0
0.493294 0 0
0.493294 0 0
0 0.224582 0
0 0.228397 0
0 0.219501 0
0 0.214237 0
0 0.212787 0
0 0.212604 0
0 0.211322 0
0 0.209277 1.5259e-05
0 0.204227 6.10361e-05
0 0.197406 0.000122072
0 0.1897 0.000183108
0.000259403 0.198596 1.5259e-05
0.0261387 0.210666 0
0.145068 0.226627 0
0.234775 0.243214 0
0.317357 0.256001 0
0.421912 0.256764 0
0.517159 0.248905 0
0.573678 0.218173 0
0.613916 0.181506 0
0.625757 0.12314 0
0.611337 0.0502937 0
0.568963 0.00141909 0
0.508003 0 0
0.493294 0 0
0.493294 0 0
0.493294 0 0
0.493294 0 0
0.493294 0 0
0.493294 0 0
0.493294 0 0
0.493294 0 0
0.493294 0 0
0 0.247288 0
0 0.257923 0
0 0.250568 0
0 0.246204 0
0 0.244755 0
0 0.246387 0
0 0.246387 0
0 0.245838 0
0 0.243107 0
0 0.237842 0
0 0.231846 0
0 0.226978 0
0.00317388 0.245472 0
0.0704204 0.265385 0
0.188708 0.286 0
0.277607 0.307027 0
0.368963 0.324666 0
0.478645 0.333227 0
0.570413 0.331212 0
0.626581 0.311055 0
0.666484 0.284169 0
0.678599 0.239597 0
0.666041 0.159411 0
0.618906 0.0392767 0
0.52813 0 0
0.493294 0 0
0.493294 0 0
0.493294 0 0
0.493294 0 0
0.493294 0 0
0.493294 0 0
0.493294 0 0
0.493294 0 0
0 0.263584 0
0 0.27657 0
0 0.272557 0
0 0.270314 0
0 0.269612 0
0 0.270909 0
0 0.271962 0
0 0.272312 0
0 0.271489 0
0 0.268421 0
0 0.264408 0
0 0.260517 0
0 0.264927 0
0.0157778 0.290272 0
0.132006 0.316396 0
0.236149 0.3411 0
0.326863 0.365911 0
0.43061 0.385351 0
0.537621 0.397894 0
0.620111 0.398184 0
0.676173 0.384665 0
0.716945 0.362188 0
0.734096 0.324788 0
0.722499 0.265995 0
0.677409 0.150835 0
0.565087 0.000122072 0
0.493294 0 0
0.493294 0 0
0.493294 0 0
0.493294 0 0
0.493294 0 0
0.493294 0 0
0.493294 0 0
0 0.2748 0
0 0.289799 0
0 0.29099 0
0 0.289708 0
0 0.289357 0
0 0.289876 0
0 0.291508 0
0 0.292119 0
0 0.292363 0
0 0.290486 0
0 0.287465 0
0 0.283284 0
0 0.279637 0
1.5259e-05 0.292363 0
0.0283207 0.32578 0
0.186496 0.360128 0
0.283391 0.388052 0
0.376104 0.416434 0
0.489464 0.437263 0
0.592233 0.45362 0
0.66424 0.454261 0
0.720516 0.447395 0
0.761425 0.431937 0
0.780087 0.401831 0
0.775967 0.352193 0
0.736751 0.263416 0
0.619669 0.0312047 0
0.493294 0 0
0.493294 0 0
0.493294 0 0
0.493294 0 0
0.493294 0 0
0.493294 0 0
0 0.284001 0
0 0.298039 0
0 0.304143 0
0 0.304494 0
0 0.304143 0
0 0.304494 0
0 0.305776 0
0 0.30724 0
0 0.307927 0
0 0.306889 0
0 0.303807 0
0 0.300282 0
0 0.297276 0
0 0.294774 0
0.000213626 0.318273 0
0.0784466 0.360906 0
0.235904 0.401221 0
0.333547 0.432074 0
0.435981 0.460365 0
0.544167 0.48368 0
0.639155 0.501518 0
0.703899 0.503563 0
0.758114 0.501122 0
0.797024 0.489647 0
0.818219 0.467384 0
0.820645 0.429587 0
0.792615 0.354116 0
0.682857 0.147616 0
0.493294 0 0
0.493294 0 0
0.493294 0 0
0.493294 0 0
0.493294 0 0
0 0.289876 0
0 0.303975 0
0 0.310399 0
0 0.313146 0
0 0.313939 0
0 0.314031 0
0 0.314321 0
0 0.315129 0
0 0.315709 0
0 0.315801 0
0 0.314321 0
0 0.312337 0
0 0.310613 0
0 0.3093 0
0 0.30956 0
0.00134279 0.342901 0
0.148302 0.394583 0
0.296101 0.438926 0
0.389929 0.47129 0
0.497887 0.498131 0
0.597925 0.521675 0
0.676448 0.534798 0
0.737011 0.539132 0
0.789837 0.541222 0
0.826246 0.53518 0
0.849561 0.522103 0
0.857481 0.495109 0
0.838682 0.434287 0
0.747112 0.268376 0
0.493294 0 0
0.493294 0 0
0.493294 0 0
0.493294 0 0
0 0.292805 0
0 0.306981 0
0 0.312261 0
0 0.315633 0
0 0.318364 0
0 0.320653 0
0 0.321447 0
0 0.321813 0
0 0.323079 0
0 0.323751 0
0 0.322652 0
0 0.319631 0
0 0.317571 0
0 0.316045 0
0 0.314946 0
0 0.327947 0
0.0211185 0.368994 0
0.218738 0.428138 0
0.358877 0.47454 0
0.458839 0.504265 0
0.559808 0.530373 0
0.651072 0.552743 0
0.712871 0.560647 0
0.767758 0.5673 0
0.815366 0.571572 0
0.850752 0.570672 0
0.87332 0.56376 0
0.883513 0.543252 0
0.877379 0.502312 0
0.806271 0.365179 0
0.493294 0 0
0.493294 0 0
0.493294 0 0
0 0.293492 0
0 0.306813 0
0 0.312215 0
0 0.315801 0
0 0.318959 0
0 0.322362 0
0 0.325704 0
0 0.328511 0
0 0.331197 0
0 0.332647 0
0 0.332891 0
0 0.330465 0
0 0.326741 0
0 0.323995 0
0 0.322118 0
0 0.320653 0
0.000228885 0.348974 0
0.0755322 0.39794 0
0.293309 0.461128 0
0.43064 0.506172 0
0.531655 0.534356 0
0.621195 0.557733 0
0.69131 0.572152 0
0.748531 0.581109 0
0.796933 0.588296 0
0.836133 0.592279 0
0.869261 0.593179 0
0.888045 0.588602 0
0.902068 0.578454 0
0.902892 0.549981 0
0.854627 0.447684 0
0.493294 0 0
0.493294 0 0
0 0.292546 0
0 0.303548 0
0 0.310399 0
0 0.313985 0
0 0.317281 0
0 0.320409 0
0 0.324422 0
0 0.328145 0
0 0.332158 0
0 0.336477 0
0 0.340642 0
0 0.340703 0
0 0.336996 0
0 0.333318 0
0 0.330892 0
0 0.329244 0
0 0.335241 0
0.0109255 0.376562 0
0.186511 0.433249 0
0.37377 0.495735 0
0.51635 0.537835 0
0.603906 0.561517 0
0.677699 0.579309 0
0.733791 0.589014 0
0.781491 0.597223 0
0.824582 0.604212 0
0.856046 0.607553 0
0.88275 0.609247 0
0.901213 0.60795 0
0.914824 0.603098 0
0.920012 0.584024 0
0.893019 0.514534 0
0.493294 0 0
0 0.291936 0
0 0.299596 0
0 0.305943 0
0 0.310689 0
0 0.313695 0
0 0.316472 0
0 0.319051 0
0 0.322057 0
0 0.326009 0
0 0.33077 0
0 0.33611 0
0 0.342046 0
0 0.345129 0
0 0.340185 0
0 0.336996 0
0 0.335088 0
0 0.333562 0
0.00030518 0.362142 0
0.0784772 0.411261 0
0.295705 0.472938 0
0.470375 0.53518 0
0.602731 0.573999 0
0.676585 0.591028 0
0.731868 0.600427 0
0.778668 0.607843 0
0.820081 0.613825 0
0.850126 0.616876 0
0.877882 0.620829 0
0.896559 0.622858 0
0.913329 0.62208 0
0.9243 0.618067 0
0.931685 0.607889 0
0.918791 0.562219 0
0 0.290654 0
0 0.293568 0
0 0.297276 0
0 0.301396 0
0 0.305608 0
0 0.30959 0
0 0.311666 0
0 0.313726 0
0 0.316258 0
0 0.319554 0
0 0.325154 0
0 0.332219 0
0 0.340642 0
0 0.346014 0
0 0.341573 0
0 0.33843 0
0 0.336522 0
0 0.346761 0
0.0224613 0.391485 0
0.199039 0.451698 0
0.374701 0.519554 0
0.563043 0.581628 0
0.677943 0.613458 0.000259403
0.737835 0.624002 0
0.78381 0.631144 0
0.824948 0.636423 0
0.852766 0.637705 0
0.877791 0.637018 0
0.894865 0.634531 0
0.909941 0.630777 0
0.922957 0.630472 0
0.933303 0.629694 0
0.940505 0.623636 0
0 0.293065 0
0 0.291859 0
0 0.293141 0
0 0.295033 0
0 0.297353 0
0 0.300023 0
0 0.302937 0
0 0.305943 0
0 0.309636 0
0 0.312459 0
0 0.316258 0
0 0.321508 0
0 0.330465 0
0 0.341573 0
0 0.346792 0
0 0.343801 0
0 0.340597 0
0 0.338537 0
0.000503548 0.371481 0
0.0858015 0.426535 0
0.257984 0.494759 0
0.462272 0.564553 0.00134279
0.637781 0.625071 0.00895705
0.7308 0.653422 0.0319219
0.777951 0.661143 0.0245212
0.819928 0.667201 0.0174868
0.849989 0.670054 0.0121004
0.878141 0.670359 0.00270085
0.897322 0.668818 0.00224308
0.913466 0.662913 0.000656138
0.92491 0.653361 0
0.932387 0.641474 0
0.94136 0.636866 0
0 0.299504 0
0 0.29546 0
0 0.294514 0
0 0.294438 0
0 0.294774 0
0 0.295644 0
0 0.296757 0
0 0.298131 0
0 0.300282 0
0 0.303883 0
0 0.309514 0
0 0.313817 0
0 0.319677 0
0 0.330465 0
0 0.344366 0
0 0.348699 0
0 0.346624 0
0 0.343221 0
0 0.351995 0
0.0174258 0.401358 0
0.137667 0.466514 1.5259e-05
0.34934 0.539666 0.0043946
0.543496 0.609003 0.0339361
0.68806 0.662943 0.100954
0.767193 0.691173 0.159747
0.810178 0.699794 0.148013
0.843305 0.706203 0.137987
0.872847 0.710872 0.123186
0.895827 0.712291 0.0990005
0.914519 0.709957 0.061799
0.929885 0.704097 0.0437934
0.938521 0.688777 0.00605783
0.944762 0.667887 0
0 0.309422 0
0 0.303975 0
0 0.301991 0
0 0.300542 0
0 0.299504 0
0 0.298726 0
0 0.298207 0
0 0.297963 0
0 0.297963 0
0 0.298466 0
0 0.300282 0
0 0.304662 0
0 0.311406 0
0 0.31841 0
0 0.331197 0
0 0.348074 0
0 0.349874 0
0 0.349142 0
0 0.345861 0
0.000427253 0.377493 0
0.0547341 0.437751 6.10361e-05
0.222126 0.510155 0.00265507
0.437903 0.585595 0.0394293
0.612039 0.650019 0.125887
0.732799 0.699184 0.247898
0.799786 0.727398 0.30425
0.83537 0.736584 0.301793
0.866209 0.744457 0.297948
0.892119 0.750118 0.289387
0.912093 0.752865 0.274495
0.931151 0.753017 0.248997
0.942901 0.747707 0.206867
0.953384 0.735302 0.129732
0 0.317067 0
0 0.313176 0
0 0.311833 0
0 0.310857 0
0 0.310063 0
0 0.309392 0
0 0.308354 0
0 0.307317 0
0 0.306127 0
0 0.304662 0
0 0.303029 0
0 0.301823 0
0 0.30251 0
0 0.308522 0
0 0.316564 0
0 0.331624 0
0 0.350408 0
0 0.350881 0
0 0.350164 0
0 0.353399 0
0.00866712 0.409796 6.10361e-05
0.107439 0.480018 0.00645457
0.324834 0.557626 0.0398413
0.524163 0.630869 0.146334
0.665125 0.686671 0.259052
0.768154 0.733944 0.366278
0.829084 0.763394 0.423682
0.860594 0.77322 0.425345
0.889052 0.781781 0.425055
0.909911 0.787457 0.421561
0.93022 0.791775 0.411139
0.944717 0.792035 0.391196
0.956771 0.788006 0.359899
0 0.331624 0
0 0.325826 0
0 0.32314 0
0 0.320714 0
0 0.319249 0
0 0.318242 0
0 0.317357 0
0 0.316594 0
0 0.315755 0
