work-blog-website-frontend/docs/7.视频剪辑/assets/LUT/赐福司影调_alogin_01_lut.cube
TITLE "Generated by Resolve"
LUT_3D_SIZE 5
0.026978 0.0374304 0.0425574
0.0993668 0.0500496 0.044892
0.490593 0.0584115 0.0302892
0.716472 0.174136 0.0962081
0.980209 0.716396 0.504219
0.0185397 0.0478828 0.0464942
0.0585489 0.0521706 0.0488441
0.462501 0.0723583 0.0268559
0.716045 0.173495 0.0959029
0.980194 0.716274 0.504112
0 0.217426 0.0929732
0 0.230076 0.08542
0.469383 0.393622 0
0.842924 0.420325 0.0104524
0.980148 0.71603 0.503868
0 0.66453 0.0289769
0 0.664195 0.0285496
0 0.693141 0.0121462
0.907179 0.806653 0.0834211
0.997681 0.858167 0.510735
0.000289921 0.749508 0.579446
0.000289921 0.749508 0.5794
0.000289921 0.749462 0.579293
0.310842 0.804288 0.625467
0.985687 0.975189 0.747158
0.0290227 0.0417334 0.0653544
0.0997787 0.0504005 0.0703899
0.51194 0.05449 0.0743114
0.710185 0.153155 0.122469
0.980209 0.716396 0.504219
0.00735485 0.0666667 0.074052
0.0528572 0.0677806 0.0785534
0.49366 0.0886549 0.0740673
0.708415 0.14725 0.129641
0.980194 0.716274 0.504112
0 0.238911 0.137957
0 0.252934 0.130236
0.461204 0.399908 0.0281682
0.846952 0.433356 0.0936446
0.980148 0.71603 0.503868
0 0.643061 0.175738
0 0.64271 0.175494
0 0.67454 0.164401
0.884565 0.816968 0.309911
0.997223 0.858946 0.533089
0 0.748714 0.58613
0 0.748669 0.586069
0 0.748623 0.585885
0.292943 0.803708 0.632624
0.984863 0.97499 0.754345
0.0363928 0.0480812 0.320027
0.0851301 0.0548714 0.313207
0.461952 0.0173342 0.325826
0.718135 0.123735 0.32781
0.97734 0.700298 0.54258
0.00390631 0.105226 0.309712
0.0389105 0.117693 0.35021
0.48957 0.0748302 0.345525
0.722011 0.132677 0.335149
0.977188 0.699687 0.543999
0 0.3084 0.33608
0 0.328206 0.344137
0.423056 0.442023 0.437491
0.843153 0.443565 0.42472
0.97702 0.698085 0.547189
0 0.61738 0.347021
0 0.617136 0.346929
0 0.652842 0.365515
0.858732 0.83592 0.50927
0.996094 0.859541 0.581338
0 0.748363 0.603723
0 0.748363 0.603662
0 0.748318 0.60354
0.251804 0.803952 0.651362
0.982528 0.975052 0.769802
0 0.366476 0.628946
0.020264 0.395438 0.659175
0.550072 0.426062 0.702312
0.790539 0.364752 0.71075
0.988174 0.692851 0.763317
0 0.380941 0.617121
0.00451667 0.413535 0.652766
0.549599 0.458076 0.708064
0.800992 0.398581 0.716243
0.988159 0.692699 0.763821
0 0.439246 0.557534
0 0.474434 0.599802
0.444282 0.602823 0.730999
0.857343 0.554162 0.746044
0.988144 0.692378 0.765118
0 0.569604 0.496269
0 0.57702 0.503792
0 0.659861 0.610574
0.833539 0.872663 0.78793
0.99501 0.851881 0.782895
0 0.764691 0.689586
0 0.764691 0.689586
0 0.764614 0.689479
0.1346 0.828763 0.746258
0.972519 0.976333 0.838209
0.557427 0.842603 0.85713
0.598688 0.847684 0.86215
0.679301 0.856107 0.873503
0.887251 0.820966 0.890974
0.979858 0.758831 0.925612
0.552575 0.842771 0.856779
0.595422 0.848096 0.861997
0.67718 0.856962 0.873213
0.887922 0.825116 0.89189
0.980941 0.763897 0.925383
0.522271 0.845823 0.85536
0.56878 0.851713 0.86099
0.663813 0.862348 0.87306
0.889601 0.837781 0.894972
0.984329 0.779385 0.924727
0.0398413 0.825223 0.817502
0.129381 0.842741 0.830808
0.404639 0.875654 0.856748
0.86949 0.916548 0.91371
0.990036 0.858885 0.91632
0 0.812924 0.807706
0 0.812772 0.807568
0 0.82356 0.817273
0.416999 0.95227 0.907225
0.961013 0.971038 0.914885
