work-blog-website-frontend/docs/7.视频剪辑/assets/LUT/赐福司影调_alogin_01_lut.cube
TITLE "Generated by Resolve"
LUT_3D_SIZE 9
0.026978 0.0374304 0.0425574
0.0283513 0.0377813 0.0428473
0.0993668 0.0500496 0.044892
0.297002 0.0602731 0.0211337
0.490593 0.0584115 0.0302892
0.617502 0.077821 0.0486915
0.716472 0.174136 0.0962081
0.881361 0.440269 0.264057
0.980209 0.716396 0.504219
0.026978 0.0374304 0.0425574
0.0270695 0.0374456 0.0425727
0.0812695 0.0468299 0.0451362
0.285481 0.06009 0.0219425
0.487541 0.0584726 0.0300145
0.616815 0.0775464 0.0485542
0.716182 0.173709 0.0960098
0.88127 0.440101 0.26392
0.980194 0.716274 0.504112
0.0185397 0.0478828 0.0464942
0.0201419 0.0453346 0.0463417
0.0585489 0.0521706 0.0488441
0.224384 0.0724651 0.0335546
0.462501 0.0723583 0.0268559
0.616541 0.0774395 0.0484932
0.716045 0.173495 0.0959029
0.881178 0.439933 0.263798
0.980194 0.716274 0.504112
0.00161746 0.0959182 0.0596628
0.00257877 0.0940261 0.0590066
0.00250248 0.110048 0.059617
0.176455 0.155016 0.0651408
0.481834 0.181018 0.0207065
0.660548 0.179919 0.0284276
0.716197 0.173846 0.095613
0.881102 0.439765 0.263661
0.980163 0.716152 0.50399
0 0.217426 0.0929732
0 0.215244 0.0925154
0 0.230076 0.08542
0 0.292973 0.0481727
0.469383 0.393622 0
0.755001 0.41976 0
0.842924 0.420325 0.0104524
0.881743 0.44184 0.263615
0.980148 0.71603 0.503868
0 0.435676 0.0762036
0 0.434699 0.0765393
0 0.43415 0.0767376
0 0.480064 0.00415045
0.0303197 0.570138 0
0.762737 0.655329 0
0.93753 0.679393 0
0.962219 0.688289 0.210483
0.980789 0.719387 0.504265
0 0.66453 0.0289769
0 0.664271 0.028687
0 0.664195 0.0285496
0 0.664042 0.0283055
0 0.693141 0.0121462
0.479286 0.743633 0.0508736
0.907179 0.806653 0.0834211
0.976989 0.830777 0.282567
0.997681 0.858167 0.510735
0 0.715541 0.342855
0 0.715541 0.342718
0 0.715557 0.342657
0 0.715557 0.342504
0 0.715557 0.342016
7.62951e-05 0.732113 0.387411
0.684031 0.847471 0.484306
0.955612 0.904631 0.538125
0.99678 0.935866 0.622019
0.000289921 0.749508 0.579446
0.000289921 0.749508 0.579446
0.000289921 0.749508 0.5794
0.000289921 0.749508 0.5794
0.000289921 0.749462 0.579293
0.000289921 0.74934 0.578897
0.310842 0.804288 0.625467
0.834867 0.93727 0.710781
0.985687 0.975189 0.747158
0.026978 0.0374304 0.0425574
0.0294652 0.038407 0.0436713
0.110765 0.0521553 0.0448615
0.303746 0.0601663 0.020737
0.493828 0.0581979 0.0305333
0.616953 0.0761273 0.0493935
0.716579 0.174014 0.0969253
0.881544 0.440604 0.264317
0.980209 0.716396 0.504219
0.0261845 0.037995 0.0435492
0.027512 0.0379339 0.0433661
0.0975052 0.0497597 0.0449226
0.294224 0.0604715 0.0215
0.490303 0.0589609 0.0307927
0.615854 0.0739452 0.0519722
0.714931 0.170092 0.100649
0.881361 0.440269 0.264057
0.980194 0.716274 0.504112
0.0157321 0.0571756 0.0476539
0.0160525 0.0552529 0.0473793
0.0589609 0.0638743 0.0531472
0.215122 0.0865644 0.0376898
0.461051 0.0861067 0.0259709
0.62359 0.0891432 0.049134
0.714244 0.168322 0.102693
0.88127 0.440101 0.26392
0.980194 0.716274 0.504112
0.000900282 0.102739 0.0623026
0.00122072 0.101747 0.0618296
0.00167849 0.120531 0.0615702
0.176883 0.167468 0.0660868
0.491615 0.196902 0.0200809
0.667292 0.196948 0.0248875
0.725155 0.185565 0.105165
0.881178 0.439933 0.263798
0.980194 0.716274 0.504112
0 0.221347 0.097612
0 0.219348 0.0970474
0 0.235935 0.0880293
1.5259e-05 0.294972 0.0521706
0.464729 0.397162 0
0.754681 0.427848 0
0.847578 0.431266 0.0247196
0.885145 0.450111 0.270481
0.980148 0.71603 0.503868
0 0.432319 0.116716
0 0.431266 0.116609
0 0.430884 0.116533
0 0.474006 0.0338903
0.0229191 0.557687 0
0.747509 0.656794 0
0.927306 0.685191 0
0.959762 0.696345 0.267796
0.981476 0.722179 0.504433
0 0.64976 0.12578
0 0.649638 0.125231
0 0.649424 0.125277
0 0.649271 0.124941
0 0.68069 0.102739
0.444617 0.740001 0.192599
0.891279 0.813947 0.262333
0.970886 0.838773 0.359487
0.99733 0.858824 0.52636
0 0.71162 0.361318
0 0.711635 0.361242
0 0.711635 0.361105
0 0.711635 0.360967
0 0.711666 0.36054
0 0.729854 0.405127
0.670176 0.849119 0.502083
0.953399 0.907149 0.558831
0.996597 0.9364 0.635737
0 0.748791 0.583749
0 0.748791 0.583749
0 0.748791 0.583688
0 0.748745 0.583627
1.5259e-05 0.748699 0.58352
1.5259e-05 0.748623 0.5832
0.298405 0.803769 0.630213
0.833021 0.937621 0.714977
0.985122 0.975052 0.752194
0.0290227 0.0417334 0.0653544
0.0294041 0.0417334 0.0650187
0.0997787 0.0504005 0.0703899
0.322972 0.057557 0.0581064
0.51194 0.05449 0.0743114
0.618952 0.0644083 0.0851148
0.710185 0.153155 0.122469
0.88011 0.437491 0.271794
0.980209 0.716396 0.504219
0.0289769 0.0427253 0.0714122
0.0293278 0.0425574 0.0712291
0.0847486 0.0504311 0.0767071
0.313893 0.0556344 0.0694438
0.510414 0.0544137 0.0851759
0.618692 0.0621653 0.0935683
0.709026 0.148974 0.127443
0.879698 0.435828 0.274937
0.980209 0.716396 0.504219
0.00735485 0.0666667 0.074052
0.00842298 0.0645609 0.0735485
0.0528572 0.0677806 0.0785534
0.246036 0.0908217 0.0740673
0.49366 0.0886549 0.0740673
0.629953 0.0826276 0.0907301
0.708415 0.14725 0.129641
0.879133 0.43473 0.276112
0.980194 0.716274 0.504112
7.62951e-05 0.118273 0.0958267
0.000106813 0.117296 0.0951705
0.000289921 0.135134 0.0939651
0.187488 0.173022 0.102968
0.481392 0.199222 0.0689403
0.669383 0.185916 0.0711528
0.724987 0.174243 0.134646
0.87837 0.432624 0.279316
0.980194 0.716274 0.504112
0 0.238911 0.137957
0 0.236957 0.137224
0 0.252934 0.130236
0 0.30016 0.103227
0.461204 0.399908 0.0281682
0.746334 0.434852 0.0239109
0.846952 0.433356 0.0936446
0.883955 0.447074 0.289998
0.980148 0.71603 0.503868
0 0.435935 0.167346
0 0.435096 0.167193
0 0.43473 0.167102
0 0.473198 0.113054
0.0122988 0.544106 0.024567
0.730495 0.658 0.000564584
0.916762 0.690044 0.0483711
0.957443 0.699962 0.300435
0.980896 0.721325 0.510094
0 0.643061 0.175738
0 0.642802 0.175555
0 0.64271 0.175494
0 0.642451 0.175311
0 0.67454 0.164401
0.425528 0.738186 0.237491
0.884565 0.816968 0.309911
0.968719 0.841901 0.388296
0.997223 0.858946 0.533089
0 0.70988 0.369726
0 0.70988 0.369589
0 0.70988 0.369589
0 0.70988 0.36939
0 0.709895 0.369055
0 0.728862 0.413275
0.665217 0.849851 0.509743
0.952453 0.908217 0.567422
0.996506 0.936568 0.641413
0 0.748714 0.58613
0 0.748669 0.586069
0 0.748669 0.586069
0 0.748669 0.586007
0 0.748623 0.585885
0 0.74847 0.585504
0.292943 0.803708 0.632624
0.832212 0.937789 0.716823
0.984863 0.97499 0.754345
0.0321965 0.0448157 0.159625
0.0334173 0.0450446 0.158801
0.0953994 0.0545052 0.169543
0.281376 0.0480201 0.170291
0.50605 0.0390021 0.183032
0.620813 0.0447547 0.172442
0.706645 0.129015 0.181933
0.874449 0.421683 0.309621
0.980011 0.7149 0.508782
0.0310216 0.0463569 0.164843
0.0323644 0.0457771 0.16408
0.090074 0.0538338 0.172732
0.274617 0.0490578 0.175631
0.5037 0.0391394 0.188434
0.620951 0.0447242 0.179507
0.706538 0.127611 0.187121
0.873793 0.420294 0.312947
0.979904 0.714534 0.510155
0.00163272 0.0822003 0.157305
0.00238041 0.0800641 0.159289
0.053666 0.0860914 0.17171
0.251301 0.0962539 0.190219
0.517708 0.0823987 0.190021
0.639048 0.0742962 0.183795
0.706493 0.127031 0.189334
0.873457 0.419608 0.314275
0.979751 0.714336 0.510674
0 0.144732 0.172519
0 0.143999 0.172091
0 0.16228 0.18645
0.160037 0.18439 0.204898
0.51252 0.201282 0.20029
0.674968 0.18294 0.20029
0.730571 0.170138 0.198108
0.872999 0.418357 0.317342
0.979507 0.713909 0.511406
0 0.265766 0.2112
0 0.26479 0.210697
0 0.282841 0.209445
0 0.324529 0.211475
0.455741 0.416617 0.232486
0.730114 0.44242 0.223499
0.841276 0.435477 0.232944
0.882902 0.443778 0.330404
0.979004 0.712123 0.51429
0 0.444404 0.238605
0 0.443656 0.238468
0 0.443244 0.238514
0 0.480232 0.216876
0.00296025 0.541314 0.207874
0.706188 0.661799 0.23653
0.900542 0.698558 0.267994
0.953094 0.706035 0.358389
0.979889 0.718151 0.522576
0 0.632288 0.244617
0 0.632029 0.244556
0 0.631952 0.24448
0 0.631785 0.244358
0 0.664271 0.244923
0.392721 0.737301 0.30985
0.872145 0.823545 0.384787
0.96466 0.848005 0.438468
0.996918 0.859678 0.547112
0 0.7066 0.386786
0 0.706584 0.386648
0 0.706569 0.386618
0 0.706554 0.386481
0 0.706554 0.386145
0 0.727245 0.430091
0.65565 0.851423 0.5252
0.950805 0.91043 0.585412
0.996353 0.936828 0.652445
0 0.748516 0.590982
0 0.748516 0.590921
0 0.748516 0.590921
0 0.74847 0.59086
0 0.74847 0.590753
0 0.748318 0.590387
0.281102 0.803647 0.637812
0.830396 0.937926 0.720623
0.984314 0.974868 0.758724
0.0363928 0.0480812 0.320027
0.0378424 0.0478523 0.321386
0.0851301 0.0548714 0.313207
0.254444 0.0556802 0.341207
0.461952 0.0173342 0.325826
0.620401 0.0158541 0.335225
0.718135 0.123735 0.32781
0.871748 0.41004 0.40383
0.97734 0.700298 0.54258
0.0332189 0.0520333 0.320806
0.0358587 0.0509957 0.323735
0.0887007 0.0585031 0.317586
0.258457 0.058854 0.344335
0.463828 0.0199893 0.327459
0.621195 0.0181582 0.338399
0.718059 0.123003 0.331456
0.871672 0.409842 0.406394
0.977234 0.699825 0.543542
0.00390631 0.105226 0.309712
0.00462348 0.10367 0.315022
0.0389105 0.117693 0.35021
0.268238 0.123201 0.374304
0.48957 0.0748302 0.345525
0.643458 0.0596475 0.35111
0.722011 0.132677 0.335149
0.871626 0.409735 0.407477
0.977188 0.699687 0.543999
0 0.181628 0.303716
0 0.182376 0.305531
0 0.209415 0.354955
0.165789 0.2365 0.403876
0.518227 0.219577 0.403143
0.692454 0.199481 0.378668
0.759319 0.217441 0.355657
0.871641 0.409705 0.409796
0.977081 0.699245 0.544869
0 0.3084 0.33608
0 0.310521 0.335897
0 0.328206 0.344137
0 0.365042 0.391623
0.423056 0.442023 0.437491
0.741909 0.447745 0.431571
0.843153 0.443565 0.42472
0.887922 0.458076 0.426886
0.97702 0.698085 0.547189
0 0.458564 0.345907
0 0.458015 0.345861
0 0.459922 0.345892
0 0.497215 0.354726
0 0.561624 0.394293
0.697169 0.68098 0.462745
0.88368 0.711879 0.460044
0.942336 0.708385 0.471199
0.978378 0.711894 0.555306
0 0.61738 0.347021
0 0.617227 0.346883
0 0.617136 0.346929
0 0.616892 0.346838
0 0.652842 0.365515
0.330739 0.745541 0.436072
0.858732 0.83592 0.50927
0.960586 0.858976 0.530434
0.996094 0.859541 0.581338
0 0.699367 0.428534
0 0.699351 0.428412
0 0.699321 0.428397
0 0.699336 0.428305
0 0.699275 0.428061
0 0.725048 0.475059
0.635493 0.856962 0.56672
0.945846 0.916045 0.629252
0.996353 0.938155 0.679377
0 0.748363 0.603723
0 0.748363 0.603662
0 0.748363 0.603662
0 0.748363 0.603662
0 0.748318 0.60354
0 0.748165 0.603174
0.251804 0.803952 0.651362
0.826139 0.93843 0.730632
0.982528 0.975052 0.769802
0.0273289 0.137743 0.50631
0.030457 0.138048 0.513817
0.0900587 0.150958 0.539925
0.290455 0.167605 0.540002
0.498756 0.135195 0.536873
0.628 0.0562448 0.511116
0.738277 0.184131 0.528984
0.881178 0.435142 0.568887
0.97966 0.684764 0.621637
0.0202029 0.148531 0.502037
0.0255589 0.14818 0.513558
0.0823682 0.162036 0.539651
0.29247 0.177264 0.54139
0.502892 0.152239 0.539513
0.632059 0.074052 0.513481
0.742382 0.193744 0.531518
0.88101 0.434974 0.570214
0.979721 0.684733 0.622507
0.0019379 0.189944 0.482292
0.00201419 0.194995 0.494926
0.0235142 0.216434 0.53637
0.275761 0.241382 0.550713
0.516701 0.208545 0.553689
0.647227 0.14403 0.52256
0.758465 0.235035 0.541146
0.88101 0.43505 0.570809
0.979721 0.684581 0.622889
0 0.251011 0.449485
0 0.258015 0.459815
0 0.291478 0.512184
0.127947 0.339803 0.562875
0.529427 0.330007 0.582498
0.688563 0.27126 0.554192
0.794614 0.316808 0.562509
0.881056 0.435706 0.57229
0.979782 0.684565 0.623652
0 0.347631 0.434958
0 0.352789 0.439658
0 0.37966 0.467872
0 0.423026 0.533516
0.437934 0.498451 0.617426
0.740124 0.482185 0.616449
0.863386 0.490898 0.604974
0.909697 0.525643 0.594873
0.979873 0.68423 0.625803
0 0.46305 0.430121
0 0.463508 0.430472
0 0.478096 0.439933
0 0.515618 0.474495
0 0.593072 0.566629
0.671901 0.712032 0.642771
0.883146 0.713451 0.636164
0.940185 0.709682 0.633417
0.982651 0.710979 0.633112
0 0.597482 0.443305
0 0.59733 0.443244
0 0.597253 0.443244
0 0.597253 0.443305
0 0.649866 0.49807
0.233112 0.76939 0.588556
0.852872 0.858045 0.661311
0.956741 0.868574 0.656138
0.993744 0.856474 0.660533
0 0.688289 0.50071
0 0.688304 0.500648
0 0.688258 0.500618
0 0.688228 0.500587
0 0.688182 0.500389
0 0.727733 0.563439
0.60441 0.869215 0.652445
0.938537 0.92549 0.714199
0.995865 0.940841 0.733089
0 0.750668 0.634974
0 0.750622 0.634928
0 0.750622 0.634928
0 0.750607 0.634867
0 0.750561 0.634806
0 0.750393 0.63447
0.188556 0.808637 0.685283
0.817838 0.941283 0.757397
0.978851 0.975509 0.794217
0 0.366476 0.628946
0.000167849 0.374136 0.637446
0.020264 0.395438 0.659175
0.275959 0.42974 0.687327
0.550072 0.426062 0.702312
0.702083 0.363088 0.705089
0.790539 0.364752 0.71075
0.874418 0.493034 0.749157
0.988174 0.692851 0.763317
0 0.370306 0.626184
0 0.379141 0.636149
0.0116884 0.401297 0.658122
0.263447 0.437507 0.687449
0.551034 0.440696 0.704448
0.70576 0.380438 0.708339
0.794644 0.377172 0.712886
0.878004 0.500801 0.751278
0.988174 0.692836 0.763684
0 0.380941 0.617121
0 0.391165 0.628763
0.00451667 0.413535 0.652766
0.213352 0.452262 0.686854
0.549599 0.458076 0.708064
0.709712 0.400107 0.711894
0.800992 0.398581 0.716243
0.883528 0.512413 0.753338
0.988159 0.692699 0.763821
0 0.4009 0.598871
0 0.412741 0.612192
0 0.436393 0.639551
0.0925154 0.482918 0.683803
0.540108 0.505608 0.718853
0.720348 0.455344 0.724971
0.817441 0.447883 0.725795
0.895201 0.537911 0.758495
0.988174 0.692683 0.764187
0 0.439246 0.557534
0 0.452216 0.571405
0 0.474434 0.599802
0 0.524041 0.658213
0.444282 0.602823 0.730999
0.72929 0.582712 0.746822
0.857343 0.554162 0.746044
0.921965 0.602808 0.768109
0.988144 0.692378 0.765118
0 0.49102 0.509544
0 0.503395 0.522194
0 0.519539 0.539559
0 0.55584 0.587045
0.00830091 0.649073 0.691768
0.664897 0.738308 0.765026
0.883589 0.729763 0.772015
0.948013 0.73492 0.773388
0.991547 0.755001 0.773342
0 0.569604 0.496269
0 0.569375 0.496178
0 0.57702 0.503792
0 0.600778 0.530022
0 0.659861 0.610574
0.172396 0.78996 0.728634
0.833539 0.872663 0.78793
0.949065 0.867018 0.785016
0.99501 0.851881 0.782895
0 0.675181 0.566629
0 0.675135 0.566567
0 0.675135 0.566567
0 0.675074 0.566506
0 0.674983 0.566354
0 0.745388 0.667475
0.59617 0.884565 0.759091
0.940108 0.934279 0.807736
0.990051 0.941436 0.80766
0 0.764691 0.689586
0 0.764691 0.689586
0 0.764691 0.689586
0 0.76463 0.689525
0 0.764614 0.689479
0 0.764431 0.68925
0.1346 0.828763 0.746258
0.807279 0.948058 0.80679
0.972519 0.976333 0.838209
0.0664378 0.620417 0.755383
0.175967 0.636057 0.765881
0.252369 0.647028 0.772503
0.381964 0.666514 0.782696
0.553292 0.685664 0.79968
0.744991 0.651011 0.801144
0.841978 0.58819 0.819791
0.894301 0.613016 0.849973
0.983001 0.689769 0.871763
0.0542306 0.620722 0.75407
0.158282 0.636957 0.764874
0.238392 0.648676 0.772183
0.373205 0.66865 0.782666
0.547585 0.689769 0.799939
0.745663 0.658854 0.80322
0.84535 0.602319 0.822095
0.89633 0.619883 0.850141
0.98407 0.694957 0.87187
0.0480659 0.621347 0.752392
0.143404 0.637751 0.763714
0.224643 0.649897 0.771603
0.365942 0.669978 0.782513
0.544884 0.691554 0.800015
0.745861 0.662196 0.80412
0.847227 0.610498 0.823407
0.898528 0.62768 0.850385
0.984466 0.698207 0.871839
0.032929 0.623285 0.745724
0.0928511 0.641779 0.759152
0.15845 0.654917 0.768277
0.318166 0.676844 0.781292
0.528084 0.703731 0.800748
0.74493 0.676478 0.80853
0.85095 0.626596 0.826017
0.902907 0.643183 0.850889
0.985931 0.705791 0.871809
0.00679026 0.626383 0.727626
0.0144656 0.648798 0.745617
0.0310826 0.663859 0.756909
0.175051 0.690578 0.775708
0.479622 0.731151 0.801343
0.73611 0.724025 0.823743
0.86186 0.675654 0.835355
0.917464 0.681636 0.852216
0.989288 0.72784 0.871458
0 0.615824 0.670909
0 0.641428 0.698222
0 0.656382 0.712886
0.000183108 0.689403 0.741833
0.234424 0.756268 0.790951
0.659327 0.808133 0.840009
0.876234 0.779629 0.852918
0.946792 0.761273 0.849577
0.993591 0.778607 0.869337
0 0.608377 0.588083
0 0.626719 0.610468
0 0.637705 0.624033
0 0.662425 0.6542
0 0.727367 0.725673
0.362417 0.832425 0.811536
0.833219 0.885786 0.858534
0.943343 0.875044 0.859617
0.993225 0.862898 0.867887
0 0.656458 0.592752
0 0.656382 0.592676
0 0.656382 0.592676
0 0.66302 0.601297
0 0.699046 0.64976
0 0.791241 0.754025
0.598169 0.904585 0.841276
0.923384 0.942229 0.87274
0.983505 0.932662 0.874281
0 0.792721 0.74934
0 0.792706 0.74931
0 0.792706 0.74931
0 0.792615 0.749203
0 0.792615 0.749203
0 0.79234 0.748898
0.195941 0.878294 0.820996
0.819257 0.960739 0.862028
0.970886 0.972641 0.880491
0.557427 0.842603 0.85713
0.586572 0.846189 0.860685
0.598688 0.847684 0.86215
0.622705 0.850477 0.865248
0.679301 0.856107 0.873503
0.785183 0.85449 0.891127
0.887251 0.820966 0.890974
0.930373 0.770138 0.894209
0.979858 0.758831 0.925612
0.554299 0.842771 0.856931
0.5841 0.846448 0.860548
0.596475 0.84799 0.862058
0.621057 0.850904 0.865171
0.677806 0.856703 0.873304
0.784054 0.855863 0.89134
0.887709 0.823896 0.89163
0.932113 0.775326 0.894759
0.980484 0.761837 0.925475
0.552575 0.842771 0.856779
0.582925 0.84654 0.860471
0.595422 0.848096 0.861997
0.620233 0.851057 0.86511
0.67718 0.856962 0.873213
0.783688 0.856428 0.891447
0.887922 0.825116 0.89189
0.932876 0.777539 0.894987
0.980941 0.763897 0.925383
0.547875 0.843076 0.856489
0.579355 0.846891 0.860288
0.592386 0.848524 0.861875
0.618326 0.851545 0.865064
0.675715 0.857511 0.873014
0.782803 0.857603 0.89163
0.888319 0.827787 0.892485
0.934432 0.782132 0.895491
0.981888 0.768154 0.925231
0.522271 0.845823 0.85536
0.553994 0.849805 0.859174
0.56878 0.851713 0.86099
0.598581 0.855375 0.864607
0.663813 0.862348 0.87306
0.777295 0.865599 0.892515
0.889601 0.837781 0.894972
0.938567 0.794461 0.896803
0.984329 0.779385 0.924727
0.430655 0.849042 0.849592
0.474861 0.854704 0.85449
0.494545 0.857313 0.856886
0.534874 0.862531 0.861738
0.622446 0.872724 0.872465
0.75938 0.885298 0.893431
0.892729 0.870268 0.903868
0.946624 0.825223 0.903624
0.988388 0.807263 0.921279
0.0398413 0.825223 0.817502
0.0964218 0.837537 0.826871
0.129381 0.842741 0.830808
0.201724 0.853132 0.838697
0.404639 0.875654 0.856748
0.660731 0.903288 0.886137
0.86949 0.916548 0.91371
0.954787 0.885039 0.91165
0.990036 0.858885 0.91632
0 0.764996 0.7561
0 0.778592 0.769177
0 0.78436 0.774716
0 0.797742 0.786923
0 0.831266 0.815488
0.225544 0.895888 0.86479
0.730755 0.943053 0.907759
0.935561 0.94931 0.916854
0.982391 0.920501 0.917937
0 0.812924 0.807706
0 0.812772 0.807568
0 0.812772 0.807568
0 0.812772 0.807568
0 0.82356 0.817273
0 0.87776 0.861662
0.416999 0.95227 0.907225
0.847089 0.979767 0.916152
0.961013 0.971038 0.914885
