work-blog-website-frontend/docs/7.视频剪辑/assets/LUT/赐福司影调_alogin_01_lut.cube
TITLE "Generated by Resolve"
LUT_3D_SIZE 33
0.026978 0.0374304 0.0425574
0.026978 0.0374304 0.0425574
0.026978 0.0374304 0.0425574
0.026978 0.0374304 0.0425574
0.0283513 0.0377813 0.0428473
0.0319829 0.0397192 0.0452888
0.0450599 0.0423133 0.0458991
0.0680858 0.0451667 0.0455787
0.0993668 0.0500496 0.044892
0.134874 0.0556802 0.0438392
0.182788 0.0595712 0.0378424
0.24033 0.0602426 0.0272984
0.297002 0.0602731 0.0211337
0.34966 0.0593118 0.0206607
0.399802 0.0589151 0.0223392
0.446433 0.0583352 0.0266423
0.490593 0.0584115 0.0302892
0.529274 0.0598154 0.0347753
0.561334 0.0631723 0.0402991
0.591424 0.0687419 0.0442359
0.617502 0.077821 0.0486915
0.641291 0.0899062 0.0550851
0.663233 0.106371 0.0649424
0.6878 0.132738 0.0784314
0.716472 0.174136 0.0962081
0.752621 0.229068 0.123674
0.793927 0.292561 0.159792
0.839094 0.365087 0.20708
0.881361 0.440269 0.264057
0.91754 0.517159 0.326513
0.946471 0.590036 0.388556
0.96698 0.657176 0.449668
0.980209 0.716396 0.504219
0.026978 0.0374304 0.0425574
0.026978 0.0374304 0.0425574
0.026978 0.0374304 0.0425574
0.026978 0.0374304 0.0425574
0.0274052 0.0375067 0.0425727
0.0300298 0.038941 0.0444953
0.039353 0.0413214 0.0458076
0.0583047 0.0440375 0.0458228
0.0899367 0.0483711 0.0449989
0.12636 0.0546578 0.0443732
0.173632 0.0593576 0.0395972
0.232654 0.0602579 0.0285649
0.291295 0.0601816 0.0215305
0.345556 0.0593729 0.0205539
0.396918 0.0589303 0.0220951
0.444266 0.05832 0.0264439
0.489067 0.0584421 0.0301518
0.528313 0.0597696 0.034638
0.560662 0.0630655 0.040177
0.590951 0.0686503 0.0441901
0.617166 0.0776837 0.0486305
0.641047 0.0897383 0.0549935
0.663081 0.106218 0.0648661
0.687617 0.13254 0.0783246
0.71632 0.173922 0.0961013
0.752438 0.228794 0.123537
0.79382 0.292409 0.159701
0.839002 0.36492 0.206958
0.88127 0.440101 0.26392
0.917479 0.516991 0.32636
0.946471 0.590036 0.388556
0.96698 0.657176 0.449668
0.980194 0.716274 0.504112
0.026978 0.0374304 0.0425574
0.026978 0.0374304 0.0425574
0.026978 0.0374304 0.0425574
0.026978 0.0374304 0.0425574
0.0272526 0.0374762 0.0425727
0.0298161 0.0386816 0.0440833
0.0373236 0.0409552 0.0457923
0.0543221 0.043595 0.0458991
0.0858167 0.0476387 0.0450599
0.122683 0.0542 0.0446021
0.169818 0.059205 0.0402686
0.229282 0.0602274 0.0291752
0.288884 0.0601358 0.0216983
0.343923 0.0593881 0.0205081
0.395758 0.0589456 0.0219883
0.443336 0.0583352 0.0263523
0.488396 0.0584573 0.0300908
0.527825 0.0597391 0.0345769
0.560388 0.0630198 0.0401312
0.590753 0.0686046 0.0441749
0.616999 0.0776226 0.0485847
0.64094 0.0896773 0.0549477
0.662989 0.106126 0.0648203
0.687556 0.132464 0.078294
0.716258 0.173816 0.0960555
0.752346 0.228656 0.123461
0.793729 0.292256 0.159594
0.838895 0.364752 0.206851
0.88127 0.440101 0.26392
0.917479 0.516991 0.32636
0.946471 0.590036 0.388556
0.966949 0.657038 0.449531
0.980194 0.716274 0.504112
0.026978 0.0374304 0.0425574
0.026978 0.0374304 0.0425574
0.026978 0.0374304 0.0425574
0.026978 0.0374304 0.0425574
0.0271305 0.0374609 0.0425727
0.0296483 0.0384833 0.0437629
0.0357366 0.0406653 0.0457771
0.0512398 0.0432593 0.0459602
0.0825971 0.0470588 0.0450904
0.119829 0.0538491 0.04477
0.167071 0.0589456 0.0405737
0.226703 0.0602121 0.0296483
0.287114 0.0601053 0.0218204
0.342519 0.0594034 0.0204776
0.394797 0.0589456 0.021912
0.442603 0.0583505 0.0262913
0.487922 0.0584573 0.0300603
0.527504 0.0597238 0.0345312
0.560189 0.0629892 0.0400854
0.590539 0.0685588 0.0441596
0.616876 0.0775769 0.0485542
0.640894 0.0896468 0.0549325
0.662928 0.106081 0.0647898
0.687495 0.132403 0.0782635
0.716258 0.173816 0.0960555
0.752346 0.228656 0.123461
0.793729 0.292256 0.159594
0.838895 0.364752 0.206851
0.88127 0.440101 0.26392
0.917479 0.516991 0.32636
0.946471 0.590036 0.388556
0.966949 0.657038 0.449531
0.980194 0.716274 0.504112
0.026978 0.0374304 0.0425574
0.026978 0.0374304 0.0425574
0.026978 0.0374304 0.0425574
0.026978 0.0374304 0.0425574
0.0270695 0.0374456 0.0425727
0.0296788 0.0383764 0.043595
0.0350347 0.0405585 0.0457923
0.0504768 0.0430915 0.0460059
0.0812695 0.0468299 0.0451362
0.118563 0.0536049 0.0447852
0.16527 0.0587778 0.0407874
0.224842 0.0601816 0.029984
0.285481 0.06009 0.0219425
0.341466 0.0594186 0.0204471
0.394049 0.0589609 0.0218509
0.441978 0.0583658 0.0262303
0.487541 0.0584726 0.0300145
0.527276 0.0597086 0.0345006
0.560052 0.062974 0.0400702
0.590402 0.0685435 0.0441444
0.616815 0.0775464 0.0485542
0.640848 0.0896162 0.0549172
0.662882 0.106035 0.0647593
0.687449 0.132342 0.078233
0.716182 0.173709 0.0960098
0.75227 0.228519 0.1234
0.793729 0.292256 0.159594
0.838895 0.364752 0.206851
0.88127 0.440101 0.26392
0.917479 0.516991 0.32636
0.94641 0.589883 0.388418
0.966949 0.657038 0.449531
0.980194 0.716274 0.504112
0.0263676 0.0376135 0.0428016
0.0267948 0.0374914 0.0426337
0.0269627 0.0374304 0.0425727
0.0269627 0.0374456 0.0425574
0.0268406 0.0374304 0.0425879
0.029633 0.038407 0.0436255
0.0352789 0.0406195 0.0458076
0.0515755 0.043122 0.0460059
0.0821546 0.0469062 0.0450904
0.119203 0.053666 0.04477
0.165606 0.0587778 0.0407263
0.225208 0.06009 0.0298924
0.285756 0.0600443 0.0219577
0.341207 0.0595254 0.0204013
0.393362 0.0591287 0.0218051
0.440833 0.0585794 0.0260929
0.48716 0.0584878 0.029984
0.527031 0.0596933 0.0344701
0.559853 0.0629435 0.0400244
0.590265 0.068513 0.0441291
0.616709 0.0775006 0.0485237
0.640803 0.0895857 0.054902
0.662837 0.105989 0.0647288
0.687449 0.132342 0.078233
0.716106 0.173602 0.0959487
0.75227 0.228519 0.1234
0.793622 0.292088 0.159503
0.838895 0.364752 0.206851
0.88127 0.440101 0.26392
0.917403 0.516823 0.326223
0.94641 0.589883 0.388418
0.966949 0.657038 0.449531
0.980194 0.716274 0.504112
0.026978 0.0392309 0.0451057
0.0268559 0.0387732 0.0445258
0.0266575 0.0385748 0.0442359
0.0265202 0.0384527 0.0440528
0.0264439 0.0384527 0.044007
0.0282292 0.0389258 0.0445563
0.0353552 0.0407416 0.0458228
0.0514382 0.0432593 0.0459907
0.0818494 0.0471199 0.0451972
0.118288 0.0538186 0.0449073
0.162707 0.0591135 0.041413
0.220127 0.0611124 0.0311742
0.280385 0.0610056 0.0225986
0.336202 0.0606241 0.0204471
0.387457 0.0601968 0.0214542
0.434882 0.0602274 0.0254673
0.480949 0.060914 0.029221
0.524086 0.0616007 0.0339361
0.559716 0.0629129 0.0400092
0.590204 0.0684977 0.0441291
0.616648 0.0774853 0.0485084
0.640742 0.0895552 0.0548714
0.662837 0.105989 0.0647288
0.687388 0.132265 0.0782025
0.716106 0.173602 0.0959487
0.75227 0.228519 0.1234
0.793622 0.292088 0.159503
0.838788 0.364584 0.206744
0.881178 0.439933 0.263798
0.917403 0.516823 0.326223
0.94641 0.589883 0.388418
0.966949 0.657038 0.449531
0.980194 0.716274 0.504112
0.0238956 0.0416419 0.0461738
0.0249638 0.04094 0.0461128
0.0254063 0.04065 0.0460822
0.0257115 0.0404517 0.046067
0.0256199 0.0404669 0.0460212
0.0257877 0.0405737 0.0460517
0.0314031 0.0414893 0.0463264
0.0459449 0.0440986 0.0464485
0.0720531 0.0478981 0.0459297
0.105516 0.0536507 0.0455787
0.145968 0.0599222 0.0439918
0.200992 0.063859 0.0359655
0.263874 0.0641794 0.0253147
0.32221 0.063859 0.0209354
0.376349 0.0630045 0.0209964
0.425177 0.0636454 0.0243992
0.472572 0.0648966 0.0283055
0.517922 0.0664225 0.0327001
0.55845 0.0673838 0.0389715
0.590066 0.0684672 0.0441138
0.616587 0.0774701 0.0484932
0.640696 0.0895247 0.0548562
0.662776 0.105943 0.0647135
0.687327 0.132204 0.078172
0.716106 0.173602 0.0959487
0.752178 0.228382 0.123323
0.793622 0.292088 0.159503
0.838788 0.364584 0.206744
0.881178 0.439933 0.263798
0.917403 0.516823 0.326223
0.94641 0.589883 0.388418
0.966949 0.657038 0.449531
0.980194 0.716274 0.504112
0.0185397 0.0478828 0.0464942
0.0193637 0.0462959 0.0463569
0.0197604 0.0456703 0.0463111
0.0200961 0.045304 0.0463111
0.0201419 0.0453346 0.0463417
0.0204318 0.0453498 0.0464332
0.0242924 0.045716 0.0472877
0.0354314 0.0475776 0.0482185
0.0585489 0.0521706 0.0488441
0.0874495 0.0575875 0.0481727
0.121187 0.0633402 0.0469368
0.164141 0.0691386 0.043946
0.224384 0.0724651 0.0335546
0.291463 0.0722667 0.0239872
0.355215 0.0709697 0.0214542
0.412421 0.0706493 0.0235447
0.462501 0.0723583 0.0268559
0.511315 0.0749828 0.0310063
0.556558 0.0767681 0.0372473
0.592264 0.0771801 0.0424659
0.616541 0.0774395 0.0484932
0.64065 0.0894942 0.0548409
0.66273 0.105882 0.064683
0.687327 0.132204 0.078172
0.716045 0.173495 0.0959029
0.752178 0.228382 0.123323
0.793515 0.291936 0.159396
0.838788 0.364584 0.206744
0.881178 0.439933 0.263798
0.917403 0.516823 0.326223
0.94641 0.589883 0.388418
0.966949 0.657038 0.449531
0.980194 0.716274 0.504112
0.0157321 0.0574655 0.0475776
0.0158694 0.0561532 0.0473945
0.0159304 0.0555734 0.0473182
0.0159762 0.0551461 0.0472572
0.0159609 0.0551919 0.0472725
0.0161288 0.0554208 0.0474708
0.0178073 0.0560006 0.0483406
0.0239719 0.056672 0.049958
0.0454871 0.0606546 0.0520027
0.0793774 0.0689555 0.0542916
0.114153 0.0756085 0.0520027
0.156954 0.0818036 0.0471351
0.207034 0.0859693 0.0388952
0.267521 0.0880446 0.0287175
0.335149 0.0869764 0.0232853
0.401068 0.0853895 0.0237736
0.457282 0.0858167 0.0254215
0.507652 0.0886091 0.0295567
0.555856 0.0909895 0.0348974
0.596109 0.0911116 0.040177
0.623331 0.0896162 0.0463874
0.640543 0.0894331 0.0547951
0.662684 0.105837 0.0646525
0.687266 0.132128 0.0781415
0.715969 0.173373 0.0958572
0.752087 0.228244 0.123262
0.793515 0.291936 0.159396
0.838788 0.364584 0.206744
0.881178 0.439933 0.263798
0.917403 0.516823 0.326223
0.94641 0.589883 0.388418
0.966949 0.657038 0.449531
0.980194 0.716274 0.504112
0.0141604 0.0673686 0.050248
0.0144961 0.0662547 0.0498665
0.0146334 0.0657816 0.0496986
0.0147402 0.0654154 0.0495766
0.0147555 0.0654307 0.0495766
0.0142977 0.0661173 0.049836
0.01355 0.0679789 0.0507362
0.0150149 0.0705882 0.0523384
0.0282902 0.0732586 0.0548104
0.0645762 0.0812085 0.0582284
0.106157 0.0913405 0.0598917
0.1514 0.0988327 0.0544137
0.20943 0.10547 0.0435798
0.27303 0.109514 0.0316014
0.333593 0.109789 0.0258183
0.395651 0.108904 0.0254368
0.455299 0.10869 0.0244602
0.508659 0.10988 0.0273289
0.557992 0.111894 0.0306096
0.602258 0.11191 0.0367742
0.632959 0.108858 0.0442054
0.65066 0.105943 0.0528572
0.662623 0.105791 0.064622
0.687205 0.132067 0.0780957
0.715969 0.173373 0.0958572
0.752087 0.228244 0.123262
0.793515 0.291936 0.159396
0.838697 0.364431 0.206638
0.881102 0.439765 0.263661
0.917403 0.516823 0.326223
0.94641 0.589883 0.388418
0.966949 0.657038 0.449531
0.980163 0.716152 0.50399
0.0089723 0.0798657 0.0541543
0.00927749 0.0787671 0.0538338
0.00941482 0.078294 0.0536965
0.00952163 0.0779278 0.0535897
0.00950637 0.0779431 0.0535897
0.00875868 0.0792554 0.0538186
0.00769055 0.0817578 0.0540932
0.00769055 0.085832 0.054902
0.0122377 0.090898 0.0574197
0.0339818 0.0973526 0.0613107
0.0849012 0.108492 0.0641642
0.137255 0.119295 0.0638743
0.198505 0.128161 0.0546273
0.274662 0.135531 0.0398718
0.347784 0.139742 0.0295262
0.406973 0.140658 0.0259251
0.46154 0.14107 0.0250248
0.514427 0.142123 0.0250095
0.564706 0.143252 0.0271763
0.610178 0.142367 0.0306249
0.645777 0.138003 0.0370184
0.665888 0.132296 0.0474861
0.677623 0.129137 0.0616007
0.687175 0.132082 0.0780041
0.715831 0.173159 0.0957504
0.751995 0.228107 0.123186
0.793408 0.291768 0.159289
0.838697 0.364431 0.206638
0.881102 0.439765 0.263661
0.917327 0.516655 0.32607
0.946365 0.589715 0.388266
0.966903 0.656886 0.449409
0.980163 0.716152 0.50399
0.00161746 0.0959182 0.0596628
0.00215152 0.0948196 0.0592966
0.00239567 0.094316 0.0591287
0.00256352 0.0939651 0.0590066
0.00257877 0.0940261 0.0590066
0.00209049 0.0960861 0.0596017
0.00163272 0.0993057 0.0599374
0.00169375 0.104051 0.0594644
0.00250248 0.110048 0.059617
0.00828565 0.118227 0.062623
0.040528 0.128832 0.0664225
0.107622 0.142519 0.0678569
0.176455 0.155016 0.0651408
0.258503 0.165988 0.047776
0.345235 0.17377 0.0318303
0.422339 0.178882 0.0242924
0.481834 0.181018 0.0207065
0.531075 0.182193 0.0199893
0.577462 0.183444 0.0203861
0.621286 0.183795 0.0228275
0.660548 0.179919 0.0284276
0.685344 0.172992 0.0385443
0.698695 0.166384 0.054139
0.706416 0.165057 0.072343
0.716197 0.173846 0.095613
0.751919 0.227985 0.123125
0.793317 0.291615 0.159197
0.83859 0.364263 0.206516
0.881102 0.439765 0.263661
0.917327 0.516655 0.32607
0.946365 0.589715 0.388266
0.966903 0.656886 0.449409
0.980163 0.716152 0.50399
0.000259403 0.116197 0.0654917
0.000320439 0.115099 0.0651713
0.000350958 0.114641 0.0650492
0.000366217 0.114275 0.0649424
0.000366217 0.114443 0.0649882
0.000381476 0.117098 0.0656596
0.000442512 0.121004 0.066453
0.000198367 0.126329 0.0653239
0.000106813 0.132906 0.0639658
0.000518807 0.142092 0.0636606
0.0061799 0.153613 0.0660105
0.0489357 0.16849 0.0664683
0.138293 0.185763 0.0641184
0.2318 0.200656 0.0553292
0.332387 0.213184 0.0302434
0.421775 0.221759 0.0169528
0.497063 0.22649 0.0118715
0.554742 0.229114 0.0108186
0.602487 0.230701 0.0106661
0.64213 0.2318 0.0130922
0.677897 0.231418 0.0155184
0.706981 0.225818 0.0230564
0.723674 0.218479 0.0393988
0.732006 0.21355 0.0633097
0.74052 0.217273 0.0901045
0.752377 0.229099 0.122866
0.79321 0.291447 0.159091
0.838499 0.364096 0.206409
0.88101 0.439582 0.263539
0.91725 0.516487 0.325933
0.946365 0.589715 0.388266
0.966903 0.656886 0.449409
0.980163 0.716152 0.50399
3.0518e-05 0.141848 0.0731518
3.0518e-05 0.140826 0.0728771
3.0518e-05 0.140368 0.0727703
4.57771e-05 0.140017 0.0726787
4.57771e-05 0.139742 0.0726024
3.0518e-05 0.143221 0.0733806
0 0.147814 0.0745708
0 0.153155 0.0729686
0 0.160098 0.0700542
1.5259e-05 0.169924 0.0667124
9.15541e-05 0.183154 0.065095
0.00447089 0.199039 0.0636301
0.0666209 0.218891 0.0569162
0.184848 0.239597 0.0441291
0.303395 0.256764 0.0253605
0.41236 0.270268 0.00469978
0.500374 0.279362 0.00170901
0.570672 0.283177 0.00123598
0.626673 0.284657 0.00129702
0.669352 0.286473 0.00318914
0.703883 0.287648 0.00256352
0.731304 0.286748 0.00657664
0.751736 0.281834 0.0165103
0.763195 0.275639 0.0416419
0.77055 0.273243 0.0780652
0.780056 0.280354 0.117662
0.794232 0.293111 0.158984
0.838392 0.363928 0.206302
0.880919 0.439414 0.263401
0.91725 0.516487 0.325933
0.946303 0.589563 0.388128
0.966903 0.656886 0.449409
0.980163 0.716152 0.50399
0 0.175341 0.0826276
0 0.174228 0.0823224
0 0.173754 0.0822003
0 0.173434 0.0821088
0 0.173114 0.0820325
0 0.175631 0.082536
0 0.180499 0.0834821
0 0.18558 0.0823377
0 0.192935 0.0778363
0 0.203021 0.0720531
0 0.216434 0.0659953
0 0.233692 0.0614328
0.00570687 0.25452 0.0535897
0.0972305 0.280491 0.0318608
0.251713 0.304753 0.0081178
0.384833 0.32256 0.000411994
0.494026 0.336187 0
0.578058 0.344411 0
0.642649 0.347738 0
0.692699 0.349538 0
0.73106 0.35111 0
0.760449 0.352712 0.000167849
0.782177 0.351415 0.000396735
0.797391 0.347524 0.0106508
0.806317 0.343404 0.0485847
0.813046 0.34342 0.10248
0.823758 0.350698 0.15523
0.839445 0.365621 0.206287
0.880827 0.439246 0.263264
0.917189 0.51632 0.32578
0.946303 0.589563 0.388128
0.966873 0.656748 0.449271
0.980148 0.71603 0.503868
0 0.217426 0.0929732
0 0.216342 0.0927443
0 0.215946 0.092668
0 0.215549 0.0925765
0 0.215244 0.0925154
0 0.215045 0.0924697
0 0.219394 0.0931868
0 0.223407 0.0918288
0 0.230076 0.08542
0 0.240238 0.0762341
0 0.253712 0.0656901
0 0.271962 0.0568856
0 0.292973 0.0481727
0.00671397 0.319158 0.0268254
0.165393 0.349981 0.00151064
0.33489 0.37528 0
0.469383 0.393622 0
0.574075 0.406256 0
0.651621 0.413611 0
0.710903 0.417578 0
0.755001 0.41976 0
0.789334 0.423041 0
0.81442 0.424323 0
0.8318 0.423026 0
0.842924 0.420325 0.0104524
0.849378 0.417029 0.0662089
0.856062 0.419013 0.142641
0.866773 0.427741 0.20444
0.881743 0.44184 0.263615
0.917113 0.516152 0.325643
0.946258 0.589395 0.387976
0.966827 0.656611 0.449149
0.980148 0.71603 0.503868
0 0.265019 0.101579
0 0.264134 0.101472
0 0.263691 0.101411
0 0.263478 0.101396
0 0.263249 0.101366
0 0.263035 0.101335
0 0.263416 0.101289
0 0.267109 0.0999161
0 0.272648 0.0920882
0 0.282551 0.0797894
0 0.295583 0.0642863
0 0.314199 0.0469368
0 0.33579 0.0323949
0 0.359991 0.0151675
0.0222934 0.390738 0.000381476
0.255268 0.423026 0
0.421958 0.447929 0
0.552743 0.465217 0
0.648539 0.476204 0
0.722057 0.484123 0
0.77528 0.48896 0
0.813687 0.492622 0
0.842359 0.495995 0
0.863188 0.497719 0
0.876905 0.496895 9.15541e-05
0.884306 0.494408 0.0184329
0.888777 0.492744 0.106767
0.894926 0.494987 0.195544
0.905135 0.504631 0.265003
0.918212 0.518502 0.32549
0.946197 0.589242 0.387839
0.966796 0.656474 0.449012
0.980117 0.715908 0.503761
0 0.316915 0.105318
0 0.316106 0.105287
0 0.315877 0.105287
0 0.315648 0.105272
0 0.315404 0.105272
0 0.315175 0.105257
0 0.315068 0.105257
0 0.314992 0.105196
0 0.319646 0.0970474
0 0.329427 0.0817731
0 0.342611 0.0607004
0 0.360479 0.0356146
0 0.382864 0.0149538
0 0.405783 0.00399786
0.000259403 0.431861 9.15541e-05
0.109712 0.464408 0
0.346792 0.495735 0
0.5084 0.518853 0
0.630274 0.533806 0
0.719326 0.544869 0
0.785794 0.553323 0
0.833677 0.55906 0
0.865965 0.563378 0
0.888899 0.566567 0
0.904967 0.567971 0
0.913314 0.566522 0.000411994
0.918105 0.564965 0.0432288
0.92192 0.564981 0.168856
0.927398 0.570153 0.257939
0.936049 0.579171 0.328283
0.947127 0.592294 0.387808
0.966751 0.656336 0.44889
0.980102 0.715785 0.503639
0 0.374517 0.0957198
0 0.373846 0.0958877
0 0.373571 0.0959487
0 0.373449 0.0959793
0 0.373312 0.0960098
0 0.373037 0.0960708
0 0.372915 0.0961166
0 0.372778 0.0961471
0 0.372641 0.0961776
0 0.380453 0.0819562
0 0.392981 0.057969
0 0.409766 0.0298314
0 0.431891 0.00671397
0 0.455192 0.000198367
0 0.47718 0
0.00662242 0.504402 0
0.217884 0.534691 0
0.439643 0.563439 0
0.589487 0.583856 0
0.701366 0.59765 0
0.781888 0.609323 0
0.842084 0.61735 0
0.880995 0.621942 0
0.907042 0.625895 0
0.924834 0.628779 0
0.935561 0.629847 0
0.940444 0.629755 0.00622568
0.943236 0.629358 0.121263
0.946929 0.632731 0.238605
0.952697 0.638178 0.32459
0.960433 0.64773 0.391714
0.967605 0.66006 0.449226
0.980072 0.715663 0.503532
0 0.435676 0.0762036
0 0.435111 0.0764019
0 0.434974 0.0764477
0 0.434836 0.0764935
0 0.434699 0.0765393
0 0.434562 0.0766003
0 0.434424 0.0766461
0 0.434287 0.0766918
0 0.43415 0.0767376
0 0.434012 0.0767834
0 0.442756 0.0578317
0 0.45919 0.0307469
0 0.480064 0.00415045
0 0.503731 0
0 0.524956 0
0 0.544808 0
0.0303197 0.570138 0
0.334295 0.599237 0
0.524742 0.624643 0
0.661204 0.642741 0
0.762737 0.655329 0
0.836255 0.665476 0
0.886 0.671519 0
0.917098 0.675578 0
0.93753 0.679393 0
0.949554 0.682933 0
0.95555 0.684184 0.000686656
0.958694 0.685069 0.0711528
0.962219 0.688289 0.210483
0.966476 0.69308 0.309255
0.97174 0.700328 0.388708
0.977203 0.708309 0.451804
0.980789 0.719387 0.504265
0 0.498482 0.0529641
0 0.498054 0.0531014
0 0.497917 0.0531472
0 0.49778 0.053193
0 0.497642 0.0532387
0 0.497642 0.0532387
0 0.49749 0.0532845
0 0.497353 0.0533303
0 0.497353 0.0533303
0 0.497215 0.0533761
0 0.497063 0.0534218
0 0.507042 0.0359045
0 0.525811 0.00817884
0 0.550439 0
0 0.571435 0
0 0.588785 0
4.57771e-05 0.605722 0
0.154726 0.628641 0
0.430671 0.654047 0
0.598367 0.676982 0
0.718364 0.693477 0
0.813642 0.705074 0
0.876905 0.71223 0
0.917357 0.71722 0
0.942382 0.720729 0
0.956298 0.724559 0
0.964126 0.728389 0.000183108
0.967498 0.731228 0.0485847
0.971313 0.735988 0.189715
0.97612 0.741009 0.291997
0.980499 0.747066 0.37789
0.984833 0.753567 0.447608
0.987076 0.760204 0.504372
0 0.560845 0.0319371
0 0.560601 0.0320134
0 0.560479 0.0320592
0 0.560357 0.0320897
0 0.560357 0.0320897
0 0.560235 0.0321355
0 0.560235 0.0321355
0 0.560113 0.032166
0 0.560113 0.0321813
0 0.559976 0.0322271
0 0.559853 0.0322728
0 0.559731 0.0323186
0 0.569207 0.015671
0 0.59089 0.000167849
0 0.612512 0
0 0.628885 0
0 0.640711 0
0.0122835 0.655344 0
0.289158 0.675669 0
0.510414 0.699321 0
0.658656 0.719905 0
0.769406 0.735958 0
0.852476 0.745266 0
0.906157 0.750973 0
0.938094 0.75552 0
0.95642 0.759396 0
0.966476 0.7635 0.000198367
0.971984 0.767544 0.0589151
0.976272 0.773404 0.19147
0.982055 0.780209 0.290135
0.986526 0.786511 0.370321
0.990051 0.791623 0.44094
0.992447 0.797543 0.501411
0 0.61738 0.0191501
0 0.617151 0.0191806
0 0.617029 0.0191958
0 0.617044 0.0191958
0 0.616922 0.0192264
0 0.616922 0.0192111
0 0.616922 0.0192111
0 0.6168 0.0192416
0 0.616815 0.0192264
0 0.616693 0.0192569
0 0.616693 0.0192416
0 0.616571 0.0192721
0 0.616464 0.0192721
0 0.624598 0.0093843
0 0.645563 0.00135805
0 0.660929 0
0 0.670787 0
0 0.678813 0
0.0835737 0.692561 0
0.398108 0.713008 0
0.575845 0.735897 0
0.710399 0.756573 4.57771e-05
0.812177 0.770733 0.000198367
0.884062 0.7785 0
0.927123 0.783688 0.00166323
0.950408 0.788815 0.00776684
0.963623 0.793378 0.0344549
0.97171 0.798016 0.119875
0.978134 0.804303 0.222782
0.984298 0.812085 0.307027
0.989609 0.819806 0.381292
0.993744 0.825849 0.444816
0.995941 0.830243 0.498512
0 0.66453 0.0289769
0 0.664454 0.0288548
0 0.664363 0.0287633
0 0.664378 0.028748
0 0.664271 0.028687
0 0.664286 0.0286564
0 0.664286 0.0286412
0 0.664286 0.0286412
0 0.664195 0.0285496
0 0.66421 0.0285191
0 0.664118 0.0284428
0 0.664118 0.0284123
0 0.664042 0.0283055
0 0.663951 0.0282292
0 0.670268 0.023331
0 0.684764 0.0146944
0 0.693141 0.0121462
0 0.698131 0.0146181
0.00509651 0.705882 0.0222934
0.249683 0.721614 0.035874
0.479286 0.743633 0.0508736
0.634928 0.767422 0.070222
0.755535 0.787671 0.0844434
0.846952 0.799985 0.082063
0.907179 0.806653 0.0834211
0.940612 0.812818 0.121248
0.956863 0.818586 0.176043
0.968536 0.824186 0.225635
0.976989 0.830777 0.282567
0.984939 0.838178 0.342336
0.991287 0.846906 0.404471
0.995453 0.853605 0.461509
0.997681 0.858167 0.510735
0 0.695323 0.0922408
0 0.695277 0.0920272
0 0.695232 0.0917983
0 0.695247 0.091722
0 0.695247 0.091722
0 0.695201 0.0914931
0 0.695201 0.0914931
0 0.695216 0.0914168
0 0.695216 0.0914168
0 0.695171 0.0911879
0 0.695171 0.0911879
0 0.695125 0.090959
0 0.695155 0.0908064
0 0.695109 0.0905776
0 0.695079 0.0902571
0 0.699062 0.0901808
0 0.706859 0.0957961
0 0.710735 0.11162
0 0.714565 0.13608
0.0500801 0.725536 0.165805
0.359625 0.745449 0.192599
0.540002 0.770306 0.218936
0.680797 0.795834 0.243046
0.791547 0.815793 0.259327
0.874128 0.827176 0.259709
0.923796 0.833371 0.267292
0.947662 0.840452 0.2934
0.961929 0.847288 0.321065
0.973449 0.853651 0.351995
0.983047 0.860945 0.391424
0.990555 0.869139 0.437049
0.995834 0.876509 0.48661
0.998474 0.881971 0.531304
0 0.711147 0.191546
0 0.711147 0.191287
0 0.711147 0.191287
0 0.711131 0.191104
0 0.711131 0.191104
0 0.711131 0.191104
0 0.711147 0.191043
0 0.711147 0.191043
0 0.711116 0.190921
0 0.711131 0.19086
0 0.711131 0.19086
0 0.711116 0.190661
0 0.711131 0.1906
0 0.711116 0.190417
0 0.711116 0.190158
0 0.71107 0.190021
0 0.712764 0.193927
0 0.715846 0.211139
0 0.718746 0.230762
0.000610361 0.726207 0.253498
0.190082 0.742184 0.277943
0.436606 0.76762 0.30193
0.592859 0.796414 0.326848
0.721035 0.823667 0.351293
0.822538 0.843397 0.368719
0.893767 0.853544 0.374044
0.934493 0.859892 0.381262
0.955367 0.866575 0.398123
0.969299 0.873762 0.420752
0.980774 0.880552 0.445777
0.989563 0.888197 0.47866
0.995132 0.896193 0.51783
0.998199 0.902693 0.558526
0 0.715038 0.273106
0 0.715038 0.272969
0 0.715053 0.272892
0 0.715023 0.272816
0 0.715023 0.272816
0 0.715038 0.27274
0 0.715038 0.27274
0 0.715038 0.27274
0 0.715038 0.27274
