work-blog-website-frontend/docs/7.视频剪辑/assets/LUT/赐福司影调_alogin_02_lut.cube
TITLE "Generated by Resolve"
LUT_3D_SIZE 9
0.000396735 0.0016022 0.00230411
0.141787 7.62951e-05 7.62951e-05
0.416831 0 0
0.490013 0 0
0.493294 0 0
0.493294 0 0
0.493294 0 0
0.493294 0 0
0.493294 0 0
0.000701915 0.0118715 0.00440986
0.000671397 0.00619516 0.00335698
0.106844 0.00369268 0.00077821
0.350988 0 0
0.477897 0 0
0.493294 0 0
0.493294 0 0
0.493294 0 0
0.493294 0 0
0 0.0940566 0.00395209
3.0518e-05 0.0581979 0.00953689
0.0320897 0.0504768 0.00469978
0.255344 0.00788891 0
0.466331 0 0
0.493294 0 0
0.493294 0 0
0.493294 0 0
0.493294 0 0
0 0.224582 0
0 0.212787 0
0 0.204227 6.10361e-05
0.0261387 0.210666 0
0.421912 0.256764 0
0.625757 0.12314 0
0.493294 0 0
0.493294 0 0
0.493294 0 0
0 0.284001 0
0 0.304143 0
0 0.307927 0
0 0.297276 0
0.235904 0.401221 0
0.639155 0.501518 0
0.818219 0.467384 0
0.493294 0 0
0.493294 0 0
0 0.292546 0
0 0.317281 0
0 0.332158 0
0 0.336996 0
0 0.335241 0
0.51635 0.537835 0
0.781491 0.597223 0
0.901213 0.60795 0
0.493294 0 0
0 0.299504 0
0 0.294774 0
0 0.300282 0
0 0.319677 0
0 0.346624 0
0.137667 0.466514 1.5259e-05
0.767193 0.691173 0.159747
0.895827 0.712291 0.0990005
0.944762 0.667887 0
0 0.34934 0
0 0.338094 0
0 0.333623 0
0 0.321263 0
0 0.311666 0
0 0.355459 0
0.506004 0.649943 0.255024
0.883833 0.832593 0.590555
0.958419 0.857496 0.59292
0 0.484779 0.563622
0 0.482536 0.550759
0 0.481468 0.544594
0 0.478508 0.528908
0 0.464286 0.464179
0 0.375433 0.117357
0.0153201 0.506233 0.182452
0.720073 0.773983 0.543389
0.952239 0.929656 0.813565
0 0.00138857 0.021088
0.0309758 0.00296025 0.0136721
0.194064 0 0.00537118
0.393713 0 0
0.482918 0 0
0.494484 0 0
0.494743 0 0
0.495232 0 0
0.497429 0 0
0.000213626 0.0128939 0.0129244
0.0135653 0.0134279 0.0152132
0.150896 0.00357061 0.00886549
0.379843 0 0
0.473854 0 0
0.493294 0 0
0.49398 0 0
0.494865 0 0
0.496635 0 0
0.000167849 0.0506447 0.00910964
0.000122072 0.0531624 0.00926223
0.0607156 0.0651255 0.0183719
0.311498 0.0330053 0.000106813
0.525689 0.000274662 0
0.49366 0 0
0.4934 0 0
0.494697 0 0
0.496284 0 0
0 0.128313 0.00131228
0 0.167941 0.000381476
0 0.169253 0.000366217
0.172061 0.219043 6.10361e-05
0.537102 0.272221 0
0.685969 0.188586 0
0.493294 0 0
0.494194 0 0
0.495537 0 0
0 0.208179 1.5259e-05
0 0.263584 0
0 0.28423 0
0 0.27303 0
0.384863 0.430121 0
0.739757 0.49691 0
0.849577 0.472145 0
0.495171 0 0
0.494606 0 0
0 0.259815 0
0 0.291432 0
0 0.307836 0
0 0.320012 0
0.000381476 0.350683 0
0.634714 0.599924 0.0282444
0.8495 0.637797 0.011902
0.927932 0.630945 1.5259e-05
0.524254 0 0
0 0.294087 0
0 0.289448 0
0 0.295293 0
0 0.316472 0
0 0.342199 0
0.133837 0.484474 0.00190738
0.782864 0.722179 0.330495
0.908598 0.756481 0.326711
0.962417 0.745312 0.220035
0 0.351904 6.10361e-05
0 0.340169 0
0 0.334173 0
0 0.319844 0
0 0.311452 0
0 0.372274 4.57771e-05
0.512917 0.658549 0.293812
0.888472 0.842969 0.623438
0.962341 0.871092 0.63389
0 0.485466 0.567605
0 0.483406 0.555749
0 0.482338 0.549569
0 0.480018 0.536294
0 0.466438 0.473671
0 0.377432 0.142824
0.0222629 0.51693 0.207004
0.72256 0.77673 0.55079
0.953002 0.93164 0.820081
0 0.000213626 0.147402
0.0248264 0.002533 0.0534218
0.111604 0.000366217 0.0529183
0.295842 0 0.0457313
0.447471 0 0.000839246
0.498146 0 0
0.501305 0 0
0.501961 0 0.0155032
0.504311 0 0.149783
0 0.0273136 0.0646525
0.00393683 0.026627 0.0724804
0.0755169 0.0180972 0.0523079
0.26804 1.5259e-05 0.0468299
0.428107 0 0.00709544
0.490623 0 0
0.499901 0 0
0.50132 0 0.000457771
0.503807 0 0.107027
0 0.0491035 0.0428473
0.000198367 0.0559854 0.0556039
0.0707713 0.0724956 0.0672923
0.338079 0.0333715 0.064271
0.538674 0.000411994 0.0312657
0.504311 0 9.15541e-05
0.498558 0 0
0.500771 0 0
0.503578 0 0.0883497
0 0.100267 0.00294499
0 0.131136 0.00122072
0 0.151431 0.00225834
0.20238 0.217121 0.0598764
0.562631 0.258793 0.0261692
0.70074 0.176562 0.0334325
0.51194 0 3.0518e-05
0.499519 0 0
0.503105 0 0.0480507
0 0.181567 0.000259403
0 0.237659 0
0 0.266072 0
0 0.266041 0
0.419181 0.435966 0.0464485
0.754482 0.49456 0.0195163
0.84741 0.475578 0.0198672
0.522637 0 3.0518e-05
0.501579 0 0.00666819
0 0.251286 0
0 0.284825 0
0 0.301045 0
0 0.316564 0
0.00125124 0.358175 0
0.64831 0.615412 0.118776
0.85568 0.655436 0.11078
0.927474 0.655421 0.0796368
0.570642 0 0
0 0.292287 0
0 0.287816 0
0 0.293996 0
0 0.315663 0
0 0.340551 0
0.137636 0.492195 0.0159457
0.788602 0.731701 0.385199
0.912963 0.770077 0.394965
0.96669 0.76759 0.322271
0 0.353033 9.15541e-05
0 0.341085 1.5259e-05
0 0.334844 0
0 0.319509 0
0 0.311452 0
0 0.379095 7.62951e-05
0.515816 0.66186 0.307607
0.890089 0.84683 0.636118
0.963912 0.87631 0.649714
0 0.485771 0.569299
0 0.483772 0.55787
0 0.482689 0.551598
0 0.4804 0.538415
0 0.467353 0.477714
0 0.378302 0.153475
0.0290074 0.52163 0.21735
0.723445 0.77792 0.554147
0.953414 0.932433 0.822522
0 0 0.257053
0.00347906 0 0.195026
0.098436 0 0.160006
0.194385 0 0.145892
0.377569 0 0.168643
0.477653 0 0.184451
0.507317 0 0.231113
0.511681 0 0.301534
0.519463 0 0.391775
0 0.063447 0.189044
0 0.0668193 0.212528
0.0700389 0.0438544 0.193149
0.20708 0.00221256 0.1617
0.390753 0 0.169207
0.462242 0 0.119921
0.503349 0 0.184649
0.510018 0 0.276112
0.518212 0 0.381826
0 0.0836957 0.146624
0 0.111025 0.18761
0.0384833 0.135393 0.2177
0.24152 0.0903182 0.193301
0.499184 0.0166781 0.230686
0.531991 0 0.202823
0.499657 0 0.133013
0.509255 0 0.263264
0.517754 0 0.378286
0 0.108095 0.103456
0 0.157626 0.164508
0.00494392 0.204746 0.201419
0.227909 0.227741 0.209537
0.581827 0.272374 0.26067
0.700282 0.197009 0.287282
0.568231 0 0.23267
0.50753 0 0.234638
0.51667 0 0.36968
0 0.164065 0.00593576
0 0.225315 0.000640879
0 0.258045 0.00309758
0 0.287007 0.00325017
0.459083 0.446113 0.246464
0.760983 0.50454 0.256291
0.842344 0.497185 0.308721
0.590524 0 0.266255
0.51339 0 0.326757
0 0.240208 0
0 0.277272 0
0 0.294942 0
0 0.313497 0
0.000640879 0.37116 3.0518e-05
0.666331 0.634928 0.285817
0.859922 0.678065 0.312016
0.926467 0.689219 0.337896
0.643565 0.0264439 0.299275
0 0.289189 0
0 0.284703 0
0 0.292195 0
0 0.31458 0
0 0.339147 0
0.141253 0.505837 0.0341039
0.798398 0.747494 0.451102
0.919829 0.791257 0.475853
0.973068 0.800534 0.454932
0 0.357321 0.010071
0 0.342992 7.62951e-05
0 0.3364 3.0518e-05
0 0.321065 0
0 0.311498 0
0 0.394781 0.00955215
0.521263 0.668269 0.329427
0.893111 0.853941 0.659434
0.966751 0.885908 0.678904
0 0.486351 0.572625
0 0.484382 0.56141
0 0.483421 0.55584
0 0.481117 0.542565
0 0.469154 0.485634
0 0.380255 0.167224
0.0408942 0.531228 0.238895
0.725277 0.780224 0.56051
0.95407 0.934066 0.827878
0 0.000350958 0.305562
0.00288396 0 0.292256
0.0828717 0 0.270176
0.184329 0 0.247944
0.29543 0 0.229099
0.429969 0 0.254627
0.49926 0 0.312459
0.518685 0 0.38558
0.555398 0 0.471
0 0.122087 0.285145
0 0.176883 0.364263
0.057908 0.186664 0.396292
0.279088 0.123919 0.364675
0.441444 0.0330968 0.338643
0.526833 0 0.332204
0.483467 0 0.262608
0.51632 0 0.365133
0.552895 0 0.46772
0 0.139162 0.265293
0 0.215396 0.357443
0.029572 0.243137 0.393545
0.277623 0.22504 0.391211
0.470695 0.142107 0.362127
0.600687 0.0364691 0.385519
0.48307 0 0.261967
0.515373 0 0.35288
0.549508 0 0.463294
0 0.162661 0.244465
0 0.254292 0.346334
0.000701915 0.300847 0.38497
0.233631 0.332372 0.412314
0.501411 0.29102 0.388296
0.679881 0.266087 0.431495
0.656535 0.0409705 0.425025
0.513268 0 0.324788
0.542702 0 0.453452
0 0.19675 0.211566
0 0.27396 0.304036
0 0.358633 0.36437
0.0830701 0.423911 0.393668
0.508888 0.463432 0.412207
0.764828 0.523659 0.472755
0.828687 0.514397 0.511177
0.689113 0.114992 0.466728
0.525811 0 0.423011
0 0.237415 0.00683604
0 0.288472 0.0516823
0 0.317021 0.122545
0 0.357885 0.17026
0.0154116 0.445533 0.127749
0.695155 0.652903 0.466697
0.865995 0.707149 0.514015
0.92398 0.726757 0.563119
0.724849 0.230228 0.511421
0 0.284413 0
0 0.282643 0
0 0.294301 0
0 0.322942 0.00205997
0 0.371252 0.0610056
0.152682 0.53817 0.144015
0.814206 0.773419 0.560113
0.928847 0.822309 0.602975
0.978256 0.843717 0.626322
0 0.372015 0.130724
0 0.351614 0.0354467
0 0.342275 0.0134432
0 0.324483 0
0 0.317586 0
9.15541e-05 0.438834 0.13196
0.536233 0.682582 0.378927
0.899046 0.866926 0.704326
0.971633 0.901884 0.732998
0 0.487587 0.578851
0 0.485801 0.569528
0 0.484932 0.564508
0 0.482887 0.552789
0 0.473152 0.503777
0 0.384649 0.197864
0.0674907 0.55491 0.288594
0.730266 0.786206 0.576745
0.955932 0.938308 0.841459
0 0.193912 0.399954
0.022797 0.291356 0.529778
0.185519 0.291524 0.549172
0.372137 0.24831 0.539696
0.502724 0.151965 0.506676
0.568002 0.027985 0.467582
0.466712 0 0.33521
0.519478 0 0.403784
0.555398 0 0.471
0 0.231022 0.398947
0.00268559 0.360967 0.532174
0.074876 0.381048 0.558816
0.350362 0.390692 0.582681
0.53579 0.329839 0.552804
0.631144 0.235645 0.520943
0.641032 0.0337072 0.50396
0.510231 0 0.381048
0.555398 0 0.471
0 0.244022 0.398093
0.000976577 0.378271 0.529107
0.0483101 0.403235 0.556771
0.319326 0.424231 0.587106
0.544274 0.37792 0.566094
0.648951 0.299382 0.535317
0.679301 0.134844 0.534112
0.504417 0 0.368627
0.555398 0 0.471
0 0.263264 0.394507
0 0.402319 0.522713
0.0127871 0.435279 0.551537
0.243 0.467414 0.58378
0.553903 0.454505 0.585779
0.6757 0.392157 0.555932
0.733364 0.320607 0.574029
0.493736 0 0.338323
0.553475 0 0.468482
0 0.287175 0.37847
0 0.425086 0.505882
0.000579843 0.471946 0.537499
0.0918135 0.523796 0.572305
0.548119 0.566232 0.604669
0.7075 0.532845 0.581552
0.805249 0.536889 0.62089
0.777356 0.387671 0.617594
0.534859 0 0.439582
0 0.298405 0.332815
0 0.385519 0.43743
0 0.453498 0.494347
0.00282292 0.54995 0.544488
0.430274 0.636057 0.58436
0.720836 0.668849 0.603037
0.870741 0.732326 0.672236
0.912215 0.743389 0.710582
0.806149 0.457893 0.658213
0 0.293965 0.147356
0 0.314168 0.18613
0 0.334676 0.226581
0 0.395499 0.338384
4.57771e-05 0.51902 0.404242
0.355581 0.640635 0.408057
0.835096 0.802014 0.6822
0.936263 0.852842 0.739193
0.980407 0.880446 0.783444
0 0.404471 0.302846
0 0.376013 0.234623
0 0.360616 0.196429
0 0.339757 0.13463
0 0.349599 0.159808
0.00726329 0.540108 0.356451
0.573144 0.708721 0.459739
0.909773 0.886458 0.773587
0.977188 0.922957 0.811749
0 0.489479 0.585489
0 0.488182 0.580957
0 0.487602 0.578912
0 0.485954 0.570336
0 0.480049 0.536477
0 0.389639 0.245167
0.133486 0.606439 0.39173
0.741176 0.799313 0.611933
0.960143 0.946929 0.868803
0.000686656 0.505104 0.62623
0.219562 0.555261 0.673442
0.336568 0.567575 0.686107
0.482841 0.579538 0.701549
0.630671 0.570626 0.707195
0.713558 0.517815 0.681956
0.753674 0.44744 0.66128
0.707561 0.198047 0.615854
0.55465 0 0.470008
0.000411994 0.513466 0.621836
0.172198 0.570703 0.671305
0.296635 0.58526 0.684749
0.453941 0.600778 0.701457
0.631998 0.607752 0.716213
0.722622 0.560067 0.692561
0.770169 0.503166 0.674739
0.756619 0.356985 0.658656
0.54641 0 0.459236
0.000335698 0.515541 0.619715
0.151598 0.576089 0.670207
0.278248 0.591455 0.683909
0.442405 0.608652 0.70135
0.631128 0.621454 0.719371
0.725902 0.575875 0.696406
0.776059 0.523476 0.679667
0.772061 0.403708 0.671595
0.543053 0 0.454078
0.000228885 0.515175 0.613336
0.113329 0.581399 0.665858
0.241703 0.59791 0.679652
0.418738 0.619257 0.698787
0.62356 0.639673 0.720394
0.73167 0.605692 0.703868
0.785962 0.558923 0.688457
0.796674 0.476036 0.690455
0.536507 0 0.442527
0 0.508583 0.596246
0.0540169 0.589624 0.654597
0.156542 0.609537 0.669444
0.361212 0.63769 0.691142
0.597711 0.668528 0.717678
0.743358 0.665461 0.720867
0.805554 0.631601 0.705699
0.83859 0.600229 0.721614
0.505745 0 0.386847
0 0.444373 0.536461
0.000915541 0.576654 0.627863
0.038468 0.607736 0.647761
0.214755 0.650309 0.675135
0.542321 0.70251 0.710323
0.748714 0.742229 0.743069
0.833707 0.733761 0.738048
0.896223 0.75552 0.774609
0.873732 0.654093 0.756207
0 0.38909 0.443748
0 0.433478 0.511315
0 0.45893 0.542977
0.000793469 0.586145 0.624842
0.356374 0.703182 0.691005
0.707088 0.781888 0.742382
0.856519 0.824674 0.777295
0.942046 0.873533 0.833951
0.975326 0.894072 0.870146
0 0.416938 0.412604
0 0.3879 0.355779
0 0.375525 0.334432
0 0.353765 0.301122
0 0.448463 0.481971
0.247379 0.684779 0.600778
0.690944 0.780056 0.634516
0.923873 0.905257 0.842939
0.980987 0.94078 0.885161
0 0.491417 0.592004
0 0.490517 0.58909
0 0.490028 0.587411
0 0.48893 0.583551
0 0.484596 0.562585
0 0.38819 0.297002
0.317708 0.690791 0.547036
0.762615 0.822019 0.669566
0.966644 0.957504 0.903426
0.510216 0.714366 0.757916
0.574929 0.728038 0.770382
0.599405 0.733135 0.775067
0.645533 0.742565 0.783703
0.715328 0.758709 0.800534
0.797681 0.770153 0.81532
0.843229 0.748043 0.801968
0.866423 0.712581 0.789548
0.84567 0.594263 0.757916
0.497856 0.715541 0.756771
0.56762 0.730007 0.769726
0.592248 0.735286 0.774487
0.639216 0.745205 0.783383
0.711955 0.762325 0.800626
0.799176 0.778058 0.819013
0.846006 0.757519 0.806363
0.871015 0.726085 0.794842
0.856886 0.627497 0.767865
0.492332 0.715877 0.756191
0.563973 0.730846 0.769192
0.589197 0.736141 0.77406
0.636225 0.746212 0.783139
0.710552 0.763836 0.800641
0.799969 0.78146 0.820722
0.847089 0.761318 0.808148
0.872953 0.731929 0.79707
0.861295 0.64062 0.771832
0.480552 0.716548 0.754833
0.557122 0.732189 0.768154
0.583047 0.737987 0.773327
0.630289 0.748379 0.782528
0.707744 0.767056 0.800748
0.801022 0.788052 0.823728
0.849409 0.768948 0.811963
0.876753 0.743145 0.801434
0.871031 0.665583 0.782635
0.450477 0.717922 0.751141
0.538888 0.735302 0.765362
0.565667 0.741482 0.770779
0.615091 0.752865 0.780697
0.69955 0.773983 0.800504
0.799283 0.799542 0.827008
0.855039 0.787945 0.821439
0.8851 0.767437 0.812207
0.892073 0.719158 0.805936
0.371374 0.712749 0.740749
0.483467 0.734615 0.75697
0.521965 0.742626 0.763165
0.575692 0.756588 0.774685
0.678416 0.783841 0.797803
0.791409 0.817929 0.830045
0.866819 0.827771 0.841505
0.901457 0.813504 0.835065
0.927916 0.806668 0.847272
0.0868391 0.668727 0.704067
0.28716 0.708003 0.730282
0.34992 0.721172 0.73962
0.454902 0.74345 0.755657
0.612741 0.783597 0.78703
0.768795 0.832929 0.829572
0.874159 0.869017 0.863035
0.921233 0.872129 0.865538
0.964492 0.89601 0.895842
0 0.424048 0.496712
0 0.449729 0.538659
0 0.461204 0.557488
0 0.5355 0.617258
0.251286 0.710613 0.728222
0.687495 0.824521 0.812024
0.856474 0.889509 0.866911
0.9346 0.919234 0.893553
0.984405 0.953079 0.932219
0 0.491768 0.592813
0 0.491127 0.591226
0 0.490623 0.589502
0 0.48957 0.585809
0 0.478187 0.561639
0 0.466224 0.533074
0.623545 0.799619 0.740398
0.830457 0.879774 0.796262
0.975311 0.96875 0.938933
0.775998 0.852216 0.868147
0.78648 0.85597 0.871946
0.791074 0.857572 0.873549
0.799954 0.860853 0.876814
0.820859 0.868269 0.884337
0.861402 0.882872 0.899168
0.906493 0.89604 0.91339
0.92929 0.8869 0.906645
0.946975 0.87541 0.900328
0.77496 0.852628 0.868055
0.785458 0.856397 0.871885
0.790066 0.858015 0.873503
0.798947 0.861311 0.876768
0.819898 0.868772 0.884321
0.860868 0.883589 0.899275
0.90692 0.897719 0.914427
0.929885 0.888685 0.907713
0.947723 0.877531 0.901625
0.774426 0.852735 0.867964
0.784924 0.856504 0.871794
0.789578 0.85832 0.873518
0.798428 0.861433 0.876692
0.81976 0.869245 0.884504
0.860792 0.88394 0.899382
0.90721 0.898466 0.914916
0.930205 0.889479 0.908232
0.947982 0.878294 0.902052
0.773388 0.853132 0.867887
0.784237 0.857069 0.871855
0.78851 0.858564 0.87335
0.797421 0.861891 0.876646
0.818723 0.869535 0.884367
0.860471 0.884749 0.899657
0.907546 0.89987 0.915724
0.930694 0.891005 0.909224
0.948821 0.880446 0.90338
0.770092 0.853773 0.86743
0.781308 0.857862 0.871473
0.785992 0.859709 0.873228
0.794858 0.862882 0.876448
0.816587 0.870771 0.884306
0.859541 0.886595 0.900145
0.908354 0.903593 0.917967
0.932204 0.895369 0.911894
0.950561 0.885176 0.906142
0.759182 0.853178 0.864866
0.773739 0.858686 0.870008
0.778424 0.860578 0.87187
0.787762 0.864149 0.875303
0.810422 0.872892 0.883772
0.856291 0.890593 0.900999
0.908003 0.910292 0.921035
0.935653 0.905837 0.91841
0.955062 0.897322 0.913451
0.728359 0.846738 0.856031
0.745052 0.853178 0.861921
0.752087 0.855955 0.864469
0.76611 0.861387 0.869505
0.793423 0.872206 0.879667
0.843122 0.891798 0.898344
0.902022 0.915557 0.921569
0.942565 0.926726 0.931746
0.964187 0.921904 0.928435
0.613321 0.813138 0.822324
0.651118 0.825696 0.832853
0.665934 0.830625 0.837064
0.68716 0.839292 0.844877
0.734813 0.858625 0.862409
0.81059 0.889555 0.890745
0.888869 0.922011 0.921141
0.946212 0.946502 0.944442
0.973632 0.950835 0.947295
0 0.437324 0.518334
0 0.44094 0.52433
0 0.449393 0.538216
0 0.467613 0.565377
0 0.628077 0.686336
0.625727 0.823255 0.827726
0.843183 0.914717 0.908217
0.936934 0.957382 0.947402
0.981338 0.977707 0.966491
