work-blog-website-frontend/docs/7.视频剪辑/assets/LUT/青青风格化_applelog_02_lut.cube
TITLE "Generated by Resolve"
LUT_3D_SIZE 33
0.0356146 0.0378882 0.0512093
0.0356146 0.0378882 0.0512093
0.0366369 0.03888 0.0521706
0.0495308 0.0399786 0.0532082
0.0693828 0.0410468 0.0509499
0.090959 0.0424506 0.0482185
0.117357 0.0425574 0.0440833
0.152682 0.0410163 0.0370336
0.196063 0.0386511 0.0278935
0.248798 0.0350805 0.0160067
0.315236 0.0304112 0.000823987
0.386313 0.0268254 0
0.451637 0.0264744 0
0.512215 0.029221 0
0.569253 0.0344854 0
0.621744 0.0407721 0
0.653422 0.0455024 0
0.65539 0.0458228 0
0.65539 0.0458228 0
0.65539 0.0458228 0
0.65539 0.0458228 0
0.65539 0.0458228 0
0.655375 0.0458228 0
0.655375 0.0458228 0
0.65539 0.0458228 0
0.655375 0.0458228 0
0.655375 0.0458228 0
0.65539 0.0458228 0
0.65539 0.0458381 0
0.65539 0.0458228 0
0.65539 0.0458228 0
0.655375 0.0458076 0
0.65536 0.0458076 0
0.0356298 0.0378882 0.0512245
0.0356146 0.0378882 0.0512245
0.0356146 0.0378882 0.0512245
0.044419 0.0400854 0.0532845
0.063798 0.0405432 0.0520027
0.0851759 0.0421759 0.0489204
0.110307 0.0427558 0.0454108
0.144411 0.041474 0.0387732
0.186252 0.0391394 0.0299229
0.236332 0.0360113 0.0189212
0.300099 0.0313115 0.00410468
0.372229 0.0272221 0
0.439231 0.0263218 0
0.500786 0.0284276 0
0.558526 0.0333562 0
0.612161 0.0394446 0
0.652552 0.0453498 0
0.655406 0.0458381 0
0.65539 0.0458381 0
0.655406 0.0458381 0
0.655406 0.0458381 0
0.65539 0.0458381 0
0.65539 0.0458381 0
0.65539 0.0458381 0
0.65539 0.0458381 0
0.65539 0.0458381 0
0.65539 0.0458381 0
0.65539 0.0458381 0
0.655406 0.0458381 0
0.65539 0.0458381 0
0.65539 0.0458381 0
0.655375 0.0458228 0
0.655375 0.0458228 0
0.0356298 0.0378882 0.0512245
0.0356146 0.0378882 0.0512245
0.0356146 0.0378882 0.0512093
0.039826 0.0397498 0.0529793
0.0578927 0.0402838 0.0532235
0.0793469 0.0418708 0.0496681
0.103288 0.0427405 0.0464942
0.135424 0.0420081 0.0407111
0.176165 0.0397955 0.0321508
0.224918 0.03682 0.0215305
0.28574 0.032166 0.00721752
0.357931 0.027863 0
0.426505 0.0261234 0
0.489067 0.027924 0
0.547326 0.0320897 0
0.60235 0.038407 0
0.651698 0.0452125 0
0.655406 0.0458381 0
0.655406 0.0458381 0
0.65539 0.0458381 0
0.655406 0.0458381 0
0.655406 0.0458534 0
0.65539 0.0458381 0
0.65539 0.0458381 0
0.655406 0.0458534 0
0.655406 0.0458381 0
0.655406 0.0458381 0
0.655406 0.0458534 0
0.655406 0.0458534 0
0.65539 0.0458381 0
0.65539 0.0458228 0
0.65539 0.0458228 0
0.655375 0.0458228 0
0.0399023 0.0420844 0.0552071
0.0395056 0.0417029 0.0548562
0.0390173 0.0412146 0.0543832
0.0388647 0.041062 0.0542458
0.0505989 0.0419471 0.0538796
0.072343 0.042298 0.0505684
0.0962387 0.0428779 0.0475166
0.126177 0.0422522 0.0423896
0.166171 0.0404059 0.0343328
0.213535 0.0375067 0.0240177
0.272816 0.0333257 0.0104524
0.343557 0.0286717 0
0.413962 0.0262455 0
0.477562 0.0273747 0
0.536812 0.0311742 0
0.592721 0.0371405 0
0.6448 0.0442054 0
0.65539 0.0458381 0
0.65539 0.0458381 0
0.655406 0.0458381 0
0.655406 0.0458381 0
0.655406 0.0458381 0
0.655406 0.0458534 0
0.65539 0.0458381 0
0.65539 0.0458381 0
0.65539 0.0458381 0
0.655406 0.0458381 0
0.655406 0.0458381 0
0.655406 0.0458381 0
0.655406 0.0458534 0
0.65539 0.0458381 0
0.65539 0.0458381 0
0.65539 0.0458228 0
0.0404822 0.0507668 0.0555581
0.0404669 0.049836 0.0555581
0.0405432 0.0490272 0.0556649
0.040589 0.0479744 0.0556954
0.0452583 0.0475166 0.0574655
0.062501 0.0473487 0.0533455
0.0864271 0.0461585 0.0493477
0.115496 0.0431525 0.0444343
0.153918 0.0409705 0.0368048
0.200549 0.0382849 0.0268254
0.257511 0.0342718 0.0137942
0.32755 0.0294194 0
0.39968 0.0263981 0
0.465782 0.0270695 0
0.526146 0.0301823 0
0.583062 0.0360723 0
0.635767 0.04271 0
0.654826 0.0457465 0
0.65539 0.0458381 0
0.655406 0.0458534 0
0.65539 0.0458381 0
0.655406 0.0458534 0
0.655406 0.0458381 0
0.655406 0.0458381 0
0.655406 0.0458381 0
0.655406 0.0458381 0
0.655406 0.0458381 0
0.655406 0.0458381 0
0.655406 0.0458381 0
0.655406 0.0458381 0
0.655406 0.0458381 0
0.65539 0.0458381 0
0.65539 0.0458381 0
0.0399176 0.0626078 0.0547341
0.0400397 0.0615396 0.0548562
0.0400702 0.0603799 0.0549172
0.0401312 0.0592203 0.0550088
0.0414588 0.0571298 0.055436
0.0538338 0.0561685 0.0573281
0.0751049 0.0558328 0.0523995
0.102937 0.0529793 0.0472877
0.140597 0.0471809 0.0395819
0.186572 0.0397803 0.0298619
0.241413 0.0357061 0.0178073
0.310369 0.0307012 0.00189212
0.384298 0.0269474 0
0.452201 0.0265202 0
0.514702 0.0294347 0
0.572488 0.0348363 0
0.626123 0.0414588 0
0.653727 0.0455482 0
0.655406 0.0458381 0
0.655406 0.0458381 0
0.655406 0.0458381 0
0.655406 0.0458381 0
0.655406 0.0458381 0
0.655406 0.0458381 0
0.65539 0.0458381 0
0.655406 0.0458381 0
0.65539 0.0458381 0
0.65539 0.0458381 0
0.655406 0.0458381 0
0.655406 0.0458381 0
0.65539 0.0458381 0
0.65539 0.0458381 0
0.65539 0.0458381 0
0.0383154 0.0764782 0.0528572
0.0383001 0.0753948 0.0528725
0.0386969 0.0741131 0.0532692
0.0388342 0.072755 0.0534371
0.0391394 0.0711528 0.0537728
0.0455329 0.0687419 0.0551156
0.0677958 0.066453 0.0576791
0.0913405 0.0656443 0.0526131
0.125551 0.0612039 0.0432746
0.170581 0.0527047 0.0323339
0.22536 0.0415198 0.0209812
0.291035 0.0318914 0.00610361
0.367636 0.0275578 0
0.437491 0.0262455 0
0.501152 0.0284581 0
0.5608 0.0336614 0
0.615442 0.0399634 0
0.651926 0.045243 0
0.65539 0.0458381 0
0.65539 0.0458381 0
0.65539 0.0458381 0
0.65539 0.0458381 0
0.65539 0.0458228 0
0.65539 0.0458381 0
0.65539 0.0458381 0
0.65539 0.0458228 0
0.65539 0.0458381 0
0.65539 0.0458381 0
0.65539 0.0458228 0
0.65539 0.0458381 0
0.65539 0.0458381 0
0.65539 0.0458381 0
0.65539 0.0458381 0
0.0350195 0.0929122 0.0493324
0.0353704 0.0916915 0.0496834
0.0357061 0.0903792 0.0500343
0.0359045 0.0890516 0.050248
0.0363165 0.0875563 0.0506752
0.0369116 0.0852979 0.0511635
0.0506752 0.0825666 0.0532082
0.0841382 0.0790875 0.0585489
0.112871 0.0774853 0.0528878
0.155642 0.0712902 0.0385901
0.209537 0.0604105 0.0242618
0.273091 0.0449989 0.00769055
0.348653 0.0309453 0
0.420447 0.0261845 0
0.485817 0.0276951 0
0.546151 0.0319677 0
0.603418 0.0385748 0
0.649104 0.0447242 0
0.655406 0.0458381 0
0.655406 0.0458534 0
0.655406 0.0458381 0
0.655406 0.0458381 0
0.655406 0.0458381 0
0.655406 0.0458381 0
0.655406 0.0458381 0
0.655406 0.0458381 0
0.655406 0.0458534 0
0.655406 0.0458534 0
0.655406 0.0458534 0
0.655406 0.0458534 0
0.655406 0.0458534 0
0.655406 0.0458381 0
0.65539 0.0458381 0
0.0281224 0.113832 0.0422522
0.0285954 0.112535 0.0427405
0.0292973 0.111131 0.0434424
0.0297856 0.109712 0.043946
0.0300755 0.108278 0.0442512
0.0309148 0.105943 0.0451057
0.0336919 0.102983 0.0460975
0.0573587 0.100328 0.0491646
0.103609 0.0957656 0.0576791
0.143923 0.0936294 0.0508125
0.196323 0.0872663 0.035111
0.260578 0.075227 0.0166934
0.333013 0.0551461 0
0.404593 0.0358129 0
0.468727 0.0276951 0
0.53048 0.030457 0
0.588571 0.0366979 0
0.641978 0.0437018 0
0.655406 0.0458534 0
0.655406 0.0458534 0
0.655406 0.0458534 0
0.655406 0.0458534 0
0.655406 0.0458534 0
0.655406 0.0458534 0
0.655406 0.0458534 0
0.655406 0.0458381 0
0.655406 0.0458534 0
0.655406 0.0458381 0
0.655406 0.0458381 0
0.655406 0.0458381 0
0.655406 0.0458381 0
0.65539 0.0458381 0
0.65539 0.0458381 0
0.0173342 0.143587 0.031342
0.0177615 0.141787 0.0317845
0.0183871 0.139818 0.0324254
0.0192111 0.138109 0.0332341
0.0197757 0.13608 0.033814
0.020737 0.133242 0.0347906
0.0220951 0.1299 0.0361639
0.0265965 0.12578 0.0378424
0.065156 0.124819 0.0412451
0.133394 0.119829 0.0553597
0.186603 0.119417 0.0514687
0.251743 0.11516 0.0373999
0.328099 0.104738 0.0173953
0.402502 0.0827802 0
0.461357 0.0545968 0
0.516396 0.0356603 0
0.572335 0.0348058 0
0.626612 0.0415351 0
0.653559 0.0455329 0
0.65539 0.0458381 0
0.655406 0.0458381 0
0.655406 0.0458381 0
0.655406 0.0458534 0
0.655406 0.0458381 0
0.655406 0.0458534 0
0.655406 0.0458534 0
0.655406 0.0458534 0
0.655406 0.0458381 0
0.655406 0.0458381 0
0.655406 0.0458381 0
0.655406 0.0458534 0
0.65539 0.0458381 0
0.65539 0.0458381 0
0.00970474 0.189273 0.0232853
0.00959792 0.186969 0.023209
0.0100099 0.184329 0.0236362
0.0101015 0.181476 0.0237736
0.0101778 0.178668 0.0238804
0.0106966 0.175326 0.0244144
0.0111238 0.171023 0.024918
0.0121004 0.165988 0.0259251
0.0164492 0.160479 0.0274052
0.0835431 0.164477 0.0362097
0.180011 0.161044 0.0602579
0.250828 0.164034 0.0637522
0.329168 0.163897 0.051606
0.412833 0.156466 0.0341955
0.481926 0.137881 0.0167697
0.535225 0.106126 0
0.574563 0.070161 0
0.615305 0.0478065 0
0.65005 0.0471504 0
0.655406 0.0458534 0
0.655406 0.0458381 0
0.655406 0.0458381 0
0.65539 0.0458381 0
0.65539 0.0458381 0
0.655406 0.0458534 0
0.65539 0.0458381 0
0.655406 0.0458534 0
0.655406 0.0458381 0
0.655406 0.0458534 0
0.655406 0.0458381 0
0.655406 0.0458381 0
0.655406 0.0458534 0
0.65539 0.0458381 0
0.0124361 0.257969 0.0252384
0.0118868 0.254444 0.0247349
0.0116579 0.25069 0.0245518
0.0111543 0.247059 0.024094
0.0109865 0.243351 0.0239567
0.0107271 0.239231 0.023743
0.0101778 0.233646 0.02327
0.00972 0.226505 0.0228885
0.00924697 0.218082 0.0225071
0.0140078 0.210758 0.0232853
0.126101 0.225071 0.0432288
0.250797 0.225559 0.0797284
0.343191 0.232288 0.0924239
0.430198 0.23714 0.082414
0.510979 0.232761 0.0725109
0.573999 0.22005 0.0565042
0.625376 0.196796 0.0390936
0.667781 0.165454 0.0225528
0.689067 0.122347 0.000381476
0.670863 0.0734569 0
0.656062 0.0468147 0
0.65539 0.0458381 0
0.655406 0.0458381 0
0.655406 0.0458381 0
0.655406 0.0458534 0
0.655406 0.0458534 0
0.655406 0.0458381 0
0.655406 0.0458534 0
0.655406 0.0458381 0
0.655406 0.0458534 0
0.655406 0.0458534 0
0.655406 0.0458381 0
0.655406 0.0458534 0
0.0298009 0.354452 0.0415808
0.028397 0.349889 0.040238
0.0271 0.344701 0.0390021
0.0267185 0.340871 0.0386511
0.0256046 0.336416 0.037583
0.024506 0.330938 0.0365454
0.0232242 0.324086 0.0353399
0.0213931 0.315236 0.0335851
0.0194095 0.304845 0.0317235
0.017792 0.293873 0.0302129
0.0340887 0.289067 0.0331121
0.19379 0.312154 0.0657359
0.346868 0.315145 0.114275
0.459434 0.323095 0.13576
0.541268 0.330419 0.128496
0.615717 0.328695 0.12221
0.676493 0.318929 0.111772
0.725109 0.3037 0.0965744
0.764904 0.282368 0.0793164
0.77818 0.251789 0.0618143
0.754055 0.207965 0.0408484
0.7299 0.164401 0.0207675
0.703563 0.121798 0
0.682658 0.0902419 0
0.668559 0.0657664 0
0.658457 0.0506294 0
0.656672 0.0479133 0
0.656626 0.0478065 0
0.65655 0.0476844 0
0.656474 0.0475776 0
0.656413 0.0474556 0
0.656336 0.0473487 0
0.656291 0.0472419 0
0.0556954 0.46511 0.0662852
0.0545968 0.460761 0.0652323
0.0535592 0.456321 0.0642405
0.0525826 0.452674 0.0633097
0.0516518 0.448051 0.0624247
0.0500801 0.442618 0.060914
0.0488136 0.436133 0.0597086
0.04654 0.427497 0.0575418
0.0441749 0.417655 0.0552834
0.0415198 0.406592 0.0527504
0.0385443 0.393591 0.049897
0.0751507 0.394781 0.0582742
0.282719 0.419959 0.099443
0.463157 0.424094 0.158465
0.586175 0.431922 0.188159
0.661601 0.440024 0.186786
0.725048 0.440009 0.1794
0.781659 0.433158 0.172091
0.83032 0.421317 0.162966
0.86978 0.406668 0.150057
0.856687 0.379156 0.133623
0.83653 0.348165 0.115068
0.817029 0.317388 0.0969558
0.798138 0.286488 0.0796826
0.780484 0.256413 0.0640116
0.763775 0.227222 0.049424
0.755199 0.211429 0.0420691
0.749462 0.201358 0.0372931
0.744076 0.19173 0.0328527
0.738857 0.182269 0.028397
0.733486 0.172854 0.0239872
0.728862 0.165057 0.0203098
0.722957 0.155383 0.0153658
0.0864576 0.575967 0.0958419
0.0850843 0.57174 0.0945144
0.0846265 0.568765 0.0940871
0.0830701 0.564385 0.0925765
0.0818799 0.560113 0.0914321
0.0804608 0.555062 0.090074
0.0785992 0.549004 0.0882734
0.0768139 0.541939 0.0865644
0.0740368 0.532448 0.0838788
0.0707256 0.521569 0.080705
0.067628 0.509773 0.0777295
0.0641031 0.495964 0.0743572
0.156481 0.515236 0.0959029
0.40264 0.534371 0.145327
0.586191 0.535637 0.203937
0.699687 0.537392 0.231556
0.771054 0.540413 0.235554
0.825559 0.540795 0.225589
0.875883 0.537118 0.21593
0.920974 0.529015 0.20679
0.940581 0.514443 0.198734
0.930175 0.495323 0.192798
0.917006 0.474998 0.18468
0.905531 0.456123 0.176425
0.894148 0.437675 0.167056
0.882185 0.418708 0.156802
0.873472 0.405158 0.148959
0.867964 0.396887 0.144091
0.863203 0.38967 0.139849
0.858381 0.382406 0.135485
0.854368 0.376287 0.131914
0.849287 0.368551 0.127199
0.844419 0.361044 0.122621
0.113329 0.678553 0.121675
0.112428 0.675074 0.120821
0.111254 0.671351 0.119692
0.111223 0.668513 0.119661
0.110292 0.664652 0.118761
0.108965 0.660182 0.117479
0.107897 0.655802 0.116472
0.106569 0.649241 0.11519
0.104265 0.640604 0.112978
0.102129 0.631647 0.110918
0.0992752 0.62118 0.108186
0.0961166 0.609323 0.10515
0.0921798 0.595254 0.10135
0.273213 0.630915 0.13521
0.530053 0.629923 0.186206
0.686641 0.624903 0.231083
0.789425 0.622522 0.252369
0.860853 0.620844 0.257862
0.912993 0.619638 0.249607
0.956924 0.616251 0.237049
0.994049 0.609598 0.225864
0.996963 0.597269 0.220752
0.987732 0.583505 0.217731
0.979339 0.571008 0.214405
0.971008 0.558206 0.211063
0.963272 0.546029 0.207721
0.957214 0.536278 0.204929
0.953674 0.530587 0.203143
0.950835 0.52607 0.20148
0.947936 0.521294 0.199969
0.944762 0.516045 0.198184
0.941634 0.511315 0.196765
0.938338 0.506096 0.194781
0.12842 0.764126 0.135973
0.128054 0.761456 0.135637
0.127626 0.758923 0.135241
0.127245 0.756161 0.13489
0.126741 0.753094 0.134401
0.126421 0.750408 0.134127
0.125628 0.74638 0.133349
0.125139 0.741207 0.132906
0.123674 0.734264 0.131533
0.122866 0.727367 0.130755
0.121035 0.718975 0.129015
0.11957 0.709636 0.127626
0.117617 0.698283 0.125765
0.157305 0.699245 0.132753
0.403891 0.719356 0.158434
0.634104 0.705287 0.207172
0.76701 0.698177 0.237797
0.861906 0.691615 0.253986
0.932189 0.685878 0.260075
0.9841 0.681468 0.256016
1 0.678004 0.246983
1 0.672374 0.237827
1 0.662409 0.235264
1 0.652766 0.233188
1 0.64332 0.231174
1 0.634455 0.22884
1 0.626749 0.227222
1 0.623377 0.226871
1 0.619577 0.22591
1 0.61561 0.224796
1 0.612238 0.224353
1 0.608423 0.223362
1 0.604517 0.222324
0.139528 0.835081 0.146426
0.1393 0.833005 0.146227
0.138842 0.83064 0.145785
0.138521 0.828748 0.145495
0.138216 0.826535 0.145205
0.137697 0.823804 0.144701
0.137377 0.820676 0.144427
0.136385 0.816159 0.143465
0.135698 0.810819 0.142824
0.134783 0.805447 0.14197
0.133745 0.798749 0.141009
0.132586 0.790936 0.139925
0.131594 0.782269 0.138979
0.129793 0.771084 0.137285
0.24033 0.784665 0.150317
0.531502 0.784482 0.170871
0.717327 0.766796 0.20827
0.832242 0.756619 0.230808
0.9187 0.747143 0.243946
0.984405 0.738735 0.252995
1 0.732525 0.254398
1 0.728054 0.251911
1 0.721584 0.248692
1 0.713848 0.246784
1 0.706401 0.244556
1 0.699458 0.242252
1 0.693263 0.240162
1 0.689494 0.238865
1 0.687068 0.238453
1 0.68394 0.237888
1 0.681163 0.237446
1 0.678935 0.237324
1 0.675822 0.236759
0.149554 0.892256 0.15584
0.149248 0.890532 0.155535
0.149126 0.889143 0.155428
0.149233 0.887861 0.15555
0.148669 0.885924 0.155001
0.148135 0.883574 0.154513
0.147524 0.880827 0.153918
0.147021 0.877699 0.15346
0.146456 0.873945 0.152941
0.145144 0.868879 0.15169
0.144442 0.86363 0.151049
0.143191 0.857328 0.149859
0.142245 0.850401 0.148989
0.140887 0.842344 0.147707
0.166354 0.838819 0.150027
0.382223 0.851896 0.154757
0.636744 0.831327 0.174746
0.786511 0.813565 0.203006
0.885679 0.801083 0.222309
0.961288 0.790097 0.236789
1 0.780957 0.247349
1 0.773388 0.252399
1 0.767788 0.253285
1 0.761639 0.253162
1 0.755901 0.25301
1 0.750637 0.252964
1 0.745418 0.252567
1 0.741833 0.252293
1 0.739437 0.251789
1 0.737362 0.251759
1 0.735241 0.251286
1 0.732906 0.25098
1 0.73048 0.250629
0.160128 0.938949 0.165743
0.159762 0.937682 0.165393
0.159304 0.936141 0.164965
0.158968 0.934737 0.164645
0.158907 0.933532 0.164614
0.158343 0.931777 0.164065
0.158022 0.930037 0.16376
0.157259 0.927214 0.163058
0.156191 0.923583 0.162051
0.155962 0.920272 0.161852
0.154635 0.915648 0.160586
0.15375 0.910796 0.159747
0.152422 0.905272 0.158511
0.151247 0.898833 0.157427
0.149294 0.890105 0.155566
0.205951 0.89366 0.157549
0.520134 0.891676 0.151049
0.723918 0.864195 0.175662
0.84509 0.845975 0.202502
0.928222 0.832624 0.221546
0.993255 0.821622 0.234119
1 0.812436 0.242649
1 0.804761 0.24712
1 0.799191 0.248768
1 0.794507 0.249653
1 0.789807 0.250294
1 0.785687 0.251179
1 0.78201 0.251484
1 0.780041 0.251713
1 0.778622 0.25211
1 0.77673 0.252232
1 0.774639 0.252338
1 0.772595 0.252583
0.167178 0.978851 0.172259
0.166979 0.977768 0.172076
0.166812 0.976516 0.171923
0.166552 0.975174 0.171679
0.166354 0.973831 0.171481
0.166384 0.972717 0.171542
0.166018 0.970993 0.171206
0.165515 0.968505 0.170733
0.165011 0.965637 0.17026
0.164721 0.962539 0.170016
0.163806 0.958572 0.169146
0.16318 0.954574 0.168566
0.162432 0.949722 0.167895
0.161318 0.943801 0.166857
0.159808 0.936751 0.165438
0.15816 0.928542 0.163897
0.393225 0.942565 0.151461
0.640864 0.911482 0.156451
0.796155 0.884504 0.186664
0.893309 0.867567 0.208835
0.964019 0.854932 0.222599
1 0.844617 0.232044
1 0.836332 0.238392
1 0.829252 0.24184
1 0.824613 0.243153
1 0.820844 0.244099
1 0.817105 0.244724
1 0.814145 0.245579
1 0.812497 0.245899
1 0.810895 0.246174
1 0.809262 0.246448
1 0.807691 0.246799
1 0.80618 0.247456
0.171679 1 0.176318
0.171511 1 0.176165
0.171481 1 0.17615
0.171328 1 0.176013
0.171069 1 0.175769
0.171099 1 0.175799
0.170855 1 0.17557
0.170733 1 0.175479
0.170291 1 0.175067
0.169986 0.99826 0.174807
0.169558 0.995224 0.174411
0.169223 0.991775 0.174121
0.168566 0.987686 0.173541
0.167834 0.982818 0.172869
0.166903 0.976913 0.172
0.16585 0.969848 0.171038
0.258808 0.978363 0.166278
0.538338 0.957198 0.144106
0.736797 0.919783 0.171283
0.854536 0.897444 0.197421
0.935027 0.88304 0.214099
0.99704 0.871778 0.224826
1 0.86244 0.231968
1 0.854505 0.236637
1 0.848585 0.238849
1 0.845197 0.23946
1 0.841993 0.239765
1 0.839445 0.240497
1 0.837674 0.240635
1 0.836439 0.240894
1 0.835248 0.241184
1 0.833875 0.241321
1 0.832731 0.241672
0.172747 1 0.177096
0.172702 1 0.177066
0.172656 1 0.17702
0.17261 1 0.176989
0.172717 1 0.177096
0.172702 1 0.177096
0.172747 1 0.177157
0.172747 1 0.177188
0.172503 1 0.176944
0.17232 1 0.176791
0.172503 1 0.177005
0.172381 1 0.176898
0.171984 1 0.176562
0.171893 1 0.176486
0.171481 1 0.17615
0.170748 1 0.175509
0.16994 0.996719 0.174762
0.429999 0.997879 0.143526
0.66566 0.954559 0.157
0.81149 0.925322 0.186099
0.904143 0.907591 0.205844
0.972122 0.894682 0.218357
1 0.884718 0.226856
1 0.876158 0.23241
1 0.869154 0.236271
1 0.864973 0.237522
1 0.862181 0.237598
1 0.859617 0.237736
1 0.857832 0.237903
1 0.856901 0.238254
1 0.855879 0.238254
1 0.854658 0.238346
1 0.853498 0.238575
0.171252 1 0.175433
0.171283 1 0.175448
0.171298 1 0.175494
0.171344 1 0.175525
0.171359 1 0.17557
0.171572 1 0.175769
0.171618 1 0.175814
0.171649 1 0.175875
0.171923 1 0.176165
0.172076 1 0.176318
0.172244 1 0.176501
0.172427 1 0.176699
0.172503 1 0.176806
0.172869 1 0.177203
0.172625 1 0.177005
0.172793 1 0.177218
0.172625 1 0.177081
0.307271 1 0.157702
0.583505 0.988815 0.146624
0.761715 0.951843 0.173632
0.870039 0.929946 0.196567
0.946059 0.915343 0.21178
1 0.904219 0.221622
1 0.895201 0.228412
1 0.887449 0.232898
1 0.881529 0.235996
1 0.878676 0.236255
1 0.876448 0.236469
1 0.874556 0.23653
1 0.873594 0.236561
1 0.872709 0.236698
1 0.871626 0.236774
1 0.870634 0.236927
0.17026 1 0.174395
0.170275 1 0.174411
0.170291 1 0.174426
0.170291 1 0.174456
0.170306 1 0.174472
0.170336 1 0.174487
0.170352 1 0.174502
0.170382 1 0.174533
0.170428 1 0.174578
0.170581 1 0.174746
0.170672 1 0.174838
0.170809 1 0.174975
0.17113 1 0.175311
0.171283 1 0.175479
0.171511 1 0.175708
0.17171 1 0.175937
0.172274 1 0.176532
0.234653 1 0.167239
0.48336 1 0.143252
0.703349 0.978317 0.160433
0.832319 0.951354 0.186206
0.918105 0.934386 0.204166
0.981521 0.922087 0.215869
1 0.912306 0.22388
1 0.904219 0.229603
1 0.897215 0.233448
1 0.892836 0.23505
1 0.890654 0.235187
1 0.888869 0.235355
1 0.887922 0.235538
1 0.887098 0.235615
1 0.886076 0.235645
1 0.885161 0.235782
0.170275 1 0.174411
0.170275 1 0.174411
0.17026 1 0.174395
0.170275 1 0.174411
0.170275 1 0.174411
0.170275 1 0.174411
0.17026 1 0.174395
0.17026 1 0.174411
0.17026 1 0.174395
0.17026 1 0.174395
0.17026 1 0.174395
0.17026 1 0.174395
0.170275 1 0.174411
0.170275 1 0.174411
0.170275 1 0.174411
0.170275 1 0.174411
0.170291 1 0.174456
0.190555 1 0.171603
0.370169 1 0.150469
0.631128 1 0.148806
0.790219 0.972137 0.174731
0.887984 0.95227 0.195331
0.957702 0.938552 0.209201
1 0.928084 0.218662
1 0.919371 0.225406
1 0.911971 0.230213
1 0.905928 0.233295
1 0.903532 0.234119
1 0.901457 0.234302
1 0.900359 0.234287
1 0.89955 0.234424
1 0.89865 0.234501
1 0.897887 0.234668
0.170275 1 0.174411
0.170275 1 0.174411
0.170275 1 0.174411
0.17026 1 0.174395
0.170275 1 0.174411
0.170275 1 0.174411
0.17026 1 0.174395
0.170275 1 0.174411
0.170275 1 0.174411
0.170275 1 0.174411
0.17026 1 0.174395
0.170275 1 0.174411
0.170275 1 0.174411
0.170275 1 0.174411
0.170275 1 0.174411
0.170275 1 0.174411
0.170275 1 0.174411
0.170275 1 0.174411
0.255406 1 0.16556
0.549844 1 0.142611
0.741299 0.991653 0.163516
0.855375 0.968795 0.186191
0.932906 0.95375 0.20206
0.991333 0.942382 0.212985
1 0.933135 0.220584
1 0.925597 0.226215
1 0.919036 0.23032
1 0.914794 0.23209
1 0.912718 0.232639
1 0.911559 0.233082
1 0.910704 0.233158
1 0.909957 0.233127
1 0.909117 0.233204
0.170275 1 0.174411
0.170275 1 0.174411
0.170275 1 0.174411
0.170275 1 0.174411
0.17026 1 0.174395
0.17026 1 0.174395
0.17026 1 0.174395
0.17026 1 0.174395
0.17026 1 0.174395
