work-blog-website-frontend/docs/7.视频剪辑/assets/LUT/青青风格化_applelog_01_lut.cube
TITLE "Generated by Resolve"
LUT_3D_SIZE 33
0.0172427 0.0138399 0.0178988
0.0172427 0.0138399 0.0178988
0.0172427 0.0138399 0.0178988
0.0172427 0.0138399 0.0178988
0.0174563 0.0137789 0.0178378
0.0288396 0.0140383 0.0179294
0.0549935 0.0148013 0.0181735
0.0779278 0.0156252 0.0184787
0.113573 0.0175937 0.0191958
0.149264 0.0226596 0.0212558
0.204227 0.0274662 0.0225223
0.272236 0.0291905 0.0135348
0.352453 0.0240024 0.00972
0.446052 0.0131533 0.0131533
0.526101 0.0212863 0.0212863
0.530159 0.0470588 0.0470588
0.519051 0.0692149 0.0692149
0.501137 0.0882124 0.0882124
0.478828 0.104906 0.104906
0.459892 0.116945 0.116945
0.448524 0.123522 0.123522
0.446937 0.124453 0.124453
0.446937 0.124453 0.124453
0.446937 0.124453 0.124453
0.446937 0.124453 0.124453
0.446937 0.124453 0.124453
0.446937 0.124453 0.124453
0.446937 0.124453 0.124453
0.446937 0.124453 0.124453
0.446937 0.124453 0.124453
0.446937 0.124453 0.124453
0.446937 0.124453 0.124453
0.446937 0.124453 0.124453
0.0172427 0.0138399 0.0178988
0.0172427 0.0138399 0.0178988
0.0172427 0.0138399 0.0178988
0.0172427 0.0138399 0.0178988
0.0174563 0.0137789 0.0178378
0.0288396 0.0140383 0.0179294
0.0549935 0.0148013 0.0181735
0.0779278 0.0156252 0.0184787
0.113573 0.0175937 0.0191958
0.149264 0.0226596 0.0212558
0.204227 0.0274662 0.0225223
0.272236 0.0291905 0.0135348
0.352453 0.0240024 0.00972
0.446052 0.0131533 0.0131533
0.526101 0.0212863 0.0212863
0.530159 0.0470588 0.0470588
0.519051 0.0692149 0.0692149
0.501137 0.0882124 0.0882124
0.478828 0.104906 0.104906
0.459892 0.116945 0.116945
0.448524 0.123522 0.123522
0.446937 0.124453 0.124453
0.446937 0.124453 0.124453
0.446937 0.124453 0.124453
0.446937 0.124453 0.124453
0.446937 0.124453 0.124453
0.446937 0.124453 0.124453
0.446937 0.124453 0.124453
0.446937 0.124453 0.124453
0.446937 0.124453 0.124453
0.446937 0.124453 0.124453
0.446937 0.124453 0.124453
0.446937 0.124453 0.124453
0.0172427 0.0138399 0.0178988
0.0172427 0.0138399 0.0178988
0.0172427 0.0138399 0.0178988
0.0172427 0.0138399 0.0178988
0.0174563 0.0137789 0.0178378
0.0288396 0.0140383 0.0179294
0.0549935 0.0148013 0.0181735
0.0779278 0.0156252 0.0184787
0.113573 0.0175937 0.0191958
0.149264 0.0226596 0.0212558
0.204227 0.0274662 0.0225223
0.272236 0.0291905 0.0135348
0.352453 0.0240024 0.00972
0.446052 0.0131533 0.0131533
0.526101 0.0212863 0.0212863
0.530159 0.0470588 0.0470588
0.519051 0.0692149 0.0692149
0.501137 0.0882124 0.0882124
0.478828 0.104906 0.104906
0.459892 0.116945 0.116945
0.448524 0.123522 0.123522
0.446937 0.124453 0.124453
0.446937 0.124453 0.124453
0.446937 0.124453 0.124453
0.446937 0.124453 0.124453
0.446937 0.124453 0.124453
0.446937 0.124453 0.124453
0.446937 0.124453 0.124453
0.446937 0.124453 0.124453
0.446937 0.124453 0.124453
0.446937 0.124453 0.124453
0.446937 0.124453 0.124453
0.446937 0.124453 0.124453
0.0172427 0.0138399 0.0178988
0.0172427 0.0138399 0.0178988
0.0172427 0.0138399 0.0178988
0.0172427 0.0138399 0.0178988
0.0174563 0.0137789 0.0178378
0.0288396 0.0140383 0.0179294
0.0549935 0.0148013 0.0181735
0.0779278 0.0156252 0.0184787
0.113573 0.0175937 0.0191958
0.149264 0.0226596 0.0212558
0.204227 0.0274662 0.0225223
0.272236 0.0291905 0.0135348
0.352453 0.0240024 0.00972
0.446052 0.0131533 0.0131533
0.526101 0.0212863 0.0212863
0.530159 0.0470588 0.0470588
0.519051 0.0692149 0.0692149
0.501137 0.0882124 0.0882124
0.478828 0.104906 0.104906
0.459892 0.116945 0.116945
0.448524 0.123522 0.123522
0.446937 0.124453 0.124453
0.446937 0.124453 0.124453
0.446937 0.124453 0.124453
0.446937 0.124453 0.124453
0.446937 0.124453 0.124453
0.446937 0.124453 0.124453
0.446937 0.124453 0.124453
0.446937 0.124453 0.124453
0.446937 0.124453 0.124453
0.446937 0.124453 0.124453
0.446937 0.124453 0.124453
0.446937 0.124453 0.124453
0.0171817 0.0138705 0.0178378
0.0171817 0.0138705 0.0178378
0.0171817 0.0138705 0.0178378
0.0171817 0.0138705 0.0178378
0.0174411 0.0139162 0.0178988
0.0285039 0.0142061 0.0180819
0.0543832 0.0148013 0.0181888
0.0774243 0.0155947 0.0184634
0.11284 0.0175479 0.0191806
0.148821 0.0225834 0.0212253
0.203571 0.027451 0.0225223
0.271687 0.0291905 0.0136721
0.351919 0.0240787 0.00970474
0.445686 0.013138 0.013138
0.525933 0.0212253 0.0212253
0.530205 0.0469825 0.0469825
0.519081 0.0691691 0.0691691
0.501167 0.0881819 0.0881819
0.478859 0.104875 0.104875
0.459907 0.11693 0.11693
0.448539 0.123507 0.123507
0.446937 0.124453 0.124453
0.446937 0.124453 0.124453
0.446937 0.124453 0.124453
0.446937 0.124453 0.124453
0.446937 0.124453 0.124453
0.446937 0.124453 0.124453
0.446937 0.124453 0.124453
0.446937 0.124453 0.124453
0.446937 0.124453 0.124453
0.446937 0.124453 0.124453
0.446937 0.124453 0.124453
0.446937 0.124453 0.124453
0.0172427 0.0218967 0.0184939
0.0172427 0.0218967 0.0184939
0.0172427 0.0218967 0.0184939
0.0172427 0.0218967 0.0184939
0.017258 0.0218204 0.0184939
0.0245518 0.0209964 0.0186313
0.0478523 0.0198978 0.0188296
0.0740215 0.01944 0.0190127
0.106142 0.0199588 0.0194553
0.145159 0.023682 0.0212863
0.198093 0.0280156 0.0227359
0.266926 0.0293126 0.0150759
0.346914 0.0246738 0.00949111
0.441535 0.0129702 0.0129702
0.524239 0.0206302 0.0206302
0.530434 0.0462806 0.0462806
0.519341 0.0687877 0.0687877
0.501457 0.087892 0.087892
0.479103 0.104707 0.104707
0.460044 0.116854 0.116854
0.448569 0.123491 0.123491
0.446937 0.124453 0.124453
0.446937 0.124453 0.124453
0.446937 0.124453 0.124453
0.446937 0.124453 0.124453
0.446937 0.124453 0.124453
0.446937 0.124453 0.124453
0.446937 0.124453 0.124453
0.446937 0.124453 0.124453
0.446937 0.124453 0.124453
0.446937 0.124453 0.124453
0.446937 0.124453 0.124453
0.446937 0.124453 0.124453
0.0176089 0.0404059 0.019852
0.0176089 0.0404059 0.019852
0.0176089 0.0404059 0.019852
0.0176089 0.0404059 0.019852
0.0175937 0.0402533 0.0198367
0.0204318 0.0388342 0.0198978
0.038056 0.0366522 0.0201572
0.067689 0.0344854 0.0204318
0.0967117 0.033051 0.0208896
0.140459 0.0339971 0.0222324
0.190356 0.0364385 0.0237125
0.260777 0.035111 0.0179751
0.340536 0.0280919 0.00939956
0.435706 0.0129397 0.0129091
0.52134 0.0197757 0.0197757
0.531151 0.0451972 0.0451972
0.519677 0.0682078 0.0682078
0.502037 0.0874037 0.0874037
0.479515 0.104433 0.104433
0.460273 0.116716 0.116716
0.448615 0.123461 0.123461
0.446937 0.124453 0.124453
0.446937 0.124453 0.124453
0.446937 0.124453 0.124453
0.446937 0.124453 0.124453
0.446937 0.124453 0.124453
0.446937 0.124453 0.124453
0.446937 0.124453 0.124453
0.446937 0.124453 0.124453
0.446937 0.124453 0.124453
0.446937 0.124453 0.124453
0.446937 0.124453 0.124453
0.446937 0.124453 0.124453
0.0173342 0.0671244 0.0216678
0.0173342 0.0671244 0.0216678
0.0173342 0.0671244 0.0216678
0.0173342 0.0671244 0.0216678
0.0173495 0.0669261 0.0216526
0.0179599 0.0650339 0.0215
0.0294652 0.0620127 0.0217746
0.0570993 0.0585946 0.0220951
0.0882582 0.0559396 0.0227512
0.135119 0.0552987 0.0237888
0.183688 0.057145 0.0255131
0.256352 0.0543984 0.0220493
0.337041 0.0455787 0.00932326
0.431083 0.019028 0.0126345
0.519173 0.0207065 0.0191653
0.531868 0.0442512 0.0442512
0.520073 0.0675822 0.0675822
0.502647 0.0868696 0.0868696
0.479942 0.104143 0.104143
0.460502 0.116579 0.116579
0.448676 0.12343 0.12343
0.446937 0.124453 0.124453
0.446937 0.124453 0.124453
0.446937 0.124453 0.124453
0.446937 0.124453 0.124453
0.446937 0.124453 0.124453
0.446937 0.124453 0.124453
0.446937 0.124453 0.124453
0.446937 0.124453 0.124453
0.446937 0.124453 0.124453
0.446937 0.124453 0.124453
0.446937 0.124453 0.124453
0.446937 0.124453 0.124453
0.0159152 0.097734 0.024155
0.0159152 0.097734 0.024155
0.0159152 0.097734 0.024155
0.0159152 0.097734 0.024155
0.0159609 0.0975662 0.0241398
0.0164797 0.0961013 0.0241245
0.0216373 0.0936294 0.0240635
0.0441291 0.0903792 0.0243229
0.0779889 0.0871748 0.0247349
0.125795 0.0864271 0.0251926
0.175418 0.0891737 0.026276
0.248997 0.0885634 0.0222782
0.332143 0.0839857 0.00799573
0.427848 0.0613565 0.0112001
0.519722 0.0334325 0.0175631
0.535653 0.0475013 0.0428321
0.520928 0.0673838 0.0670634
0.50338 0.0862135 0.0862135
0.480461 0.103792 0.103792
0.460807 0.116396 0.116396
0.448753 0.123384 0.123384
0.446937 0.124453 0.124453
0.446937 0.124453 0.124453
0.446937 0.124453 0.124453
0.446937 0.124453 0.124453
0.446937 0.124453 0.124453
0.446937 0.124453 0.124453
0.446937 0.124453 0.124453
0.446937 0.124453 0.124453
0.446937 0.124453 0.124453
0.446937 0.124453 0.124453
0.446937 0.124453 0.124453
0.446937 0.124453 0.124453
0.00207523 0.134707 0.0279698
0.00207523 0.134707 0.0279698
0.00207523 0.134707 0.0279698
0.00207523 0.134707 0.0279698
0.00215152 0.134539 0.0279545
0.00282292 0.132998 0.0277714
0.00440986 0.130663 0.0275578
0.0184024 0.127428 0.0273747
0.0598764 0.12192 0.0268406
0.108293 0.119402 0.0274815
0.164096 0.122469 0.0271611
0.237186 0.124361 0.023209
0.32221 0.123888 0.00549325
0.419562 0.11635 0.00714122
0.517327 0.0858778 0.0112612
0.548058 0.0646982 0.038056
0.528038 0.0753033 0.0663005
0.505608 0.0869001 0.0857252
0.481178 0.103304 0.103304
0.461219 0.116152 0.116152
0.44889 0.123308 0.123308
0.446937 0.124453 0.124453
0.446937 0.124453 0.124453
0.446937 0.124453 0.124453
0.446937 0.124453 0.124453
0.446937 0.124453 0.124453
0.446937 0.124453 0.124453
0.446937 0.124453 0.124453
0.446937 0.124453 0.124453
0.446937 0.124453 0.124453
0.446937 0.124453 0.124453
0.446937 0.124453 0.124453
0.446937 0.124453 0.124453
0.00445563 0.175265 0.033463
0.00445563 0.175265 0.033463
0.00445563 0.175265 0.033463
0.00445563 0.175265 0.033463
0.00445563 0.175158 0.033463
0.00447089 0.174121 0.033402
0.00427253 0.172274 0.0330663
0.00682078 0.170047 0.0328374
0.0294652 0.164034 0.0321965
0.0697185 0.15874 0.0310216
0.149584 0.160311 0.0284123
0.220417 0.164569 0.0217899
0.310018 0.167269 0.00424201
0.406867 0.165789 0.00326543
0.509331 0.152987 0.00505074
0.569833 0.110506 0.0255131
0.543206 0.0965744 0.06215
0.518151 0.0990158 0.0855421
0.485222 0.105867 0.103502
0.461723 0.115908 0.115908
0.449104 0.123186 0.123186
0.446937 0.124453 0.124453
0.446937 0.124453 0.124453
0.446937 0.124453 0.124453
0.446937 0.124453 0.124453
0.446937 0.124453 0.124453
0.446937 0.124453 0.124453
0.446937 0.124453 0.124453
0.446937 0.124453 0.124453
0.446937 0.124453 0.124453
0.446937 0.124453 0.124453
0.446937 0.124453 0.124453
0.446937 0.124453 0.124453
0.00656138 0.218753 0.0360723
0.00656138 0.218753 0.0360723
0.00656138 0.218753 0.0360723
0.00656138 0.218753 0.0360723
0.00656138 0.218647 0.0360723
0.0065156 0.217548 0.0360723
0.00645457 0.215869 0.0360571
0.00640879 0.214099 0.0360571
0.0137789 0.210254 0.0362402
0.0479591 0.200565 0.0357214
0.108919 0.198184 0.0313573
0.197955 0.203845 0.0225528
0.295796 0.209735 0.0015259
0.397543 0.213565 0.00192264
0.50631 0.210208 0.00263981
0.589059 0.195804 0.0171054
0.586847 0.171359 0.0578927
0.540627 0.125612 0.0833906
0.503777 0.122118 0.10428
0.468467 0.120394 0.116564
0.449592 0.123232 0.123186
0.446937 0.124453 0.124453
0.446937 0.124453 0.124453
0.446937 0.124453 0.124453
0.446937 0.124453 0.124453
0.446937 0.124453 0.124453
0.446937 0.124453 0.124453
0.446937 0.124453 0.124453
0.446937 0.124453 0.124453
0.446937 0.124453 0.124453
0.446937 0.124453 0.124453
0.446937 0.124453 0.124453
0.446937 0.124453 0.124453
0.0077821 0.266239 0.0331884
0.0077821 0.266239 0.0331884
0.0077821 0.266239 0.0331884
0.0077821 0.266239 0.0331884
0.0077821 0.266133 0.0332036
0.00770581 0.265278 0.0332494
0.00767529 0.263905 0.033402
0.00764477 0.26244 0.0335851
0.00791943 0.260609 0.0338445
0.0229191 0.253895 0.0347143
0.0676432 0.244236 0.0328374
0.156878 0.248203 0.0185855
0.27071 0.258106 0.00138857
0.383429 0.267369 0.00141909
0.500969 0.268315 0.00163272
0.597116 0.259892 0.0159152
0.614023 0.242695 0.0614481
0.59823 0.217136 0.0931868
0.550652 0.173663 0.110842
0.49218 0.140352 0.118914
0.458793 0.130526 0.125093
0.447333 0.124956 0.124743
0.446937 0.124453 0.124453
0.446937 0.124453 0.124453
0.446937 0.124453 0.124453
0.446937 0.124453 0.124453
0.446937 0.124453 0.124453
0.446937 0.124453 0.124453
0.446937 0.124453 0.124453
0.446937 0.124453 0.124453
0.446937 0.124453 0.124453
0.446937 0.124453 0.124453
0.446937 0.124453 0.124453
0.00866712 0.318776 0.0202335
0.00866712 0.318776 0.0202335
0.00866712 0.318776 0.0202335
0.00866712 0.318776 0.0202335
0.00866712 0.318685 0.020264
0.00863661 0.317845 0.0205539
0.00857557 0.316609 0.0209659
0.00856031 0.315358 0.0212863
0.00859083 0.313909 0.0216983
0.0100557 0.311604 0.0223697
0.035111 0.300832 0.0258488
0.0875257 0.295186 0.0133059
0.222843 0.310323 0.00164797
0.358099 0.324971 0.0012665
0.486397 0.332189 0.00125124
0.596521 0.328847 0.0152285
0.632136 0.312367 0.0682536
0.628351 0.287358 0.107439
0.60676 0.261769 0.131868
0.564645 0.219059 0.137179
0.4851 0.155993 0.130999
0.458503 0.134951 0.127718
0.447684 0.12517 0.124743
0.446937 0.124453 0.124453
0.446937 0.124453 0.124453
0.446937 0.124453 0.124453
0.446937 0.124453 0.124453
0.446937 0.124453 0.124453
0.446937 0.124453 0.124453
0.446937 0.124453 0.124453
0.446937 0.124453 0.124453
0.446937 0.124453 0.124453
0.446937 0.124453 0.124453
0.0093843 0.382773 0.0093843
0.0093843 0.382773 0.0093843
0.0093843 0.382773 0.0093843
0.0093843 0.382773 0.0093843
0.0093843 0.382712 0.0093843
0.00936904 0.382055 0.00936904
0.00932326 0.381003 0.00932326
0.00932326 0.379858 0.00932326
0.009308 0.378363 0.009308
0.00929274 0.37644 0.00929274
0.0129397 0.372686 0.00898756
0.0499886 0.358144 0.0059205
0.106355 0.365393 0.00230411
0.310597 0.387732 0.00135805
0.458869 0.403296 0.00109865
0.586435 0.404608 0.0168765
0.642206 0.385306 0.0762341
0.652918 0.360357 0.123827
0.641779 0.335714 0.155383
0.613077 0.299565 0.165362
0.57409 0.254124 0.160906
0.490562 0.16762 0.136797
0.461128 0.137285 0.128283
0.448051 0.125475 0.124819
0.446937 0.124453 0.124453
0.446937 0.124453 0.124453
0.446937 0.124453 0.124453
0.446937 0.124453 0.124453
0.446937 0.124453 0.124453
0.446937 0.124453 0.124453
0.446937 0.124453 0.124453
0.446937 0.124453 0.124453
0.446937 0.124453 0.124453
0.00950637 0.446357 0.00950637
0.00950637 0.446357 0.00950637
0.00950637 0.446357 0.00950637
0.00950637 0.446357 0.00950637
0.00950637 0.446311 0.00950637
0.00950637 0.445838 0.00950637
0.00949111 0.445121 0.00949111
0.00949111 0.44448 0.00949111
0.00953689 0.443626 0.00953689
0.00953689 0.44239 0.00953689
0.00953689 0.440787 0.00953689
0.0168612 0.436118 0.00894179
0.0665751 0.424781 0.00457771
0.174517 0.450202 0.00161746
0.409064 0.480125 0.000839246
0.564492 0.489815 0.0246891
0.644022 0.47068 0.0928969
0.673045 0.441733 0.146365
0.672343 0.41323 0.183581
0.651011 0.376364 0.196597
0.619425 0.332876 0.195148
0.581003 0.275257 0.175143
0.501671 0.178424 0.140276
0.463416 0.139483 0.128832
0.448463 0.125856 0.124956
0.446937 0.124453 0.124453
0.446937 0.124453 0.124453
0.446937 0.124453 0.124453
0.446937 0.124453 0.124453
0.446937 0.124453 0.124453
0.446937 0.124453 0.124453
0.446937 0.124453 0.124453
0.446937 0.124453 0.124453
0.0121004 0.495552 0.0121004
0.0121004 0.495552 0.0121004
0.0121004 0.495552 0.0121004
0.0121004 0.495552 0.0121004
0.0121004 0.495521 0.0121004
0.0120546 0.495277 0.0120546
0.0119936 0.494911 0.0119936
0.0119173 0.49453 0.0119173
0.0117952 0.494041 0.0117952
0.0117037 0.4934 0.0117037
0.0115663 0.492592 0.0115663
0.0114443 0.491539 0.0114443
0.0225071 0.48632 0.00907912
0.0816205 0.484367 0.00277714
0.284642 0.52665 0.000854505
0.497292 0.555138 0.0231327
0.629358 0.554009 0.111604
0.688426 0.533257 0.181003
0.701579 0.503182 0.225971
0.686244 0.460365 0.237964
0.659098 0.411627 0.233005
0.626123 0.356893 0.214984
0.589105 0.289799 0.182284
0.52018 0.196231 0.145922
0.465431 0.141497 0.129412
0.448798 0.126223 0.125124
0.446937 0.124453 0.124453
0.446937 0.124453 0.124453
0.446937 0.124453 0.124453
0.446937 0.124453 0.124453
0.446937 0.124453 0.124453
0.446937 0.124453 0.124453
0.446937 0.124453 0.124453
0.0247501 0.530388 0.0247501
0.0247501 0.530388 0.0247501
0.0247501 0.530388 0.0247501
0.0247501 0.530388 0.0247501
0.0247501 0.530373 0.0247501
0.0246433 0.530221 0.0246433
0.0244907 0.529976 0.0244907
0.0243381 0.529732 0.0243381
0.024155 0.529427 0.024155
0.0238956 0.529 0.0238956
0.0235599 0.52845 0.0235599
0.0231022 0.527718 0.0231022
0.0226444 0.526864 0.0226444
0.034165 0.523293 0.0159152
0.0978103 0.537423 0.007187
0.361303 0.591913 0.016022
0.575891 0.61709 0.109621
0.691691 0.620844 0.218921
0.727977 0.598306 0.283909
0.72134 0.55584 0.300343
0.698314 0.503059 0.289433
0.66656 0.439185 0.260594
0.6336 0.373617 0.225467
0.596033 0.302159 0.188327
0.533974 0.210559 0.150301
0.467033 0.142962 0.129656
0.449119 0.126513 0.125216
0.446937 0.124453 0.124453
0.446937 0.124453 0.124453
0.446937 0.124453 0.124453
0.446937 0.124453 0.124453
0.446937 0.124453 0.124453
0.446937 0.124453 0.124453
0.0515908 0.555962 0.0515908
0.0515908 0.555962 0.0515908
0.0515908 0.555962 0.0515908
0.0515908 0.555962 0.0515908
0.0515755 0.555947 0.0515755
0.0514534 0.555871 0.0514534
0.0512398 0.555749 0.0512398
0.0510414 0.555611 0.0510414
0.0507668 0.555444 0.0507668
0.0504463 0.555245 0.0504463
0.0501259 0.555062 0.0501259
0.0495918 0.554711 0.0495918
0.0488441 0.554223 0.0488441
0.0478828 0.553552 0.0478828
0.0576791 0.554131 0.035172
0.130968 0.583688 0.0343481
0.448051 0.64802 0.0802777
0.651118 0.677607 0.216434
0.743481 0.682872 0.337484
0.756344 0.654551 0.383566
0.737758 0.602747 0.371511
0.708431 0.537499 0.332662
0.673991 0.460151 0.278843
0.64036 0.38735 0.233158
0.601434 0.312016 0.19321
0.543969 0.221592 0.153689
0.46833 0.14432 0.130068
0.449409 0.126757 0.125292
0.446937 0.124453 0.124453
0.446937 0.124453 0.124453
0.446937 0.124453 0.124453
0.446937 0.124453 0.124453
0.446937 0.124453 0.124453
0.0821088 0.571588 0.0821088
0.0821088 0.571588 0.0821088
0.0821088 0.571588 0.0821088
0.0821088 0.571588 0.0821088
0.0821088 0.571572 0.0821088
0.0820172 0.571542 0.0820172
0.0818647 0.571466 0.0818647
0.0817273 0.571405 0.0817273
0.081529 0.571328 0.081529
0.0812848 0.571206 0.0812848
0.0809796 0.571069 0.0809796
0.0805829 0.570886 0.0805829
0.0800488 0.570657 0.0800488
0.0793774 0.570352 0.0793774
0.0785229 0.569924 0.0785229
0.0888991 0.574334 0.0634012
0.17818 0.61474 0.0822766
0.522316 0.69015 0.159457
0.709575 0.725292 0.316106
0.780529 0.732113 0.448554
0.778561 0.701457 0.474937
0.751171 0.640085 0.43093
0.717098 0.564034 0.365423
0.681697 0.478782 0.293034
0.645701 0.398322 0.239414
0.605447 0.319554 0.19704
0.549477 0.228809 0.156405
0.469429 0.145418 0.130327
0.449683 0.126986 0.125368
0.446937 0.124453 0.124453
0.446937 0.124453 0.124453
0.446937 0.124453 0.124453
0.446937 0.124453 0.124453
0.107469 0.582879 0.107469
0.107469 0.582879 0.107469
0.107469 0.582879 0.107469
0.107469 0.582879 0.107469
0.107469 0.582879 0.107469
0.107408 0.582849 0.107408
0.107317 0.582803 0.107317
0.107225 0.582757 0.107225
0.107118 0.582712 0.107118
0.106966 0.582635 0.106966
0.106767 0.582544 0.106767
0.106508 0.582437 0.106508
0.106188 0.582284 0.106188
0.10576 0.582086 0.10576
0.105226 0.581811 0.105226
0.104524 0.581491 0.104524
0.118273 0.588525 0.0906539
0.226352 0.639994 0.124819
0.585092 0.725841 0.227115
0.756985 0.763897 0.414359
0.807538 0.770687 0.544182
0.79353 0.732906 0.537026
0.762219 0.669383 0.48011
0.725109 0.585458 0.390204
0.687785 0.493324 0.304372
0.649805 0.406912 0.244434
0.608835 0.325887 0.200259
0.55314 0.233768 0.158282
0.470253 0.146273 0.130541
0.449928 0.127199 0.125429
0.446937 0.124453 0.124453
0.446937 0.124453 0.124453
0.446937 0.124453 0.124453
0.125856 0.591959 0.125856
0.125856 0.591959 0.125856
0.125856 0.591959 0.125856
0.125856 0.591959 0.125856
0.125856 0.591959 0.125856
0.125826 0.591943 0.125826
0.125795 0.591928 0.125795
0.125765 0.591913 0.125765
0.125719 0.591882 0.125719
0.125643 0.591836 0.125643
0.125551 0.591775 0.125551
0.125429 0.591684 0.125429
0.125261 0.591592 0.125261
0.125063 0.59147 0.125063
0.124804 0.591318 0.124804
0.124468 0.591104 0.124468
0.12401 0.590875 0.12401
0.142641 0.600336 0.113252
0.277775 0.664881 0.151064
0.634623 0.752361 0.287007
0.789334 0.790829 0.492393
0.821057 0.79173 0.593133
0.803952 0.753613 0.575372
0.771481 0.691814 0.516793
0.731807 0.601968 0.408484
0.692592 0.505135 0.314153
0.653284 0.414328 0.248905
0.611597 0.331044 0.20293
0.55639 0.238254 0.160006
0.471061 0.147127 0.130739
0.450187 0.127443 0.125505
0.446937 0.124453 0.124453
0.446937 0.124453 0.124453
0.140627 0.598978 0.140047
0.140627 0.598978 0.140047
0.140627 0.598978 0.140047
0.140627 0.598978 0.140047
0.140612 0.598978 0.140047
0.140597 0.598962 0.140032
0.140566 0.598962 0.140002
0.140536 0.598932 0.139971
0.14049 0.598917 0.139925
0.140429 0.598886 0.139864
0.140368 0.598856 0.139803
0.140276 0.59881 0.139712
0.140169 0.598764 0.139605
0.140017 0.598688 0.139452
0.139818 0.598596 0.139269
0.139574 0.598474 0.139025
0.139269 0.598337 0.138705
0.138903 0.598169 0.138369
0.162722 0.610422 0.130999
0.351995 0.691844 0.167529
0.673381 0.772534 0.338918
0.812024 0.810117 0.55346
0.830808 0.806455 0.628458
0.812497 0.769985 0.607126
0.778592 0.707164 0.539559
0.736934 0.614282 0.422263
0.696727 0.515358 0.322896
0.656016 0.420188 0.252598
0.613901 0.335348 0.205051
0.559442 0.242512 0.161593
0.472953 0.149371 0.131411
0.451316 0.128466 0.125841
0.446937 0.124453 0.124453
0.154818 0.604379 0.152102
0.154818 0.604379 0.152102
0.154818 0.604379 0.152102
0.154818 0.604379 0.152102
0.154803 0.604364 0.152102
0.154803 0.604364 0.152087
0.154772 0.604364 0.152071
0.154757 0.604349 0.152056
0.154726 0.604334 0.152026
0.154696 0.604318 0.151995
0.15465 0.604303 0.151949
0.154604 0.604288 0.151904
0.154528 0.604242 0.151827
0.154437 0.604212 0.151736
0.154314 0.604166 0.151629
0.154162 0.604089 0.151476
0.153979 0.604013 0.151293
0.153704 0.603906 0.151034
0.153521 0.603876 0.150759
0.180484 0.620203 0.147921
0.41004 0.712932 0.191897
0.705501 0.789303 0.386404
0.830076 0.826047 0.607172
0.838773 0.818067 0.657755
0.818982 0.781735 0.629725
0.783917 0.717556 0.552636
0.741527 0.625238 0.434913
0.699947 0.523262 0.3299
0.658244 0.42504 0.255589
0.616419 0.340124 0.207568
0.570077 0.257862 0.167605
0.478401 0.155673 0.133074
0.462303 0.138506 0.128679
0.165423 0.608774 0.162325
0.165423 0.608774 0.162325
0.165423 0.608774 0.162325
0.165423 0.608774 0.162325
0.165408 0.608774 0.162325
0.165408 0.608774 0.162325
0.165393 0.608774 0.16231
0.165393 0.608759 0.16231
0.165377 0.608759 0.162295
0.165362 0.608759 0.16228
0.165347 0.608759 0.162264
0.165316 0.608743 0.162234
0.165286 0.608728 0.162203
0.16524 0.608728 0.162173
0.165179 0.608713 0.162127
0.165103 0.608698 0.162051
0.164996 0.608652 0.161959
0.164843 0.608591 0.161807
0.164645 0.608499 0.161608
0.164736 0.608637 0.161425
0.198459 0.627329 0.162264
0.446754 0.728176 0.215808
0.730373 0.802319 0.425971
0.840711 0.836194 0.640284
0.844495 0.826185 0.678935
0.823575 0.789837 0.645243
0.788418 0.726421 0.564187
0.745068 0.63357 0.444831
0.702693 0.530068 0.335958
0.66096 0.430991 0.259464
0.62472 0.356252 0.216144
0.589944 0.291264 0.183001
0.565194 0.250751 0.164874
0.178973 0.608316 0.166613
0.178973 0.608316 0.166613
0.178973 0.608316 0.166613
0.178973 0.608316 0.166613
0.178973 0.608316 0.166613
0.178973 0.608316 0.166613
0.178973 0.608301 0.166598
0.178958 0.608301 0.166598
0.178958 0.608301 0.166583
0.178943 0.608286 0.166567
0.178927 0.608286 0.166552
0.178912 0.60827 0.166522
0.178882 0.608255 0.166506
0.178851 0.60824 0.166461
0.178805 0.608209 0.1664
0.178759 0.608179 0.166339
0.178683 0.608133 0.166262
0.178607 0.608072 0.166155
0.178454 0.608042 0.166018
0.178286 0.607996 0.165881
0.178729 0.608301 0.16585
0.210407 0.632929 0.173342
0.47187 0.738476 0.233494
0.747219 0.811063 0.454383
0.84625 0.8421 0.657938
0.849149 0.8327 0.695628
0.827482 0.796582 0.657633
0.791608 0.732433 0.571481
0.748272 0.641184 0.454475
0.705592 0.537301 0.34255
0.668818 0.4486 0.271077
0.645014 0.396887 0.23859
0.632288 0.371023 0.224018
0.185611 0.610666 0.172961
0.185611 0.610666 0.172961
0.185611 0.610666 0.172961
0.185611 0.610666 0.172961
