work-blog-website-frontend/docs/7.视频剪辑/assets/LUT/青青风格化_applelog_01_lut.cube
TITLE "Generated by Resolve"
LUT_3D_SIZE 9
0.0172427 0.0138399 0.0178988
0.0174563 0.0137789 0.0178378
0.113573 0.0175937 0.0191958
0.352453 0.0240024 0.00972
0.519051 0.0692149 0.0692149
0.448524 0.123522 0.123522
0.446937 0.124453 0.124453
0.446937 0.124453 0.124453
0.446937 0.124453 0.124453
0.0171817 0.0138705 0.0178378
0.0174411 0.0139162 0.0178988
0.11284 0.0175479 0.0191806
0.351919 0.0240787 0.00970474
0.519081 0.0691691 0.0691691
0.448539 0.123507 0.123507
0.446937 0.124453 0.124453
0.446937 0.124453 0.124453
0.446937 0.124453 0.124453
0.0159152 0.097734 0.024155
0.0159609 0.0975662 0.0241398
0.0779889 0.0871748 0.0247349
0.332143 0.0839857 0.00799573
0.520928 0.0673838 0.0670634
0.448753 0.123384 0.123384
0.446937 0.124453 0.124453
0.446937 0.124453 0.124453
0.446937 0.124453 0.124453
0.0077821 0.266239 0.0331884
0.0077821 0.266133 0.0332036
0.00791943 0.260609 0.0338445
0.27071 0.258106 0.00138857
0.614023 0.242695 0.0614481
0.458793 0.130526 0.125093
0.446937 0.124453 0.124453
0.446937 0.124453 0.124453
0.446937 0.124453 0.124453
0.0121004 0.495552 0.0121004
0.0121004 0.495521 0.0121004
0.0117952 0.494041 0.0117952
0.0225071 0.48632 0.00907912
0.629358 0.554009 0.111604
0.659098 0.411627 0.233005
0.465431 0.141497 0.129412
0.446937 0.124453 0.124453
0.446937 0.124453 0.124453
0.107469 0.582879 0.107469
0.107469 0.582879 0.107469
0.107118 0.582712 0.107118
0.106188 0.582284 0.106188
0.118273 0.588525 0.0906539
0.807538 0.770687 0.544182
0.687785 0.493324 0.304372
0.470253 0.146273 0.130541
0.446937 0.124453 0.124453
0.165423 0.608774 0.162325
0.165408 0.608774 0.162325
0.165377 0.608759 0.162295
0.165286 0.608728 0.162203
0.164996 0.608652 0.161959
0.198459 0.627329 0.162264
0.844495 0.826185 0.678935
0.702693 0.530068 0.335958
0.565194 0.250751 0.164874
0.187045 0.610895 0.174044
0.187045 0.610895 0.174044
0.187045 0.610895 0.174044
0.187045 0.610895 0.174044
0.187045 0.610895 0.174044
0.187045 0.610895 0.174044
0.228977 0.640192 0.188128
0.857862 0.84477 0.726833
0.77705 0.704479 0.537591
0.187045 0.610895 0.174044
0.187045 0.610895 0.174044
0.187045 0.610895 0.174044
0.187045 0.610895 0.174044
0.187045 0.610895 0.174044
0.187045 0.610895 0.174044
0.187045 0.610895 0.174044
0.350591 0.703197 0.214633
0.875685 0.868269 0.788724
0.0172427 0.0138247 0.0179904
0.0174411 0.0137636 0.0179294
0.113527 0.0176089 0.0192111
0.352392 0.0240177 0.00972
0.519051 0.0692149 0.0692149
0.448524 0.123507 0.123507
0.446937 0.124453 0.124453
0.446937 0.124453 0.124453
0.446937 0.124453 0.124453
0.0171969 0.0138857 0.0179294
0.0174411 0.0139467 0.0179904
0.112795 0.0175631 0.0191958
0.351858 0.0240787 0.00970474
0.519081 0.0691691 0.0691691
0.448539 0.123507 0.123507
0.446937 0.124453 0.124453
0.446937 0.124453 0.124453
0.446937 0.124453 0.124453
0.0159152 0.0977188 0.024155
0.0159609 0.0975509 0.0241398
0.0779431 0.0871595 0.0247349
0.332097 0.0839704 0.00801099
0.520928 0.0673686 0.0670481
0.448753 0.123384 0.123384
0.446937 0.124453 0.124453
0.446937 0.124453 0.124453
0.446937 0.124453 0.124453
0.0077821 0.266224 0.0331884
0.0077821 0.266133 0.0332036
0.00791943 0.260594 0.0338445
0.270619 0.258091 0.00138857
0.614038 0.242695 0.0614328
0.458793 0.130526 0.125093
0.446937 0.124453 0.124453
0.446937 0.124453 0.124453
0.446937 0.124453 0.124453
0.0121004 0.495552 0.0121004
0.0121004 0.495521 0.0121004
0.0117952 0.494041 0.0117952
0.0224765 0.486336 0.00907912
0.629328 0.554009 0.111574
0.659098 0.411627 0.233005
0.465415 0.141497 0.129412
0.446937 0.124453 0.124453
0.446937 0.124453 0.124453
0.107469 0.582879 0.107469
0.107469 0.582879 0.107469
0.107103 0.582712 0.107118
0.106188 0.582284 0.106188
0.118273 0.58851 0.0906691
0.807538 0.770672 0.544167
0.687785 0.493324 0.304372
0.470253 0.146273 0.130541
0.446937 0.124453 0.124453
0.165423 0.608774 0.162325
0.165408 0.608774 0.162325
0.165377 0.608759 0.162295
0.165286 0.608728 0.162203
0.164996 0.608652 0.161959
0.198444 0.627314 0.162264
0.844495 0.826185 0.678935
0.702693 0.530068 0.335958
0.565194 0.250751 0.164874
0.187045 0.610895 0.174044
0.187045 0.610895 0.174044
0.187045 0.610895 0.174044
0.187045 0.610895 0.174044
0.187045 0.610895 0.174044
0.187045 0.610895 0.174044
0.228977 0.640192 0.188128
0.857862 0.84477 0.726833
0.77705 0.704479 0.537591
0.187045 0.610895 0.174044
0.187045 0.610895 0.174044
0.187045 0.610895 0.174044
0.187045 0.610895 0.174044
0.187045 0.610895 0.174044
0.187045 0.610895 0.174044
0.187045 0.610895 0.174044
0.350591 0.703197 0.214649
0.875685 0.868269 0.788724
0.0162661 0.0149538 0.0900893
0.0162814 0.0149691 0.0900893
0.108827 0.0172122 0.0884718
0.364691 0.0106813 0.0753033
0.538384 0.0691539 0.102647
0.454139 0.12398 0.130007
0.446937 0.124453 0.124453
0.446937 0.124453 0.124453
0.446937 0.124453 0.124453
0.0164645 0.0152132 0.0902419
0.0164645 0.0152132 0.0902266
0.107881 0.0171511 0.088304
0.364111 0.0108034 0.0751354
0.538369 0.0691234 0.102556
0.454139 0.12398 0.129976
0.446937 0.124453 0.124453
0.446937 0.124453 0.124453
0.446937 0.124453 0.124453
0.0107729 0.0988632 0.0886244
0.0108492 0.0987259 0.0886091
0.0733043 0.0881056 0.0846418
0.340032 0.0813153 0.0639658
0.53817 0.0675212 0.0974136
0.452979 0.123781 0.128328
0.446937 0.124453 0.124453
0.446937 0.124453 0.124453
0.446937 0.124453 0.124453
0.00677501 0.272526 0.0870832
0.00677501 0.272435 0.0870375
0.00677501 0.266758 0.08542
0.272038 0.261799 0.0388647
0.632059 0.242481 0.0775464
0.460273 0.130587 0.12697
0.446937 0.124453 0.124453
0.446937 0.124453 0.124453
0.446937 0.124453 0.124453
0.0119936 0.497017 0.0154879
0.0119936 0.497002 0.0154726
0.0117037 0.495338 0.0148013
0.021088 0.487663 0.0115053
0.628412 0.554376 0.110323
0.659113 0.411551 0.232837
0.465354 0.141451 0.129396
0.446937 0.124453 0.124453
0.446937 0.124453 0.124453
0.107454 0.582864 0.107454
0.107439 0.582864 0.107439
0.107088 0.582696 0.107088
0.106157 0.582284 0.106157
0.117861 0.588327 0.090898
0.807446 0.770672 0.543694
0.6878 0.493355 0.304417
0.470237 0.146242 0.130541
0.446937 0.124453 0.124453
0.165408 0.608774 0.162325
0.165408 0.608774 0.162325
0.165377 0.608759 0.162295
0.16527 0.608728 0.162203
0.164996 0.608652 0.161959
0.197879 0.62707 0.162158
0.844511 0.826215 0.678904
0.702693 0.530083 0.335973
0.565148 0.250706 0.164858
0.187045 0.610895 0.174044
0.187045 0.610895 0.174044
0.187045 0.610895 0.174044
0.187045 0.610895 0.174044
0.187045 0.610895 0.174044
0.187045 0.610895 0.174044
0.228702 0.640055 0.188052
0.857877 0.84477 0.726833
0.77705 0.704479 0.537591
0.187045 0.610895 0.174044
0.187045 0.610895 0.174044
0.187045 0.610895 0.174044
0.187045 0.610895 0.174044
0.187045 0.610895 0.174044
0.187045 0.610895 0.174044
0.187045 0.610895 0.174044
0.349981 0.702968 0.214618
0.875685 0.868269 0.788724
0.00143435 0.00143435 0.271122
0.00143435 0.00143435 0.271107
0.0872358 0.0018616 0.265599
0.37998 0.0111086 0.302724
0.611551 0.0581979 0.296101
0.549905 0.110262 0.22855
0.462943 0.124651 0.140993
0.447013 0.124483 0.124544
0.446937 0.124453 0.124453
0.00157168 0.00157168 0.271351
0.00155642 0.00155642 0.271305
0.0861067 0.00184634 0.265461
0.3794 0.0110781 0.302571
0.611551 0.0581521 0.296071
0.549889 0.110262 0.228519
0.462928 0.124651 0.140978
0.447013 0.124483 0.124544
0.446937 0.124453 0.124453
0.00181582 0.087953 0.278431
0.00181582 0.0876478 0.27834
0.0471046 0.0822614 0.263661
0.347784 0.0562295 0.288457
0.612879 0.0559243 0.294072
0.54876 0.110292 0.2262
0.462165 0.124666 0.1402
0.446983 0.124468 0.124514
0.446937 0.124453 0.124453
0.00543221 0.303792 0.328756
0.00543221 0.303685 0.32871
0.00544747 0.297246 0.326497
0.250706 0.280537 0.288121
0.704189 0.202426 0.239399
0.553491 0.117494 0.218296
0.460227 0.124681 0.138186
0.446952 0.124453 0.124453
0.446937 0.124453 0.124453
0.00782788 0.552834 0.325399
0.00781262 0.552819 0.325368
0.00761425 0.551064 0.324254
0.0141909 0.544213 0.317266
0.666484 0.590784 0.165591
0.714046 0.414466 0.246632
0.472724 0.141833 0.13785
0.446937 0.124453 0.124453
0.446937 0.124453 0.124453
0.0987564 0.597498 0.135653
0.0987564 0.597498 0.135637
0.0987564 0.597055 0.134707
0.0988785 0.596048 0.132448
0.115068 0.599069 0.110842
0.815702 0.778012 0.535683
0.687999 0.493584 0.304616
0.470176 0.146197 0.130541
0.446937 0.124453 0.124453
0.165408 0.608774 0.16231
0.165408 0.608774 0.16231
0.165377 0.608759 0.16228
0.16527 0.608728 0.162203
0.164996 0.608652 0.161944
0.196521 0.626413 0.161883
0.844556 0.826307 0.678843
0.702724 0.530144 0.336019
0.565057 0.250553 0.164797
0.187045 0.610895 0.174044
0.187045 0.610895 0.174044
0.187045 0.610895 0.174044
0.187045 0.610895 0.174044
0.187045 0.610895 0.174044
0.187045 0.610895 0.174044
0.227985 0.639719 0.187839
0.857893 0.844816 0.726833
0.777035 0.704463 0.53756
0.187045 0.610895 0.174044
0.187045 0.610895 0.174044
0.187045 0.610895 0.174044
0.187045 0.610895 0.174044
0.187045 0.610895 0.174044
0.187045 0.610895 0.174044
0.187045 0.610895 0.174044
0.34847 0.702388 0.214557
0.875685 0.868269 0.788724
0.00724804 0.00724804 0.509636
0.00724804 0.00724804 0.509636
0.0567788 0.00680552 0.518029
0.374807 0.0154726 0.569039
0.581308 0.0810864 0.481865
0.581903 0.115831 0.38114
0.567285 0.109407 0.268452
0.471565 0.123583 0.147463
0.448325 0.124697 0.126299
0.00724804 0.00724804 0.509621
0.00724804 0.00724804 0.509621
0.056199 0.00679026 0.517815
0.374243 0.0154574 0.568994
0.581292 0.0810559 0.48191
0.581903 0.115816 0.38114
0.567269 0.109407 0.268437
0.47155 0.123583 0.147448
0.448325 0.124697 0.126299
0.00892653 0.0668498 0.538506
0.00892653 0.066743 0.538445
0.0221256 0.0594644 0.536339
0.3411 0.0425574 0.572793
0.580423 0.0793164 0.48481
0.582177 0.115541 0.38114
0.566964 0.109422 0.267643
0.470954 0.123674 0.147021
0.448218 0.124666 0.126146
0.0196689 0.303319 0.604944
0.0196536 0.303181 0.604913
0.0183871 0.294926 0.602899
0.128038 0.285588 0.603861
0.702113 0.191211 0.579705
0.595514 0.119219 0.38471
0.566171 0.109483 0.265568
0.469535 0.123873 0.146014
0.447959 0.124636 0.125811
0.117556 0.565118 0.61825
0.11754 0.565103 0.61825
0.116304 0.563546 0.618082
0.111864 0.559808 0.618555
0.624109 0.635508 0.627955
0.89427 0.383124 0.452247
0.582727 0.125032 0.254871
0.465492 0.124437 0.143145
0.447562 0.124559 0.125292
0.139757 0.661646 0.529793
0.139742 0.661646 0.529778
0.139376 0.661418 0.529564
0.13843 0.660853 0.529091
0.127535 0.669581 0.522118
0.907698 0.836576 0.449989
0.766232 0.492744 0.2907
0.481758 0.146578 0.143084
0.446937 0.124468 0.124468
0.126955 0.656001 0.279576
0.126955 0.656001 0.279561
0.12694 0.655848 0.278996
0.126925 0.655421 0.277501
0.126909 0.654215 0.273304
0.149523 0.665232 0.239185
0.858701 0.836408 0.644343
0.703685 0.530846 0.336599
0.564767 0.250156 0.164645
0.187045 0.610895 0.174044
0.187045 0.610895 0.174044
0.187045 0.610895 0.174044
0.187045 0.610895 0.174044
0.187045 0.610895 0.174044
0.187045 0.610895 0.174044
0.226108 0.638773 0.187137
0.857954 0.844892 0.726848
0.77702 0.704402 0.537499
0.187045 0.610895 0.174044
0.187045 0.610895 0.174044
0.187045 0.610895 0.174044
0.187045 0.610895 0.174044
0.187045 0.610895 0.174044
0.187045 0.610895 0.174044
0.187045 0.610895 0.174044
0.344533 0.700862 0.21442
0.875685 0.868269 0.788724
0.0281682 0.0281682 0.466835
0.0281682 0.0281682 0.466835
0.0281834 0.0281834 0.466896
0.183474 0.0386511 0.56112
0.482551 0.0987259 0.555154
0.509392 0.159716 0.459419
0.56997 0.126238 0.413443
0.573236 0.109117 0.285725
0.543175 0.111986 0.219867
0.0281682 0.0281682 0.466835
0.0281682 0.0281682 0.466835
0.0281834 0.0281834 0.466896
0.182559 0.0385901 0.560769
0.48249 0.0986648 0.555215
0.509392 0.159716 0.459419
0.56997 0.126238 0.413443
0.57322 0.109117 0.285725
0.543175 0.111986 0.219852
0.0392462 0.0631723 0.486625
0.0392157 0.0630808 0.486564
0.0374304 0.0571908 0.483497
0.135622 0.0487068 0.54818
0.478782 0.0958267 0.55877
0.509239 0.159686 0.459785
0.569955 0.126253 0.413489
0.573144 0.109117 0.285451
0.542901 0.112032 0.21944
0.0755779 0.203906 0.568826
0.0755322 0.203754 0.568734
0.0728161 0.193988 0.563806
0.0970626 0.136782 0.573373
0.527733 0.147448 0.703502
0.51899 0.162264 0.469444
0.569894 0.126299 0.413642
0.572931 0.109133 0.284764
0.542184 0.112139 0.218341
0.202182 0.495445 0.666529
0.202152 0.495399 0.666514
0.200427 0.493111 0.66598
0.196201 0.487343 0.664637
0.419898 0.540902 0.846372
0.893309 0.390372 0.803632
0.600427 0.135393 0.427924
0.572351 0.109163 0.282963
0.540154 0.112428 0.215244
0.297185 0.642741 0.687739
0.297185 0.642741 0.687739
0.297078 0.642466 0.68777
0.296696 0.641749 0.6878
0.289799 0.643168 0.693172
0.880995 0.878126 0.859144
0.938735 0.497475 0.571344
0.596445 0.128267 0.271229
0.534508 0.113191 0.207019
0.222431 0.691875 0.60267
0.222431 0.691875 0.60267
0.222446 0.691859 0.602716
0.222477 0.691798 0.602823
0.222492 0.6916 0.603143
0.220325 0.713176 0.609674
0.962448 0.912566 0.585412
0.816983 0.532601 0.3084
0.583673 0.228717 0.184405
0.140887 0.671458 0.323796
0.140887 0.671458 0.323796
0.140887 0.671412 0.323613
0.140871 0.671305 0.32311
0.140841 0.670985 0.321736
0.140749 0.670146 0.31812
0.16788 0.690257 0.291859
0.873075 0.853513 0.673609
0.780957 0.706203 0.533852
0.187045 0.610895 0.174044
0.187045 0.610895 0.174044
0.187045 0.610895 0.174044
0.187045 0.610895 0.174044
0.187045 0.610895 0.174044
0.187045 0.610895 0.174044
0.187045 0.610895 0.174044
0.333547 0.696452 0.214298
0.875685 0.868269 0.788724
0.0312505 0.0312505 0.453895
0.0312505 0.0312505 0.453895
0.0312505 0.0312505 0.453895
0.0353246 0.0316014 0.458595
0.303685 0.0558938 0.585718
0.48719 0.142641 0.503929
0.482444 0.174914 0.453635
0.56321 0.130831 0.424842
0.581018 0.116701 0.377615
0.0312505 0.0312505 0.453895
0.0312505 0.0312505 0.453895
0.0312505 0.0312505 0.453895
0.0352636 0.0316014 0.458518
0.303487 0.0558633 0.585687
0.48719 0.142626 0.503944
0.482444 0.174914 0.453635
0.56321 0.130831 0.424842
0.581018 0.116701 0.377615
0.0335241 0.0369573 0.456947
0.0335088 0.0369116 0.456931
0.0327764 0.0349279 0.455848
0.0329595 0.0321355 0.455741
0.291936 0.0544137 0.584146
0.487175 0.141634 0.505287
0.482261 0.175021 0.45359
0.563195 0.130846 0.424872
0.581048 0.11667 0.377447
0.055024 0.0995499 0.487526
0.0550088 0.0995193 0.487526
0.0544137 0.097673 0.486564
0.0529335 0.0928359 0.484062
0.258885 0.0851759 0.613764
0.488289 0.139681 0.510185
0.481758 0.175265 0.453468
0.563165 0.130877 0.424933
0.581109 0.116594 0.377035
0.13785 0.336675 0.614389
0.137819 0.336629 0.614374
0.136675 0.334203 0.613504
0.133684 0.327901 0.611185
0.158434 0.305303 0.676951
0.70547 0.259968 0.811841
0.505745 0.182559 0.476539
0.563027 0.130968 0.425101
0.581262 0.116411 0.375937
0.291691 0.564462 0.681605
0.291691 0.564462 0.681605
0.291295 0.563973 0.681483
0.290394 0.562875 0.681224
0.287556 0.559426 0.680278
0.603708 0.702434 0.927977
0.939483 0.50692 0.882109
0.603449 0.142428 0.446784
0.581704 0.115801 0.372717
0.375753 0.666041 0.702663
0.375753 0.666056 0.702663
0.375769 0.66598 0.702663
0.375784 0.665797 0.702647
0.375799 0.665339 0.702632
0.370993 0.673335 0.713649
0.946593 0.93843 0.919051
0.949844 0.552651 0.622278
0.691829 0.166979 0.378958
0.253254 0.69955 0.626047
0.253254 0.69955 0.626047
0.253269 0.69955 0.626078
0.253315 0.69955 0.626139
0.253483 0.699535 0.626307
0.25391 0.699504 0.626764
0.255604 0.727703 0.640223
0.978073 0.939452 0.64065
0.98204 0.739269 0.398474
0.149935 0.686824 0.410666
0.149935 0.686824 0.410666
0.14992 0.686809 0.410574
0.149874 0.686778 0.410376
0.149752 0.686702 0.409827
0.149447 0.686503 0.40827
0.148638 0.685939 0.404166
0.21091 0.751675 0.374334
0.946151 0.900175 0.515312
0.0312505 0.0312505 0.453895
0.0312505 0.0312505 0.453895
0.0312505 0.0312505 0.453895
0.0312505 0.0312505 0.453895
0.0407263 0.0318456 0.464714
0.352316 0.0638285 0.588525
0.484581 0.156207 0.484932
0.476158 0.178012 0.452232
0.50901 0.161334 0.456199
0.0312505 0.0312505 0.453895
0.0312505 0.0312505 0.453895
0.0312505 0.0312505 0.453895
0.0312505 0.0312505 0.453895
0.0406958 0.0318456 0.464668
0.352255 0.0638285 0.588525
0.484581 0.156207 0.484962
0.476158 0.178012 0.452232
0.50901 0.161334 0.456199
0.0312505 0.0312505 0.453895
0.0312505 0.0312505 0.453895
0.0312505 0.0312505 0.453895
0.0312505 0.0312505 0.453895
0.0385138 0.0318608 0.462181
0.348318 0.0630808 0.588525
0.484688 0.155856 0.485435
0.476112 0.178042 0.452216
0.509056 0.161303 0.456199
0.0376287 0.0478065 0.46276
0.0376135 0.047776 0.462745
0.0371099 0.0463569 0.461982
0.0358892 0.0430304 0.460197
0.0361028 0.0358587 0.459861
0.337423 0.0611887 0.588327
0.484947 0.154986 0.486641
0.475975 0.178103 0.452186
0.509163 0.161242 0.456184
0.0593576 0.112459 0.494789
0.0593576 0.112444 0.494789
0.0591135 0.111833 0.494438
0.0585336 0.110201 0.493492
0.0569314 0.105562 0.490852
0.301686 0.0992752 0.636912
0.48954 0.154253 0.49424
0.475654 0.178256 0.45211
0.509438 0.161105 0.456184
0.160769 0.383917 0.630854
0.160754 0.383902 0.630854
0.160281 0.383047 0.630549
0.15903 0.380774 0.629801
0.15552 0.374228 0.627634
0.179706 0.36257 0.708171
0.774517 0.305043 0.842313
0.508064 0.187427 0.483482
0.510246 0.160662 0.456138
0.315984 0.587793 0.687205
0.315984 0.587793 0.687205
0.315831 0.58764 0.687175
0.315435 0.587259 0.687083
0.314336 0.586191 0.686839
0.311467 0.583307 0.686183
0.679759 0.76434 0.939803
0.949218 0.560342 0.905165
0.62034 0.188144 0.547204
0.405264 0.674083 0.707561
0.405264 0.674083 0.707561
0.405264 0.674052 0.707546
0.405295 0.674022 0.707546
0.405356 0.673884 0.70753
0.40557 0.673594 0.70753
0.402075 0.68571 0.721981
0.96672 0.958312 0.938399
0.98854 0.786618 0.816999
0.303853 0.695613 0.669612
0.303853 0.695613 0.669612
0.303838 0.695613 0.669612
0.303807 0.695628 0.669581
0.3037 0.695628 0.66952
0.30341 0.695644 0.669322
0.302617 0.695705 0.668803
0.309606 0.770825 0.709865
0.998566 0.978103 0.755947
0.0312505 0.0312505 0.453895
0.0312505 0.0312505 0.453895
0.0312505 0.0312505 0.453895
0.0312505 0.0312505 0.453895
0.0312505 0.0312505 0.453895
0.0619211 0.0332036 0.483833
0.426917 0.0831769 0.576776
0.473915 0.176013 0.457267
0.470939 0.180529 0.450874
0.0312505 0.0312505 0.453895
0.0312505 0.0312505 0.453895
0.0312505 0.0312505 0.453895
0.0312505 0.0312505 0.453895
0.0312505 0.0312505 0.453895
0.0618753 0.0332036 0.483787
0.426886 0.0831617 0.576776
0.47393 0.175998 0.457267
0.470939 0.180529 0.450874
0.0312505 0.0312505 0.453895
0.0312505 0.0312505 0.453895
0.0312505 0.0312505 0.453895
0.0312505 0.0312505 0.453895
0.0312505 0.0312505 0.453895
0.059678 0.0330205 0.4822
0.425803 0.0827497 0.577157
0.473976 0.175952 0.457359
0.470939 0.180529 0.450874
0.0312505 0.0312505 0.453895
0.0312505 0.0312505 0.453895
0.0312505 0.0312505 0.453895
0.0312505 0.0312505 0.453895
0.0312505 0.0312505 0.453895
0.0546273 0.0326085 0.478157
0.423041 0.0817426 0.578042
0.474083 0.175814 0.457618
0.470939 0.180529 0.450874
0.043473 0.0648508 0.471687
0.0434577 0.0648356 0.471687
0.0432136 0.0641337 0.471336
0.0426642 0.0623636 0.470436
0.0409094 0.0573739 0.467872
0.0481575 0.0448615 0.474907
0.415106 0.0792248 0.580407
0.474388 0.175402 0.458305
0.470939 0.180529 0.450874
0.0771038 0.173083 0.537835
0.0770886 0.173068 0.53782
0.0766308 0.171435 0.536721
0.0754406 0.167056 0.53373
0.072343 0.155535 0.525628
0.0633402 0.123568 0.501228
0.412863 0.141802 0.704341
0.484642 0.177356 0.469627
0.470939 0.180529 0.450874
0.208881 0.461692 0.654002
0.208881 0.461677 0.654002
0.208652 0.461357 0.65391
0.208164 0.460594 0.653696
0.206744 0.458457 0.653086
0.202487 0.452003 0.651164
0.216693 0.465583 0.760479
0.868849 0.385153 0.87686
0.566659 0.204486 0.545235
0.347082 0.618692 0.693843
0.347082 0.618692 0.693843
0.347021 0.618647 0.693828
0.346899 0.618524 0.693797
0.346548 0.618189 0.693736
0.345571 0.617243 0.693492
0.342962 0.614679 0.692973
0.805081 0.849546 0.954803
0.985962 0.777676 0.952987
0.423575 0.673182 0.709148
0.423575 0.673182 0.709148
0.423575 0.673182 0.709148
0.423575 0.673182 0.709148
0.423575 0.673182 0.709148
0.423575 0.673182 0.709148
0.423575 0.673182 0.709148
0.412802 0.722484 0.761654
0.999039 0.986694 0.966644
