work-blog-website-frontend/docs/7.视频剪辑/assets/LUT/青青风格化_applelog_03_lut.cube
TITLE "Generated by Resolve"
LUT_3D_SIZE 9
0 0 0
0.00482185 0 0
0.132342 0 0
0.377432 0 0
0.66923 0 0
0.946426 0 0
1 0 0
1 0 0
1 0 0
0 0.0247044 0
0 0.0131838 0
0.0727245 0.00457771 0
0.341222 0 0
0.664759 0 0
0.94995 0 0
1 0 0
1 0 0
1 0 0
0 0.107469 0
0 0.10312 0
0.0675364 0.0846418 0
0.222812 0.0662852 0
0.579461 0 0
0.946609 0 0
1 0 0
1 0 0
1 0 0
0 0.226215 0
0 0.226688 0
0 0.21944 0
0.213489 0.196811 0
0.549249 0.163516 0.00202945
0.82182 0.101884 0
1 0 0
1 0 0
1 0 0
0 0.478218 0
0 0.485939 0
0 0.48632 0
0.01355 0.49305 0
0.550576 0.466712 0.0280613
0.852186 0.425528 0.0925307
1 0.264195 0.0763867
1 0 0
1 0 0
0 0.801099 0.00863661
0 0.808164 0.0107271
0 0.812543 0.0119326
0 0.811292 0.0116426
0.214298 0.80177 0.0332799
0.837705 0.706142 0.0792859
1 0.597421 0.122408
1 0.367208 0.105699
1 0 0
0 1 0.0218814
0 1 0.0208591
0 1 0.020798
0 1 0.0200351
0 1 0.0205844
0.348714 0.992721 0.0321813
1 0.887266 0.102098
1 0.678798 0.126604
1 0.399481 0.110643
0 1 0.0104372
0 1 0.00996414
0 1 0.0106508
0 1 0.0106203
0 1 0.0105287
0 1 0.0104372
0.471595 1 0.0325475
1 1 0.119524
1 0.716991 0.124727
0 1 0.0105135
0 1 0.0108492
0 1 0.0110933
0 1 0.0108186
0 1 0.0106813
0 1 0.0107729
0 1 0.0108186
0.498192 1 0.0335851
1 1 0.129091
0 0 0.009308
0.000549325 0 0.0190433
0.128725 0 0.0209201
0.373114 0 0
0.667933 0 0
0.946822 0 0
1 0 0
1 0 0
1 0 0
0 0.0258183 0.0111696
0 0.0140383 0.0128634
0.0992599 0 0.0115969
0.348669 0 0
0.664652 0 0
0.951568 0 0
1 0 0
1 0 0
1 0 0
0 0.107362 0.0123751
0 0.103334 0.012604
0.0625467 0.0860914 0.0161746
0.220325 0.0673991 0.0176394
0.620798 0 0
0.952056 0 0
1 0 0
1 0 0
1 0 0
0 0.227283 0
0 0.22742 0
0 0.221408 0
0.212726 0.199954 0.0123751
0.550546 0.167865 0.0182956
0.830976 0.102586 0
1 0 0
1 0 0
1 0 0
0 0.482185 0
0 0.489845 0
0 0.490593 0
0.0115969 0.497978 0
0.552834 0.471 0.0299535
0.854917 0.429038 0.0936599
1 0.266651 0.0776379
1 0 0
1 0 0
0 0.803647 0.00894179
0 0.811429 0.0116274
0 0.815854 0.0133211
0 0.814725 0.0131685
0.212818 0.805173 0.0339513
0.840146 0.709224 0.0796216
1 0.599603 0.122698
1 0.368536 0.105943
1 0 0
0 1 0.0206912
0 1 0.0209964
0 1 0.0205844
0 1 0.01944
0 1 0.0196078
0.348089 0.995743 0.0322118
1 0.890196 0.101976
1 0.679896 0.126757
1 0.399985 0.110857
0 1 0.0101472
0 1 0.0105745
0 1 0.0108034
0 1 0.0106661
0 1 0.0106966
0 1 0.0107424
0.471794 1 0.0327306
1 1 0.11957
1 0.717708 0.124636
0 1 0.0106355
0 1 0.0109712
0 1 0.0108797
0 1 0.0106813
0 1 0.0106966
0 1 0.011017
0 1 0.0108644
0.498146 1 0.0336767
1 1 0.129107
0 0 0.0836805
0 0 0.094789
0.124559 0 0.0964065
0.366949 0 0.0799878
0.663401 0 0.0458076
0.943618 0 0
1 0 0
1 0 0
1 0 0
0 0.0323339 0.0762341
0 0.0199741 0.0831769
0.0939345 0 0.0882277
0.341161 0 0.0749065
0.660227 0 0.0447395
0.950164 0 0
1 0 0
1 0 0
1 0 0
0 0.110063 0.080415
0 0.106218 0.0809033
0.0541085 0.0883345 0.0834974
0.289128 0.0507515 0.0656138
0.643839 0 0.0346838
0.951919 0 0
1 0 0
1 0 0
1 0 0
0 0.229511 0.0603799
0 0.229633 0.0619059
0 0.224201 0.0656443
0.210636 0.20795 0.0871748
0.553918 0.179568 0.0888685
0.932372 0.0857557 0.0313725
1 0 0
1 0 0
1 0 0
0 0.491218 0.00764477
0 0.49955 0.0115358
0 0.500313 0.0125429
0.00906386 0.506264 0.0293431
0.554681 0.481819 0.0931868
0.849928 0.439048 0.138003
1 0.267063 0.0920729
1 0 0
1 0 0
0 0.806607 0.033402
0 0.814466 0.0365606
0 0.818189 0.0370642
0 0.817105 0.035584
0.208789 0.807965 0.049424
0.841489 0.711376 0.0881056
1 0.600977 0.124544
1 0.370031 0.106203
1 0 0
0 1 0.0205386
0 1 0.0205997
0 1 0.0194705
0 1 0.0193027
0 1 0.0195315
0.346593 0.998138 0.0321965
1 0.892226 0.102388
1 0.680674 0.126558
1 0.400259 0.110979
0 1 0.00979629
0 1 0.0102998
0 1 0.0105745
0 1 0.0106966
0 1 0.0111086
0 1 0.0120546
0.469825 1 0.0328985
1 1 0.120012
1 0.718303 0.12459
0 1 0.0107424
0 1 0.0110628
0 1 0.0117952
0 1 0.0117037
0 1 0.0106203
0 1 0.010605
0 1 0.0106813
0.497261 1 0.0336919
1 1 0.129213
0 0 0.21471
0 0 0.224994
0.108568 0 0.226444
0.350317 0 0.203479
0.654047 0 0.168673
0.937163 0 0.126055
1 0 0.0553597
1 0 0
1 0 0
0 0.0362097 0.201801
0 0.02327 0.210651
0.0736706 0 0.219501
0.327398 0 0.205432
0.652369 0 0.172686
0.944869 0 0.129732
1 0 0.0576638
1 0 0
1 0 0
0 0.117266 0.187366
0 0.114046 0.190311
0.0227512 0.0927749 0.206851
0.276387 0.0512551 0.196262
0.638056 0 0.167788
0.947585 0 0.131899
1 0 0.0569467
1 0 0
1 0 0
0 0.23418 0.168963
0 0.234592 0.17229
0 0.229633 0.17789
0.197879 0.216114 0.201053
0.64097 0.164767 0.185397
0.970214 0.0841535 0.1561
1 0 0.061799
1 0 0
1 0 0
0 0.501427 0.141649
0 0.509987 0.147295
0 0.511177 0.150362
0.0116884 0.517082 0.166461
0.556435 0.496391 0.215137
0.848249 0.453468 0.251606
1 0.242023 0.150057
1 0 0
1 0 0
0 0.812131 0.162249
0 0.819699 0.166445
0 0.824292 0.168734
0 0.823514 0.168994
0.200153 0.816342 0.173632
0.838285 0.71902 0.192294
1 0.611368 0.209506
1 0.369802 0.130419
1 0 0
0 1 0.0698711
0 1 0.0704051
0 1 0.0716259
0 1 0.0705425
0 1 0.0686198
0.334951 1 0.0663462
1 0.895949 0.121294
1 0.681849 0.130159
1 0.400488 0.11104
0 1 0.00978103
0 1 0.0103609
0 1 0.012665
0 1 0.0107118
0 1 0.0102846
0 1 0.010605
0.466346 1 0.0330205
1 1 0.120211
1 0.718761 0.124498
0 1 0.0107881
0 1 0.0110628
0 1 0.0107271
0 1 0.0106355
0 1 0.0105287
0 1 0.0104982
0 1 0.010544
0.495094 1 0.0335851
1 1 0.129366
0 0 0.482933
0 0 0.48835
0.0522774 0 0.493721
0.311452 0 0.470878
0.629129 0 0.427466
0.919402 0 0.370077
1 0 0.243534
1 0 0.104646
1 0 0
0 0.0322881 0.468788
0 0.0234379 0.47335
0.00982681 0 0.483711
0.287205 0 0.47747
0.628244 0 0.435828
0.926604 0 0.380728
1 0 0.254536
1 0 0.10753
1 0 0
0 0.119417 0.44892
0 0.116503 0.453727
0 0.0945907 0.473182
0.225803 0.0475013 0.473442
0.620478 0 0.44506
0.930724 0 0.391394
1 0 0.261555
1 0 0.10956
1 0 0
0 0.246677 0.40354
0 0.247654 0.410498
0 0.243763 0.419608
0.138598 0.223682 0.476783
0.627527 0.164233 0.47837
0.962341 0.0851301 0.436637
1 0 0.269337
1 0 0.106569
1 0 0
0 0.512428 0.38912
0 0.520989 0.399893
0 0.523171 0.406226
0 0.525429 0.426932
0.523262 0.505653 0.472343
0.947555 0.427817 0.45211
1 0.234989 0.362524
1 0 0.114672
1 0 0
0 0.810391 0.403388
0 0.818128 0.412757
0 0.821942 0.419242
0 0.821302 0.422232
0.177111 0.811948 0.435096
0.813107 0.721538 0.420844
1 0.615946 0.395712
1 0.338369 0.203555
1 0 0
0 1 0.244114
0 1 0.247807
0 1 0.250675
0 1 0.252369
0 1 0.252094
0.311635 1 0.243687
1 0.905867 0.279805
1 0.693034 0.253285
1 0.402594 0.140276
0 1 0.0835126
0 1 0.0848249
0 1 0.0849165
0 1 0.0847944
0 1 0.0834058
0 1 0.0816205
0.451041 1 0.0779583
1 1 0.144457
1 0.719463 0.12752
0 1 0.0108186
0 1 0.0109865
0 1 0.0107729
0 1 0.0106355
0 1 0.0105592
0 1 0.0105745
0 1 0.010544
0.489113 1 0.0335393
1 1 0.129442
0 0 0.722683
0 0 0.723186
0 0 0.731273
0.233265 0 0.721935
0.600702 0 0.678889
0.899199 0 0.63566
1 0 0.540093
1 0 0.361212
1 0 0.131197
0 0.0306249 0.709392
0 0.023621 0.712077
0 0.000259403 0.72459
0.207843 0 0.73022
0.599405 0 0.690517
0.908812 0 0.64683
1 0 0.550027
1 0 0.368627
1 0 0.133211
0 0.119173 0.694697
0 0.115877 0.699825
0 0.10193 0.711589
0.144015 0.0563668 0.721721
0.594202 0 0.703853
0.913252 0 0.657786
1 0 0.558572
1 0 0.374517
1 0 0.134524
0 0.258259 0.656016
0 0.259037 0.663188
0 0.254398 0.670054
0.0671092 0.234714 0.726848
0.602121 0.166522 0.742138
0.954757 0.0886549 0.711406
1 0 0.573388
1 0 0.37644
1 0 0.133913
0 0.535851 0.622797
0 0.542885 0.630701
0 0.543557 0.63505
0 0.543206 0.648264
0.447929 0.510826 0.727626
0.936599 0.429755 0.736309
1 0.236606 0.678447
1 0 0.391959
1 0 0.130968
0 0.816251 0.664454
0 0.822828 0.67097
0 0.827344 0.676371
0 0.826581 0.679408
0.116823 0.814237 0.689326
0.774319 0.722957 0.681926
1 0.583703 0.593515
1 0.32311 0.480522
1 0 0.136355
0 1 0.565972
0 1 0.571817
0 1 0.576028
0 1 0.578637
0 1 0.58053
0.269078 1 0.594522
1 0.908858 0.599054
1 0.697429 0.490425
1 0.369772 0.221134
0 1 0.316396
0 1 0.320806
0 1 0.323339
0 1 0.324498
0 1 0.324956
0 1 0.3243
0.415549 1 0.310903
1 1 0.351919
1 0.731426 0.26688
0 1 0.0848096
0 1 0.0858167
0 1 0.0865034
0 1 0.0865492
0 1 0.0859083
0 1 0.0842603
0 1 0.0804303
0.473808 1 0.0766155
1 1 0.150057
0 0 0.97435
0 0 0.974105
0 0 0.975158
0.0612802 0 0.976791
0.471916 0 0.944411
0.82002 0 0.915267
1 0 0.832959
1 0 0.643
1 0 0.414069
0 0.014023 0.966827
0 0.00825513 0.970047
0 0 0.974319
0.0381628 0 0.983856
0.465583 0 0.956832
0.827848 0 0.930602
1 0 0.849378
1 0 0.65066
1 0 0.418845
0 0.0985275 0.947723
0 0.0951247 0.952575
0 0.0875105 0.956176
0 0.0532692 0.97081
0.444923 0 0.967834
0.828855 0 0.943679
1 0 0.863371
1 0 0.656733
1 0 0.422065
0 0.221164 0.92665
0 0.22089 0.933547
0 0.216007 0.938628
0 0.199176 0.966766
0.409232 0.135058 0.990082
0.858198 0.0615702 0.98471
1 0 0.882536
1 0 0.660883
1 0 0.424231
0 0.481346 0.864912
0 0.487388 0.873121
0 0.487739 0.879194
0 0.479179 0.886397
0.249714 0.461662 0.981674
0.858869 0.384192 1
1 0.243229 0.980896
1 0 0.683528
1 0 0.424842
0 0.78703 0.878599
0 0.794522 0.88864
0 0.798459 0.895232
0 0.79707 0.898131
0 0.788022 0.904799
0.663417 0.689281 0.945876
1 0.581216 0.895384
1 0.324239 0.771984
1 0 0.440558
0 1 0.82501
0 1 0.832639
0 1 0.838514
0 1 0.84242
0 1 0.845747
0.180972 1 0.858869
0.990066 0.916976 0.862867
1 0.669566 0.674632
1 0.35111 0.523232
0 1 0.651972
0 1 0.655665
0 1 0.658351
0 1 0.660334
0 1 0.661982
0 1 0.663508
0.366644 1 0.680293
1 1 0.689937
1 0.738506 0.532815
0 1 0.351812
0 1 0.354742
0 1 0.357366
0 1 0.358923
0 1 0.359762
0 1 0.360082
0 1 0.359594
0.432746 1 0.345281
1 1 0.382406
0 0 1
0 0 1
0 0 1
0 0 1
0.190478 0 1
0.637385 0 1
1 0 1
1 0 0.982635
1 0 0.693706
0 0 1
0 0 1
0 0 1
0 0 1
0.176745 0 1
0.638437 0 1
1 0 1
1 0 0.992264
1 0 0.699275
0 0.0585794 1
0 0.0547189 1
0 0.048127 1
0 0.0301976 1
0.1458 0 1
0.633555 0 1
1 0 1
1 0 1
1 0 0.703395
0 0.159808 1
0 0.158389 1
0 0.154543 1
0 0.144091 1
0.0722515 0.102052 1
0.631235 0 1
1 0 1
1 0 1
1 0 0.707393
0 0.357229 1
0 0.358724 1
0 0.355901 1
0 0.346029 1
0 0.335439 1
0.650996 0.258961 1
1 0.178744 1
1 0 1
1 0 0.710842
0 0.682719 1
0 0.68661 1
0 0.687739 1
0 0.684352 1
0 0.675486 1
0.421042 0.609796 1
1 0.512337 1
1 0.323217 1
1 0 0.732677
0 0.938155 1
0 0.943191 1
0 0.945556 1
0 0.945769 1
0 0.943252 1
0 0.928206 1
0.795193 0.812772 1
1 0.668116 1
1 0.352468 0.810727
0 1 0.944717
0 1 0.949523
0 1 0.953277
0 1 0.955886
0 1 0.958419
0 1 0.961334
0.24535 1 0.979248
1 1 0.981811
1 0.715724 0.720195
0 1 0.6907
0 1 0.693004
0 1 0.694316
0 1 0.695766
0 1 0.697047
0 1 0.698253
0 1 0.70074
0.383215 1 0.718746
1 1 0.728237
0 0 1
0 0 1
0 0 1
0 0 1
0 0 1
0.288289 0 1
0.734264 0 1
1 0 1
1 0 1
0 0 1
0 0 1
0 0 1
0 0 1
0 0 1
0.282536 0 1
0.736645 0 1
1 0 1
1 0 1
0 0.00460822 1
0 0.00254826 1
0 0 1
0 0 1
0 0 1
0.267887 0 1
0.735134 0 1
1 0 1
1 0 1
0 0.0822461 1
0 0.0807507 1
0 0.0773938 1
0 0.0699016 1
0 0.050309 1
0.224964 0 1
0.725048 0 1
1 0 1
1 0 1
0 0.196963 1
0 0.196597 1
0 0.194461 1
0 0.188769 1
0 0.176684 1
0.14902 0.129396 1
0.728954 0.0197757 1
1 0 1
1 0 1
0 0.444907 1
0 0.446754 1
0 0.44622 1
0 0.441169 1
0 0.428809 1
0.00564584 0.418235 1
0.745571 0.331319 1
1 0.22974 1
1 0 1
0 0.766751 1
0 0.769482 1
0 0.770748 1
0 0.769543 1
0 0.765072 1
0 0.755108 1
0.506798 0.664164 1
1 0.56321 1
1 0.348318 1
0 1 1
0 1 1
0 1 1
0 1 1
0 1 1
0 1 1
0.00984207 1 1
0.875349 0.889815 1
1 0.713939 1
0 1 1
0 1 1
0 1 1
0 1 1
0 1 1
0 1 1
0 1 1
0.24712 1 1
1 1 1
