work-blog-website-frontend/docs/7.视频剪辑/assets/LUT/青青风格化_applelog_02_lut.cube
TITLE "Generated by Resolve"
LUT_3D_SIZE 9
0.0356146 0.0378882 0.0512093
0.0693828 0.0410468 0.0509499
0.196063 0.0386511 0.0278935
0.451637 0.0264744 0
0.653422 0.0455024 0
0.65539 0.0458228 0
0.65539 0.0458228 0
0.65539 0.0458381 0
0.65536 0.0458076 0
0.0404822 0.0507668 0.0555581
0.0452583 0.0475166 0.0574655
0.153918 0.0409705 0.0368048
0.39968 0.0263981 0
0.635767 0.04271 0
0.65539 0.0458381 0
0.655406 0.0458381 0
0.655406 0.0458381 0
0.65539 0.0458381 0
0.0281224 0.113832 0.0422522
0.0300755 0.108278 0.0442512
0.103609 0.0957656 0.0576791
0.333013 0.0551461 0
0.588571 0.0366979 0
0.655406 0.0458534 0
0.655406 0.0458534 0
0.655406 0.0458381 0
0.65539 0.0458381 0
0.0298009 0.354452 0.0415808
0.0256046 0.336416 0.037583
0.0194095 0.304845 0.0317235
0.346868 0.315145 0.114275
0.676493 0.318929 0.111772
0.754055 0.207965 0.0408484
0.668559 0.0657664 0
0.65655 0.0476844 0
0.656291 0.0472419 0
0.12842 0.764126 0.135973
0.126741 0.753094 0.134401
0.123674 0.734264 0.131533
0.117617 0.698283 0.125765
0.76701 0.698177 0.237797
1 0.678004 0.246983
1 0.64332 0.231174
1 0.619577 0.22591
1 0.604517 0.222324
0.167178 0.978851 0.172259
0.166354 0.973831 0.171481
0.165011 0.965637 0.17026
0.162432 0.949722 0.167895
0.393225 0.942565 0.151461
0.964019 0.854932 0.222599
1 0.824613 0.243153
1 0.812497 0.245899
1 0.80618 0.247456
0.17026 1 0.174395
0.170306 1 0.174472
0.170428 1 0.174578
0.17113 1 0.175311
0.172274 1 0.176532
0.832319 0.951354 0.186206
1 0.904219 0.229603
1 0.888869 0.235355
1 0.885161 0.235782
0.170275 1 0.174411
0.17026 1 0.174395
0.170275 1 0.174411
0.17026 1 0.174395
0.17026 1 0.174395
0.632151 1 0.147646
1 0.950713 0.21268
1 0.931701 0.229847
1 0.928435 0.230274
0.170275 1 0.174411
0.17026 1 0.174411
0.170275 1 0.174411
0.170275 1 0.174411
0.17026 1 0.174411
0.442985 1 0.144183
0.956085 0.957732 0.204761
1 0.935271 0.227832
1 0.933013 0.229618
0.0366217 0.0391394 0.0754559
0.0658122 0.0411536 0.0729992
0.19469 0.0383459 0.0429694
0.448859 0.0263676 0
0.653162 0.0454719 0
0.655406 0.0458534 0
0.655406 0.0458381 0
0.655406 0.0458534 0
0.65539 0.0458381 0
0.0413825 0.0496529 0.0618753
0.0442817 0.0463569 0.0592813
0.155444 0.0408637 0.0404212
0.399496 0.0264134 0
0.635294 0.0426795 0
0.655421 0.0458686 0
0.655421 0.0458534 0
0.655421 0.0458534 0
0.655406 0.0458534 0
0.0289921 0.111757 0.0431525
0.0306096 0.106981 0.0447852
0.101442 0.0942092 0.0577707
0.332265 0.0514839 0
0.589227 0.036759 0
0.655421 0.0458534 0
0.655406 0.0458534 0
0.655406 0.0458534 0
0.655406 0.0458534 0
0.0277104 0.347097 0.0395819
0.0244602 0.330602 0.0365148
0.0187686 0.30074 0.0311131
0.338613 0.308476 0.111086
0.670405 0.309865 0.106554
0.746685 0.19443 0.0346838
0.667033 0.0634775 0
0.656413 0.0474708 0
0.656168 0.0470436 0
0.128008 0.760082 0.135622
0.126284 0.749554 0.134005
0.12343 0.731395 0.131289
0.116579 0.69453 0.124773
0.761944 0.693858 0.2383
1 0.673961 0.246189
1 0.638163 0.229664
1 0.613108 0.224552
0.997101 0.597681 0.220798
0.166934 0.977066 0.17203
0.166339 0.972351 0.171496
0.164645 0.963882 0.169924
0.162051 0.947997 0.167529
0.375799 0.941039 0.153017
0.961532 0.853635 0.222522
1 0.822812 0.243702
1 0.809934 0.246342
1 0.80325 0.247883
0.170291 1 0.174426
0.170336 1 0.174502
0.17052 1 0.174685
0.171221 1 0.175402
0.172274 1 0.176547
0.82562 0.951659 0.184985
1 0.903578 0.229465
1 0.887633 0.235523
1 0.883635 0.235752
0.170275 1 0.174411
0.17026 1 0.174395
0.17026 1 0.174395
0.17026 1 0.174395
0.17026 1 0.174395
0.612848 1 0.14583
0.997955 0.951339 0.211841
1 0.930816 0.229908
1 0.927596 0.230488
0.170275 1 0.174411
0.170275 1 0.174411
0.170275 1 0.174411
0.170275 1 0.174411
0.170275 1 0.174411
0.414542 1 0.145647
0.949157 0.958724 0.203464
1 0.935622 0.227481
1 0.933013 0.229618
0.034699 0.0381781 0.198749
0.0538796 0.0386206 0.189166
0.201892 0.0304417 0.173205
0.467552 0.0222324 0.10277
0.680293 0.0483406 0.0758526
0.676448 0.0488441 0.0462196
0.671504 0.0485237 0.0264439
0.668879 0.0482185 0.0163119
0.666697 0.0478828 0.00828565
0.0353246 0.0489662 0.15964
0.0357977 0.044892 0.154818
0.161639 0.0355688 0.145144
0.413352 0.023209 0.0741588
0.65211 0.045182 0.0433509
0.669535 0.0482338 0.0190127
0.664942 0.0475166 0.00205997
0.663157 0.047364 0
0.661646 0.047013 0
0.030869 0.109545 0.114824
0.0326543 0.104662 0.110491
0.0882582 0.0948501 0.105837
0.342657 0.0435187 0.0502785
0.598764 0.0380713 0.00582895
0.66096 0.0468605 0
0.657511 0.0460975 0
0.656641 0.046067 0
0.655695 0.0459144 0
0.0293736 0.339879 0.0669871
0.026154 0.324849 0.0593881
0.0198062 0.297688 0.045182
0.324559 0.299321 0.110796
0.660746 0.294911 0.0976272
0.733852 0.171756 0.0240635
0.664942 0.060441 0
0.656168 0.0470283 0
0.65597 0.0466621 0
0.126741 0.752239 0.134432
0.125216 0.742947 0.132982
0.122652 0.726253 0.130571
0.115419 0.689036 0.123674
0.753597 0.687465 0.238209
1 0.66807 0.245167
1 0.630243 0.228153
1 0.603265 0.222141
0.990341 0.587732 0.218555
0.166354 0.973373 0.171496
0.165621 0.969024 0.170825
0.164508 0.961364 0.169818
0.161486 0.945266 0.16701
0.348928 0.938796 0.155154
0.95787 0.851759 0.222522
1 0.820111 0.244221
1 0.806409 0.247379
1 0.799451 0.248737
0.170321 1 0.174472
0.170382 1 0.174533
0.170642 1 0.174807
0.171267 1 0.175433
0.172442 1 0.176715
0.815549 0.952346 0.18323
1 0.902663 0.229313
1 0.885893 0.235691
1 0.881712 0.235935
0.170275 1 0.174411
0.17026 1 0.174395
0.17026 1 0.174395
0.17026 1 0.174395
0.17026 1 0.174395
0.587228 1 0.144091
0.991836 0.952071 0.210834
1 0.92987 0.230106
1 0.926421 0.230686
0.170275 1 0.174411
0.170275 1 0.174411
0.170275 1 0.174411
0.170275 1 0.174411
0.170275 1 0.174411
0.379416 1 0.148272
0.939651 0.960067 0.201617
1 0.936049 0.227039
1 0.933013 0.229618
0.0263523 0.0318456 0.444053
0.0266728 0.0320745 0.434043
0.170474 0.0238041 0.421866
0.50248 0.00317388 0.42153
0.767361 0.035584 0.402762
0.7673 0.0391699 0.36141
0.758114 0.0403449 0.329702
0.751568 0.0414588 0.307576
0.745983 0.04271 0.288563
0.0270695 0.0374914 0.401587
0.0277714 0.0353246 0.39382
0.129488 0.0294041 0.38201
0.44387 0.00309758 0.373434
0.725277 0.0324559 0.344778
0.751965 0.0413672 0.308965
0.743664 0.0432441 0.28072
0.737972 0.0439155 0.262455
0.732952 0.0444648 0.246647
0.0172427 0.104128 0.344457
0.0188602 0.0988174 0.338613
0.0539254 0.0864881 0.335164
0.369146 0.0199741 0.322835
0.663935 0.0287327 0.271427
0.731746 0.0446174 0.242786
0.7243 0.0455787 0.218784
0.720317 0.0462806 0.205417
0.716487 0.0466163 0.193042
0.0444343 0.352682 0.325628
0.0407263 0.336645 0.311269
0.0345617 0.311513 0.290272
0.276799 0.319509 0.314061
0.68304 0.29337 0.293782
0.768948 0.149126 0.21265
0.707271 0.0586862 0.144076
0.697658 0.0484779 0.127398
0.695232 0.0485389 0.118837
0.13637 0.760418 0.336339
0.134798 0.750957 0.323247
0.132097 0.734386 0.301091
0.125689 0.69894 0.261677
0.731395 0.690806 0.324849
0.999054 0.667857 0.303517
1 0.624949 0.273762
0.990875 0.595376 0.259556
0.981735 0.579507 0.251652
0.16556 0.973236 0.227588
0.165179 0.968383 0.214832
0.163882 0.95935 0.195148
0.161135 0.941482 0.167483
0.283604 0.932784 0.158145
0.950683 0.849256 0.221881
1 0.816098 0.244877
1 0.801266 0.248356
1 0.794186 0.249699
0.170382 1 0.174533
0.17052 1 0.174685
0.170703 1 0.174868
0.171313 1 0.175509
0.172351 1 0.176669
0.79704 0.953902 0.179477
1 0.901274 0.228779
1 0.883528 0.235752
1 0.879377 0.23624
0.170275 1 0.174411
0.17026 1 0.174395
0.17026 1 0.174395
0.17026 1 0.174395
0.17026 1 0.174395
0.537423 1 0.142199
0.984054 0.952972 0.209674
1 0.928695 0.230152
1 0.924941 0.230945
0.170275 1 0.174411
0.170275 1 0.174411
0.170275 1 0.174411
0.170275 1 0.174411
0.170275 1 0.174411
0.324636 1 0.155367
0.92752 0.961944 0.199313
1 0.936828 0.226551
1 0.933013 0.229618
0.0214389 0.0282292 0.603632
0.021622 0.0283665 0.59855
0.120012 0.0231327 0.597955
0.483909 0.00483711 0.621118
0.793744 0.0351415 0.672877
0.824277 0.0391546 0.659159
0.821744 0.0383001 0.642374
0.819928 0.037705 0.630396
0.818112 0.0372015 0.618952
0.0221256 0.0287175 0.581949
0.0222629 0.0288396 0.577569
0.074815 0.0273594 0.57203
0.419928 0.00337224 0.590112
0.754589 0.0290837 0.641184
0.820615 0.0379187 0.634623
0.817929 0.0372015 0.617578
0.816175 0.0369116 0.605585
0.814817 0.0368353 0.595697
0.0119478 0.0951705 0.562478
0.0128023 0.089189 0.55845
0.0151675 0.0751507 0.55024
0.334478 0.016083 0.559091
0.700343 0.0213474 0.600519
0.815335 0.0368658 0.59939
0.812772 0.0367132 0.581308
0.810498 0.0362707 0.568307
0.808591 0.0359808 0.557229
0.0496681 0.361944 0.60177
0.0456092 0.347005 0.592767
0.0386358 0.319799 0.577676
0.244709 0.316518 0.608804
0.738857 0.268528 0.661112
0.855024 0.108629 0.582483
0.805234 0.0402075 0.521843
0.799558 0.035584 0.504372
0.797467 0.0357366 0.492836
0.139666 0.771023 0.680201
0.138872 0.762066 0.672923
0.137407 0.746105 0.660822
0.13373 0.713451 0.638911
0.637308 0.712047 0.668528
0.954559 0.673579 0.63267
0.99707 0.625376 0.608759
0.992447 0.593957 0.592233
0.988907 0.5776 0.57937
0.146883 0.979599 0.659876
0.147677 0.975723 0.649958
0.148211 0.96875 0.632624
0.148898 0.954894 0.603525
0.200168 0.935775 0.562173
0.870588 0.859358 0.542199
1 0.827146 0.541238
1 0.813489 0.530236
1 0.806638 0.520363
0.145495 1 0.597314
0.145998 1 0.583291
0.146746 1 0.560128
0.149203 1 0.523659
0.154879 1 0.477668
0.69839 0.971359 0.388891
1 0.905898 0.411078
1 0.886732 0.399054
1 0.881987 0.385153
0.148486 1 0.523384
0.149218 1 0.501808
0.150286 1 0.4701
0.153857 1 0.422995
0.157977 1 0.366217
0.445914 1 0.269703
0.95848 0.956939 0.269642
1 0.929244 0.264149
1 0.924208 0.257588
0.151827 1 0.446662
0.154208 1 0.418967
0.156954 1 0.380911
0.160784 1 0.329397
0.164874 1 0.269551
0.257969 1 0.210071
0.907485 0.965316 0.209888
1 0.938155 0.228687
1 0.933013 0.229618
0.0196078 0.0269627 0.675776
0.0196078 0.0269627 0.675776
0.0722515 0.0247349 0.683848
0.459846 0.00630198 0.726207
0.788403 0.0393988 0.802304
0.844846 0.0468147 0.807294
0.843427 0.046128 0.797925
0.842451 0.045655 0.791394
0.841489 0.0451972 0.785061
0.0196536 0.0269932 0.672999
0.0197147 0.0270237 0.671595
0.0236057 0.0270085 0.669474
0.393072 0.00508125 0.706722
0.749935 0.0339361 0.780011
0.843015 0.0459449 0.794888
0.841566 0.045243 0.785443
0.840543 0.0447547 0.778607
0.83978 0.0444648 0.772656
0.0112612 0.0874495 0.679973
0.0119478 0.0814221 0.67657
0.0133211 0.0670329 0.668482
0.300084 0.0139773 0.683375
0.693172 0.0258183 0.748959
0.840314 0.0446632 0.77702
0.8392 0.0442664 0.766964
0.838193 0.0437629 0.759533
0.837507 0.043595 0.753338
0.0541543 0.362097 0.752224
0.0500954 0.347051 0.744564
0.0429236 0.3196 0.7308
0.189837 0.304845 0.754147
0.722866 0.264805 0.830137
0.876204 0.0997177 0.785809
0.835599 0.0431678 0.737392
0.833997 0.0422522 0.728359
0.832868 0.0417792 0.720882
0.139406 0.773846 0.86305
0.139803 0.76495 0.858793
0.138643 0.748089 0.851286
0.135821 0.715099 0.837613
0.618006 0.704265 0.883635
0.988586 0.646067 0.896452
1 0.591745 0.879637
1 0.55787 0.869261
1 0.540856 0.860548
0.13135 0.980529 0.8851
0.131899 0.976638 0.879667
0.132753 0.969833 0.870893
0.133654 0.957031 0.855924
0.149584 0.933547 0.836194
0.785443 0.868742 0.799893
0.967468 0.835187 0.770596
0.970504 0.821103 0.760876
0.972381 0.814252 0.75433
0.135195 1 0.860258
0.135409 1 0.854475
0.135714 1 0.845212
0.136095 1 0.830716
0.135851 1 0.810788
0.604257 0.973251 0.744228
0.930449 0.912505 0.731411
1 0.894148 0.727047
1 0.889815 0.720424
0.136721 1 0.825208
0.137087 1 0.816495
0.137652 1 0.803693
0.138491 1 0.785229
0.13933 1 0.761364
0.335088 1 0.717678
0.832258 0.973816 0.653178
1 0.938949 0.669886
1 0.932296 0.661585
0.138216 1 0.791028
0.138705 1 0.779385
0.139269 1 0.763485
0.140017 1 0.741634
0.141131 1 0.714031
0.183612 1 0.679881
0.765454 0.987243 0.598611
0.995331 0.949447 0.611109
1 0.942992 0.600076
0.0196078 0.0269627 0.675776
0.0196078 0.0269627 0.675761
0.0530861 0.0256657 0.680613
0.437064 0.00578317 0.726802
0.774334 0.0382239 0.811109
0.848295 0.0483558 0.831983
0.84828 0.0483406 0.831968
0.848295 0.0483558 0.831983
0.84828 0.0483406 0.831968
0.0196231 0.0269627 0.675776
0.0196078 0.0269627 0.675776
0.0196231 0.0269627 0.675776
0.36875 0.0052491 0.715801
0.735561 0.0328527 0.800076
0.84831 0.0483711 0.831998
0.848295 0.0483711 0.831998
0.848295 0.0483711 0.831998
0.84828 0.0483406 0.831968
0.0117952 0.0810864 0.694255
0.0121309 0.0755016 0.692302
0.0135958 0.0615244 0.686778
0.273808 0.0118257 0.705867
0.679271 0.0257115 0.784405
0.848295 0.0483711 0.831998
0.848295 0.0483558 0.831983
0.84828 0.0483406 0.831968
0.84828 0.0483406 0.831968
0.0530709 0.352911 0.794232
0.0493477 0.338109 0.788235
0.0429389 0.311284 0.777432
0.139696 0.287266 0.793408
0.703761 0.256748 0.888991
0.879149 0.0944228 0.862562
0.84828 0.0483558 0.831937
0.848219 0.0483253 0.831586
0.848188 0.0483101 0.831357
0.139483 0.770871 0.951202
0.139345 0.761501 0.948959
0.138186 0.743893 0.944076
0.136034 0.711711 0.934646
0.593835 0.698238 0.995193
0.973846 0.64007 1
1 0.580255 1
1 0.542306 1
1 0.524041 1
0.122332 0.978546 1
0.122545 0.975158 1
0.122744 0.968078 1
0.124422 0.95523 0.991073
0.133562 0.930495 0.975341
0.772519 0.861524 0.936004
0.983307 0.821302 0.912352
0.99382 0.804379 0.908385
0.997284 0.797208 0.904128
0.128939 1 0.996078
0.128985 1 0.993133
0.12932 1 0.988602
0.129519 1 0.981369
0.129198 1 0.971801
0.563821 0.970596 0.916381
0.879805 0.917708 0.876844
0.960937 0.899916 0.860777
0.9608 0.895491 0.854337
0.130251 1 0.973388
0.130465 1 0.968582
0.130755 1 0.961944
0.131167 1 0.951888
0.131685 1 0.939712
0.238697 1 0.917342
0.780377 0.976638 0.841978
0.972229 0.943786 0.840452
0.99176 0.936522 0.836606
0.131151 1 0.952529
0.131426 1 0.946136
0.131777 1 0.937713
0.13228 1 0.925612
0.132891 1 0.91107
0.142519 1 0.892958
0.715343 0.987198 0.816876
0.93724 0.957382 0.804929
1 0.949111 0.804395
0.0196078 0.0269627 0.675776
0.0196078 0.0269627 0.675761
0.0459297 0.0258488 0.679469
0.423133 0.00563058 0.724407
0.764691 0.0366674 0.808133
0.848295 0.0483558 0.831983
0.848295 0.0483558 0.831983
0.848295 0.0483558 0.831983
0.84828 0.0483406 0.831968
0.0196078 0.0269627 0.675776
0.0196231 0.0269627 0.675776
0.0196231 0.0269627 0.675776
0.355993 0.00538643 0.713924
0.726314 0.0315709 0.797391
0.84831 0.0483711 0.831998
0.84831 0.0483711 0.831998
0.84831 0.0483711 0.831998
0.84828 0.0483406 0.831968
0.0120241 0.0780041 0.693294
0.0124208 0.0730907 0.691356
0.0137179 0.0594492 0.685969
0.264088 0.0120241 0.704631
0.669841 0.0245518 0.781781
0.848295 0.0483558 0.831983
0.848295 0.0483558 0.831983
0.848295 0.0483558 0.831983
0.84828 0.0483406 0.831968
0.0511025 0.343618 0.79086
0.0473487 0.329305 0.78468
0.0407111 0.302754 0.773754
0.128664 0.278935 0.78822
0.691554 0.250675 0.884108
0.870527 0.0855879 0.856168
0.84828 0.0483406 0.831968
0.848295 0.0483558 0.831983
0.84828 0.0483406 0.831968
0.139254 0.7635 0.94931
0.138811 0.753246 0.94667
0.137697 0.735973 0.942077
0.135531 0.703914 0.933669
0.583383 0.692164 0.995636
0.964569 0.636057 1
1 0.575296 1
1 0.533944 1
1 0.512184 1
0.120897 0.975677 1
0.12108 0.972076 1
0.121584 0.964691 1
0.122759 0.951354 1
0.139879 0.927321 1
0.763195 0.858625 0.972488
0.980209 0.817044 0.962722
0.999725 0.796689 0.972015
1 0.78732 0.977111
0.126955 1 1
0.126879 1 1
0.126772 1 1
0.126696 1 1
0.126024 1 1
0.552514 0.966781 0.99147
0.870115 0.91397 0.950301
0.965911 0.893782 0.936141
0.966125 0.888457 0.933532
0.126864 1 1
0.126864 1 1
0.126864 1 1
0.126848 1 1
0.126909 1 1
0.188113 1 1
0.758862 0.975113 0.951415
0.945281 0.945846 0.929534
0.96379 0.940551 0.922866
0.126864 1 1
0.126864 1 1
0.127031 1 1
0.127275 1 1
0.127581 1 1
0.128038 1 1
0.683818 0.987366 0.938079
0.900999 0.962051 0.909178
0.97937 0.953384 0.91017
0.0196078 0.0269627 0.675776
0.0196078 0.0269627 0.675761
0.0390631 0.0261234 0.678553
0.409979 0.00537118 0.722255
0.756115 0.0355077 0.805875
0.848295 0.0483558 0.831983
0.84828 0.0483406 0.831968
0.848295 0.0483558 0.831983
0.84828 0.0483406 0.831968
0.0196231 0.0269627 0.675776
0.0196078 0.0269627 0.675776
0.0196231 0.0269627 0.675776
0.344976 0.00569161 0.712428
0.718212 0.030518 0.795071
0.84831 0.0483711 0.831998
0.848295 0.0483711 0.831998
0.848295 0.0483711 0.831998
0.84828 0.0483406 0.831968
0.0121614 0.075227 0.69221
0.0125277 0.0704204 0.690257
0.013901 0.0579232 0.685298
0.255558 0.0122072 0.703731
0.661555 0.0233463 0.779507
0.848295 0.0483558 0.831983
0.848295 0.0483558 0.831983
0.84828 0.0483406 0.831968
0.84828 0.0483406 0.831968
0.0488594 0.33489 0.787152
0.0452735 0.320333 0.781094
0.0390326 0.295262 0.770733
0.11931 0.271168 0.783429
0.681376 0.244572 0.879545
0.862867 0.0769513 0.850019
0.848295 0.0483558 0.831983
0.848295 0.0483711 0.831998
0.84831 0.0483711 0.831998
0.139086 0.756863 0.947662
0.138399 0.746212 0.944961
0.137377 0.729137 0.940337
0.134508 0.696727 0.931334
0.577829 0.686732 0.993851
0.959609 0.631357 1
1 0.57142 1
1 0.526406 1
1 0.502556 1
0.121141 0.973449 1
0.121141 0.968582 1
0.121935 0.961273 1
0.123232 0.947738 1
0.145418 0.923781 1
0.76051 0.856168 0.973388
0.977722 0.815595 0.963836
1 0.794232 0.973327
1 0.783307 0.979034
0.126909 1 1
0.126802 1 1
0.126787 1 1
0.12668 1 1
0.12607 1 1
0.554513 0.964462 0.991211
0.867689 0.912795 0.950744
0.965942 0.892653 0.936233
0.966827 0.886061 0.937392
0.126864 1 1
0.126864 1 1
0.126864 1 1
0.126864 1 1
0.126864 1 1
0.190646 1 1
0.759182 0.973861 0.963958
0.940764 0.945083 0.941787
0.962371 0.939559 0.935454
0.126894 1 1
0.126864 1 1
0.126864 1 1
0.126864 1 1
0.126864 1 1
0.126864 1 1
0.671916 0.987823 0.973983
0.889845 0.962631 0.950179
0.968826 0.956832 0.942946
