work-blog-website-frontend/docs/7.视频剪辑/assets/LUT/青青风格化_applelog_03_lut.cube
TITLE "Generated by Resolve"
LUT_3D_SIZE 5
0 0 0
0.132342 0 0
0.66923 0 0
1 0 0
1 0 0
0 0.107469 0
0.0675364 0.0846418 0
0.579461 0 0
1 0 0
1 0 0
0 0.478218 0
0 0.48632 0
0.550576 0.466712 0.0280613
1 0.264195 0.0763867
1 0 0
0 1 0.0218814
0 1 0.020798
0 1 0.0205844
1 0.887266 0.102098
1 0.399481 0.110643
0 1 0.0105135
0 1 0.0110933
0 1 0.0106813
0 1 0.0108186
1 1 0.129091
0 0 0.0836805
0.124559 0 0.0964065
0.663401 0 0.0458076
1 0 0
1 0 0
0 0.110063 0.080415
0.0541085 0.0883345 0.0834974
0.643839 0 0.0346838
1 0 0
1 0 0
0 0.491218 0.00764477
0 0.500313 0.0125429
0.554681 0.481819 0.0931868
1 0.267063 0.0920729
1 0 0
0 1 0.0205386
0 1 0.0194705
0 1 0.0195315
1 0.892226 0.102388
1 0.400259 0.110979
0 1 0.0107424
0 1 0.0117952
0 1 0.0106203
0 1 0.0106813
1 1 0.129213
0 0 0.482933
0.0522774 0 0.493721
0.629129 0 0.427466
1 0 0.243534
1 0 0
0 0.119417 0.44892
0 0.0945907 0.473182
0.620478 0 0.44506
1 0 0.261555
1 0 0
0 0.512428 0.38912
0 0.523171 0.406226
0.523262 0.505653 0.472343
1 0.234989 0.362524
1 0 0
0 1 0.244114
0 1 0.250675
0 1 0.252094
1 0.905867 0.279805
1 0.402594 0.140276
0 1 0.0108186
0 1 0.0107729
0 1 0.0105592
0 1 0.010544
1 1 0.129442
0 0 0.97435
0 0 0.975158
0.471916 0 0.944411
1 0 0.832959
1 0 0.414069
0 0.0985275 0.947723
0 0.0875105 0.956176
0.444923 0 0.967834
1 0 0.863371
1 0 0.422065
0 0.481346 0.864912
0 0.487739 0.879194
0.249714 0.461662 0.981674
1 0.243229 0.980896
1 0 0.424842
0 1 0.82501
0 1 0.838514
0 1 0.845747
0.990066 0.916976 0.862867
1 0.35111 0.523232
0 1 0.351812
0 1 0.357366
0 1 0.359762
0 1 0.359594
1 1 0.382406
0 0 1
0 0 1
0 0 1
0.734264 0 1
1 0 1
0 0.00460822 1
0 0 1
0 0 1
0.735134 0 1
1 0 1
0 0.196963 1
0 0.194461 1
0 0.176684 1
0.728954 0.0197757 1
1 0 1
0 0.766751 1
0 0.770748 1
0 0.765072 1
0.506798 0.664164 1
1 0.348318 1
0 1 1
0 1 1
0 1 1
0 1 1
1 1 1
