work-blog-website-frontend/docs/7.视频剪辑/assets/LUT/青青风格化_applelog_02_lut.cube
TITLE "Generated by Resolve"
LUT_3D_SIZE 5
0.0356146 0.0378882 0.0512093
0.196063 0.0386511 0.0278935
0.653422 0.0455024 0
0.65539 0.0458228 0
0.65536 0.0458076 0
0.0281224 0.113832 0.0422522
0.103609 0.0957656 0.0576791
0.588571 0.0366979 0
0.655406 0.0458534 0
0.65539 0.0458381 0
0.12842 0.764126 0.135973
0.123674 0.734264 0.131533
0.76701 0.698177 0.237797
1 0.64332 0.231174
1 0.604517 0.222324
0.17026 1 0.174395
0.170428 1 0.174578
0.172274 1 0.176532
1 0.904219 0.229603
1 0.885161 0.235782
0.170275 1 0.174411
0.170275 1 0.174411
0.17026 1 0.174411
0.956085 0.957732 0.204761
1 0.933013 0.229618
0.034699 0.0381781 0.198749
0.201892 0.0304417 0.173205
0.680293 0.0483406 0.0758526
0.671504 0.0485237 0.0264439
0.666697 0.0478828 0.00828565
0.030869 0.109545 0.114824
0.0882582 0.0948501 0.105837
0.598764 0.0380713 0.00582895
0.657511 0.0460975 0
0.655695 0.0459144 0
0.126741 0.752239 0.134432
0.122652 0.726253 0.130571
0.753597 0.687465 0.238209
1 0.630243 0.228153
0.990341 0.587732 0.218555
0.170321 1 0.174472
0.170642 1 0.174807
0.172442 1 0.176715
1 0.902663 0.229313
1 0.881712 0.235935
0.170275 1 0.174411
0.170275 1 0.174411
0.170275 1 0.174411
0.939651 0.960067 0.201617
1 0.933013 0.229618
0.0214389 0.0282292 0.603632
0.120012 0.0231327 0.597955
0.793744 0.0351415 0.672877
0.821744 0.0383001 0.642374
0.818112 0.0372015 0.618952
0.0119478 0.0951705 0.562478
0.0151675 0.0751507 0.55024
0.700343 0.0213474 0.600519
0.812772 0.0367132 0.581308
0.808591 0.0359808 0.557229
0.139666 0.771023 0.680201
0.137407 0.746105 0.660822
0.637308 0.712047 0.668528
0.99707 0.625376 0.608759
0.988907 0.5776 0.57937
0.145495 1 0.597314
0.146746 1 0.560128
0.154879 1 0.477668
1 0.905898 0.411078
1 0.881987 0.385153
0.151827 1 0.446662
0.156954 1 0.380911
0.164874 1 0.269551
0.907485 0.965316 0.209888
1 0.933013 0.229618
0.0196078 0.0269627 0.675776
0.0530861 0.0256657 0.680613
0.774334 0.0382239 0.811109
0.84828 0.0483406 0.831968
0.84828 0.0483406 0.831968
0.0117952 0.0810864 0.694255
0.0135958 0.0615244 0.686778
0.679271 0.0257115 0.784405
0.848295 0.0483558 0.831983
0.84828 0.0483406 0.831968
0.139483 0.770871 0.951202
0.138186 0.743893 0.944076
0.593835 0.698238 0.995193
1 0.580255 1
1 0.524041 1
0.128939 1 0.996078
0.12932 1 0.988602
0.129198 1 0.971801
0.879805 0.917708 0.876844
0.9608 0.895491 0.854337
0.131151 1 0.952529
0.131777 1 0.937713
0.132891 1 0.91107
0.715343 0.987198 0.816876
1 0.949111 0.804395
0.0196078 0.0269627 0.675776
0.0390631 0.0261234 0.678553
0.756115 0.0355077 0.805875
0.84828 0.0483406 0.831968
0.84828 0.0483406 0.831968
0.0121614 0.075227 0.69221
0.013901 0.0579232 0.685298
0.661555 0.0233463 0.779507
0.848295 0.0483558 0.831983
0.84828 0.0483406 0.831968
0.139086 0.756863 0.947662
0.137377 0.729137 0.940337
0.577829 0.686732 0.993851
1 0.57142 1
1 0.502556 1
0.126909 1 1
0.126787 1 1
0.12607 1 1
0.867689 0.912795 0.950744
0.966827 0.886061 0.937392
0.126894 1 1
0.126864 1 1
0.126864 1 1
0.671916 0.987823 0.973983
0.968826 0.956832 0.942946
