work-blog-website-frontend/docs/7.视频剪辑/assets/LUT/青青风格化_applelog_01_lut.cube
TITLE "Generated by Resolve"
LUT_3D_SIZE 5
0.0172427 0.0138399 0.0178988
0.113573 0.0175937 0.0191958
0.519051 0.0692149 0.0692149
0.446937 0.124453 0.124453
0.446937 0.124453 0.124453
0.0159152 0.097734 0.024155
0.0779889 0.0871748 0.0247349
0.520928 0.0673838 0.0670634
0.446937 0.124453 0.124453
0.446937 0.124453 0.124453
0.0121004 0.495552 0.0121004
0.0117952 0.494041 0.0117952
0.629358 0.554009 0.111604
0.465431 0.141497 0.129412
0.446937 0.124453 0.124453
0.165423 0.608774 0.162325
0.165377 0.608759 0.162295
0.164996 0.608652 0.161959
0.844495 0.826185 0.678935
0.565194 0.250751 0.164874
0.187045 0.610895 0.174044
0.187045 0.610895 0.174044
0.187045 0.610895 0.174044
0.187045 0.610895 0.174044
0.875685 0.868269 0.788724
0.0162661 0.0149538 0.0900893
0.108827 0.0172122 0.0884718
0.538384 0.0691539 0.102647
0.446937 0.124453 0.124453
0.446937 0.124453 0.124453
0.0107729 0.0988632 0.0886244
0.0733043 0.0881056 0.0846418
0.53817 0.0675212 0.0974136
0.446937 0.124453 0.124453
0.446937 0.124453 0.124453
0.0119936 0.497017 0.0154879
0.0117037 0.495338 0.0148013
0.628412 0.554376 0.110323
0.465354 0.141451 0.129396
0.446937 0.124453 0.124453
0.165408 0.608774 0.162325
0.165377 0.608759 0.162295
0.164996 0.608652 0.161959
0.844511 0.826215 0.678904
0.565148 0.250706 0.164858
0.187045 0.610895 0.174044
0.187045 0.610895 0.174044
0.187045 0.610895 0.174044
0.187045 0.610895 0.174044
0.875685 0.868269 0.788724
0.00724804 0.00724804 0.509636
0.0567788 0.00680552 0.518029
0.581308 0.0810864 0.481865
0.567285 0.109407 0.268452
0.448325 0.124697 0.126299
0.00892653 0.0668498 0.538506
0.0221256 0.0594644 0.536339
0.580423 0.0793164 0.48481
0.566964 0.109422 0.267643
0.448218 0.124666 0.126146
0.117556 0.565118 0.61825
0.116304 0.563546 0.618082
0.624109 0.635508 0.627955
0.582727 0.125032 0.254871
0.447562 0.124559 0.125292
0.126955 0.656001 0.279576
0.12694 0.655848 0.278996
0.126909 0.654215 0.273304
0.858701 0.836408 0.644343
0.564767 0.250156 0.164645
0.187045 0.610895 0.174044
0.187045 0.610895 0.174044
0.187045 0.610895 0.174044
0.187045 0.610895 0.174044
0.875685 0.868269 0.788724
0.0312505 0.0312505 0.453895
0.0312505 0.0312505 0.453895
0.303685 0.0558938 0.585718
0.482444 0.174914 0.453635
0.581018 0.116701 0.377615
0.0335241 0.0369573 0.456947
0.0327764 0.0349279 0.455848
0.291936 0.0544137 0.584146
0.482261 0.175021 0.45359
0.581048 0.11667 0.377447
0.13785 0.336675 0.614389
0.136675 0.334203 0.613504
0.158434 0.305303 0.676951
0.505745 0.182559 0.476539
0.581262 0.116411 0.375937
0.375753 0.666041 0.702663
0.375769 0.66598 0.702663
0.375799 0.665339 0.702632
0.946593 0.93843 0.919051
0.691829 0.166979 0.378958
0.149935 0.686824 0.410666
0.14992 0.686809 0.410574
0.149752 0.686702 0.409827
0.148638 0.685939 0.404166
0.946151 0.900175 0.515312
0.0312505 0.0312505 0.453895
0.0312505 0.0312505 0.453895
0.0312505 0.0312505 0.453895
0.426917 0.0831769 0.576776
0.470939 0.180529 0.450874
0.0312505 0.0312505 0.453895
0.0312505 0.0312505 0.453895
0.0312505 0.0312505 0.453895
0.425803 0.0827497 0.577157
0.470939 0.180529 0.450874
0.043473 0.0648508 0.471687
0.0432136 0.0641337 0.471336
0.0409094 0.0573739 0.467872
0.415106 0.0792248 0.580407
0.470939 0.180529 0.450874
0.208881 0.461692 0.654002
0.208652 0.461357 0.65391
0.206744 0.458457 0.653086
0.216693 0.465583 0.760479
0.566659 0.204486 0.545235
0.423575 0.673182 0.709148
0.423575 0.673182 0.709148
0.423575 0.673182 0.709148
0.423575 0.673182 0.709148
0.999039 0.986694 0.966644
