work-blog-website-frontend/docs/7.视频剪辑/assets/LUT/青青风格化_applelog_03_lut.cube
TITLE "Generated by Resolve"
LUT_3D_SIZE 33
0 0 0
0 0 0
0 0 0
0 0 0
0.00482185 0 0
0.033051 0 0
0.063859 0 0
0.0952163 0 0
0.132342 0 0
0.175967 0 0
0.232578 0 0
0.300404 0 0
0.377432 0 0
0.457404 0 0
0.534707 0 0
0.604135 0 0
0.66923 0 0
0.7364 0 0
0.807675 0 0
0.880064 0 0
0.946426 0 0
1 0 0
1 0 0
1 0 0
1 0 0
1 0 0
1 0 0
1 0 0
1 0 0
1 0 0
1 0 0
1 0 0
1 0 0
0 0 0
0 0 0
0 0 0
0 0 0
0 0 0
0.026276 0 0
0.0574197 0 0
0.0890364 0 0
0.126268 0 0
0.170138 0 0
0.226413 0 0
0.294942 0 0
0.372564 0 0
0.453422 0 0
0.531502 0 0
0.602548 0 0
0.668177 0 0
0.735897 0 0
0.807614 0 0
0.880507 0 0
0.947082 0 0
1 0 0
1 0 0
1 0 0
1 0 0
1 0 0
1 0 0
1 0 0
1 0 0
1 0 0
1 0 0
1 0 0
1 0 0
0 0 0
0 0 0
0 0 0
0 0 0
0 0 0
0.00790417 0 0
0.0433356 0 0
0.0787518 0 0
0.116686 0 0
0.161669 0 0
0.217456 0 0
0.287938 0 0
0.367086 0 0
0.450416 0 0
0.528954 0 0
0.600961 0 0
0.66743 0 0
0.736004 0 0
0.80763 0 0
0.882002 0 0
0.947982 0 0
1 0 0
1 0 0
1 0 0
1 0 0
1 0 0
1 0 0
1 0 0
1 0 0
1 0 0
1 0 0
1 0 0
1 0 0
0 0.00366217 0
0 0.00163272 0
0 0 0
0 0 0
0 0 0
0 0 0
0.0220798 0 0
0.0557717 0 0
0.0967727 0 0
0.143725 0 0
0.202792 0 0
0.275288 0 0
0.35906 0 0
0.443442 0 0
0.524773 0 0
0.598184 0 0
0.666178 0 0
0.735103 0 0
0.807431 0 0
0.882338 0 0
0.948577 0 0
1 0 0
1 0 0
1 0 0
1 0 0
1 0 0
1 0 0
1 0 0
1 0 0
1 0 0
1 0 0
1 0 0
1 0 0
0 0.0247044 0
0 0.0229496 0
0 0.0206607 0
0 0.0158389 0
0 0.0131838 0
0 0.00943008 0
0.0202029 0.00875868 0
0.0432441 0.00737011 0
0.0727245 0.00457771 0
0.114137 0 0
0.172747 0 0
0.249104 0 0
0.341222 0 0
0.433829 0 0
0.518761 0 0
0.593774 0 0
0.664759 0 0
0.734142 0 0
0.80798 0 0
0.882704 0 0
0.94995 0 0
1 0 0
1 0 0
1 0 0
1 0 0
1 0 0
1 0 0
1 0 0
1 0 0
1 0 0
1 0 0
1 0 0
1 0 0
0 0.0451362 0
0 0.0437171 0
0 0.041886 0
0 0.0386664 0
0 0.0337835 0
0 0.0299077 0
0.0234531 0.0267338 0
0.0449531 0.0250248 0
0.0685893 0.0235447 0
0.0967727 0.0204166 0
0.137285 0.0137942 0
0.203113 0.000564584 0
0.298817 0 0
0.408515 0 0
0.505577 0 0
0.587961 0 0
0.660578 0 0
0.729732 0 0
0.807279 0 0
0.882506 0 0
0.950698 0 0
1 0 0
1 0 0
1 0 0
1 0 0
1 0 0
1 0 0
1 0 0
1 0 0
1 0 0
1 0 0
1 0 0
1 0 0
0 0.0658274 0
0 0.064683 0
0 0.0633097 0
0 0.0610208 0
0 0.0563363 0
0 0.0514382 0
0.0165866 0.0471199 0
0.0484627 0.0438697 0
0.0728923 0.0416571 0
0.097322 0.0396277 0
0.129091 0.0356298 0
0.17203 0.0285954 0
0.241703 0.0141146 0
0.350042 0 0
0.471366 0 0
0.572793 0 0
0.653254 0 0
0.728389 0 0
0.804013 0 0
0.882872 0 0
0.950881 0 0
1 0 0
1 0 0
1 0 0
1 0 0
1 0 0
1 0 0
1 0 0
1 0 0
1 0 0
1 0 0
1 0 0
1 0 0
0 0.0859236 0
0 0.0849165 0
0 0.0839551 0
0 0.0823377 0
0 0.0792096 0
0 0.0745098 0
0.00448615 0.0689403 0
0.0407721 0.065095 0
0.0754406 0.0619059 0
0.104005 0.058732 0
0.132326 0.0559548 0
0.169818 0.0509957 0
0.220951 0.0424811 0
0.295735 0.0264897 0
0.403311 0.00170901 0
0.528511 0 0
0.632547 0 0
0.718059 0 0
0.800702 0 0
0.879637 0 0
0.950652 0 0
1 0 0
1 0 0
1 0 0
1 0 0
1 0 0
1 0 0
1 0 0
1 0 0
1 0 0
1 0 0
1 0 0
1 0 0
0 0.107469 0
0 0.106889 0
0 0.105959 0
0 0.104753 0
0 0.10312 0
0 0.0988479 0
0 0.0933242 0
0.0280003 0.0881819 0
0.0675364 0.0846418 0
0.104463 0.0806134 0
0.141085 0.0769207 0
0.175357 0.0724651 0
0.222812 0.0662852 0
0.284855 0.05449 0
0.362905 0.0393072 0
0.464317 0.0162203 0
0.579461 0 0
0.690059 0 0
0.786206 0 0
0.872984 0 0
0.946609 0 0
1 0 0
1 0 0
1 0 0
1 0 0
1 0 0
1 0 0
1 0 0
1 0 0
1 0 0
1 0 0
1 0 0
1 0 0
0 0.130556 0
0 0.13022 0
0 0.129519 0
0 0.128832 0
0 0.127657 0
0 0.125673 0
0 0.120806 0
0.00764477 0.114702 0
0.0528267 0.109407 0
0.0953841 0.106081 0
0.139361 0.101122 0
0.185962 0.0953689 0
0.232151 0.0894026 0
0.290517 0.0806134 0
0.361105 0.0684215 0
0.441245 0.0528572 0
0.533333 0.033875 0
0.634562 0.00955215 0
0.744747 0 0
0.854032 0 0
0.939437 0 0
1 0 0
1 0 0
1 0 0
1 0 0
1 0 0
1 0 0
1 0 0
1 0 0
1 0 0
1 0 0
1 0 0
1 0 0
0 0.157488 0
0 0.157015 0
0 0.15668 0
0 0.156146 0
0 0.155367 0
0 0.154208 0
0 0.150881 0
0 0.145342 0
0.0297551 0.139376 0
0.079057 0.134569 0
0.12604 0.1299 0
0.180713 0.123598 0
0.242069 0.115816 0
0.302861 0.107729 0
0.368627 0.0981308 0
0.444816 0.0861677 0
0.522866 0.0728008 0
0.605097 0.0578775 0
0.695659 0.037995 0
0.800366 0.00288396 0
0.915465 0 0
1 0 0
1 0 0
1 0 0
1 0 0
1 0 0
1 0 0
1 0 0
1 0 0
1 0 0
1 0 0
1 0 0
1 0 0
0 0.188724 0
0 0.188464 0
0 0.188479 0
0 0.187854 0
0 0.187594 0
0 0.186725 0
0 0.185534 0
0 0.181537 0
0 0.175418 0
0.0515602 0.169802 0
0.107927 0.164797 0
0.165026 0.159335 0
0.235065 0.151171 0
0.313497 0.140902 0
0.385946 0.132204 0
0.457313 0.123537 0
0.533272 0.113863 0
0.607782 0.104616 0
0.680125 0.0925154 0
0.758877 0.0682994 0
0.858167 0.026627 0
0.981109 0 0
1 0 0
1 0 0
1 0 0
1 0 0
1 0 0
1 0 0
1 0 0
1 0 0
1 0 0
1 0 0
1 0 0
0 0.226215 0
0 0.226734 0
0 0.226642 0
0 0.226703 0
0 0.226688 0
0 0.225986 0
0 0.225071 0
0 0.223392 0
0 0.21944 0
0.00863661 0.21355 0
0.0743572 0.208682 0
0.14049 0.202976 0
0.213489 0.196811 0
0.302602 0.186297 0
0.396475 0.176104 0
0.476692 0.16846 0
0.549249 0.163516 0.00202945
0.621241 0.158328 0.00819409
0.691325 0.151781 0.0116426
0.75288 0.133272 0.00766003
0.82182 0.101884 0
0.923583 0.0544137 0
1 0 0
1 0 0
1 0 0
1 0 0
1 0 0
1 0 0
1 0 0
1 0 0
1 0 0
1 0 0
1 0 0
0 0.271641 0
0 0.272633 0
0 0.272679 0
0 0.273106 0
0 0.272816 0
0 0.272938 0
0 0.271885 0
0 0.271489 0
0 0.269764 0
0 0.267567 0
0.0247807 0.263142 0
0.0996719 0.259815 0
0.182757 0.25391 0
0.27834 0.245777 0
0.384955 0.235157 0
0.488609 0.226993 0
0.569497 0.223362 0.00955215
0.639918 0.223362 0.0263218
0.707362 0.220127 0.0357061
0.766873 0.204181 0.0383612
0.821271 0.177386 0.0330968
0.893751 0.138705 0.013962
0.995438 0.0878157 0
1 0.0198215 0
1 0 0
1 0 0
1 0 0
1 0 0
1 0 0
1 0 0
1 0 0
1 0 0
1 0 0
0 0.328328 0
0 0.329183 0
0 0.330449 0
0 0.330587 0
0 0.331121 0
0 0.331182 0
0 0.330297 0
0 0.329976 0
0 0.328801 0
0 0.329061 0
0 0.32845 0
0.0455329 0.328283 0
0.135088 0.326024 0
0.240253 0.319432 0
0.358206 0.309773 0.00216678
0.477165 0.30016 0.00534066
0.578866 0.294881 0.0122683
0.657282 0.296056 0.0326848
0.720821 0.29659 0.0519112
0.778836 0.284016 0.0603189
0.83183 0.257191 0.0598764
0.892927 0.224872 0.0555276
0.969985 0.182788 0.0406348
1 0.123507 0.00250248
1 0.0444953 0
1 0 0
1 0 0
1 0 0
1 0 0
1 0 0
1 0 0
1 0 0
1 0 0
0 0.39704 0
0 0.397971 0
0 0.399817 0
0 0.400412 0
0 0.401694 0
0 0.401801 0
0 0.402243 0
0 0.401465 0
0 0.400885 0
0 0.400519 0
0 0.403143 0
0 0.405234 0
0.0790723 0.408743 0
0.186786 0.405982 0
0.319188 0.395697 0
0.452934 0.384665 0.013489
0.572961 0.378119 0.0211948
0.667597 0.37612 0.0342412
0.738811 0.376654 0.0576181
0.790967 0.365789 0.0748913
0.840192 0.341604 0.0800031
0.900298 0.31194 0.0792401
0.966735 0.276677 0.0756237
1 0.225772 0.0614786
1 0.154177 0.0242618
1 0.0682078 0
1 0 0
1 0 0
1 0 0
1 0 0
1 0 0
1 0 0
1 0 0
0 0.478218 0
0 0.48069 0
0 0.482612 0
0 0.484901 0
0 0.485939 0
0 0.487022 0
0 0.487327 0
0 0.486824 0
0 0.48632 0
0 0.484443 0
0 0.484916 0
0 0.488945 0
0.01355 0.49305 0
0.124422 0.497566 0
0.257603 0.49192 0
0.4121 0.475929 0.0141451
0.550576 0.466712 0.0280613
0.661204 0.46154 0.0382391
0.748333 0.459464 0.0550088
0.808148 0.446128 0.0767987
0.852186 0.425528 0.0925307
0.90457 0.398779 0.0966812
0.969009 0.368597 0.0957656
1 0.324605 0.0903639
1 0.264195 0.0763867
1 0.186358 0.0442359
1 0.088426 0
1 0 0
1 0 0
1 0 0
1 0 0
1 0 0
1 0 0
0 0.56733 0
0 0.57084 0
0 0.572625 0
0 0.575494 0
0 0.576638 0
0 0.578332 0
0 0.578515 0
0 0.579644 0
0 0.578378 0
0 0.577981 0
0 0.576181 0
0 0.577478 0
0 0.581674 0
0.0637217 0.587045 0
0.188113 0.589059 0
0.353735 0.573938 0.0132906
0.5178 0.55613 0.0336614
0.64651 0.546792 0.0454871
0.742367 0.5411 0.0555123
0.815793 0.524895 0.0689403
0.868528 0.50222 0.0887007
0.915221 0.479561 0.105501
0.970001 0.454093 0.110094
1 0.417304 0.107958
1 0.365713 0.101595
1 0.299763 0.0886244
1 0.213321 0.0582589
1 0.10576 0
1 0 0
1 0 0
1 0 0
1 0 0
1 0 0
0 0.659236 0
0 0.661524 0
0 0.664118 0
0 0.666484 0
0 0.669551 0
0 0.671031 0
0 0.67274 0
0 0.673518 0
0 0.672969 0
0 0.673106 0
0 0.671168 0
0 0.670375 0
0 0.670176 0
0.0111543 0.671733 0
0.122377 0.67747 0
0.27332 0.67039 0.0155795
0.461601 0.64506 0.0372778
0.619348 0.625803 0.052018
0.726833 0.614557 0.061265
0.808606 0.598764 0.0678111
0.874922 0.574762 0.0783398
0.932784 0.550561 0.0972457
0.981109 0.528328 0.114794
1 0.498589 0.119341
1 0.455604 0.115923
1 0.400305 0.109148
1 0.328054 0.0962081
1 0.233814 0.0677501
1 0.11577 0
1 0 0
1 0 0
1 0 0
1 0 0
0 0.738231 0
0 0.74049 0
0 0.74284 0
0 0.744335 0
0 0.746517 0
0 0.747616 0
0 0.749279 0
0 0.749859 0
0 0.750637 0
0 0.750317 0
0 0.75024 0
0 0.748943 0
0 0.748135 0
0 0.747158 0
0.0560616 0.747173 0.00151064
0.172992 0.748379 0.0193332
0.350622 0.729656 0.0344091
0.549142 0.697124 0.0516823
0.689372 0.677974 0.063447
0.785595 0.663478 0.0713359
0.863081 0.643137 0.0762341
0.93843 0.617945 0.0848249
0.999039 0.593622 0.102907
1 0.567254 0.119188
1 0.532464 0.124163
1 0.488411 0.121019
1 0.429282 0.11426
1 0.352544 0.102556
1 0.249226 0.0736858
1 0.125475 0.00317388
1 0 0
1 0 0
1 0 0
0 0.801099 0.00863661
0 0.803174 0.00886549
0 0.804822 0.00924697
0 0.806638 0.0100404
0 0.808164 0.0107271
0 0.810025 0.0111696
0 0.810941 0.0114137
0 0.811994 0.0117037
0 0.812543 0.0119326
0 0.812512 0.0119478
0 0.812665 0.0120546
0 0.811887 0.01178
0 0.811292 0.0116426
0 0.809781 0.0119631
0 0.806577 0.0119783
0.0872663 0.80528 0.0204623
0.214298 0.80177 0.0332799
0.41883 0.772198 0.0444038
0.61593 0.738598 0.0605936
0.744121 0.720562 0.0711528
0.837705 0.706142 0.0792859
0.924727 0.684291 0.0834669
1 0.657832 0.0906996
1 0.628809 0.106767
1 0.597421 0.122408
1 0.560769 0.12723
1 0.512917 0.123812
1 0.450462 0.11635
1 0.367208 0.105699
1 0.261128 0.078294
1 0.13022 0.00691234
1 0 0
1 0 0
0 0.857237 0.0209659
0 0.859678 0.02121
0 0.861555 0.0212711
0 0.863661 0.0216526
0 0.865293 0.0218662
0 0.867185 0.0218509
0 0.868162 0.0220798
0 0.86981 0.0222477
0 0.8701 0.0222629
0 0.871015 0.022446
0 0.87071 0.022385
0 0.870985 0.0224918
0 0.870039 0.0223392
0 0.86949 0.0223087
0 0.867445 0.022385
0.0113527 0.862654 0.0211795
0.107454 0.86038 0.0291295
0.249531 0.851408 0.0393988
0.476509 0.813718 0.0486458
0.672801 0.780392 0.0652934
0.792813 0.765164 0.0773022
0.892653 0.750271 0.0858015
0.990066 0.725933 0.0898299
1 0.693126 0.0948196
1 0.658442 0.109224
1 0.62417 0.124437
1 0.583566 0.129809
1 0.532982 0.126131
1 0.466011 0.118608
1 0.380957 0.107729
1 0.270191 0.0810407
1 0.132189 0.00860609
1 0 0
0 0.915663 0.0251469
0 0.917479 0.0255131
0 0.920424 0.0255894
0 0.922271 0.0256657
0 0.923949 0.0253452
0 0.925719 0.0251774
0 0.927413 0.0255436
0 0.928252 0.0255283
0 0.928939 0.0254063
0 0.929763 0.0253605
0 0.92958 0.0253147
0 0.930007 0.0252689
0 0.929259 0.0252232
0 0.929015 0.0252384
0 0.927733 0.0253452
0 0.926253 0.0250706
0.0194095 0.920699 0.0238499
0.122103 0.916945 0.0309606
0.280888 0.902586 0.0387579
0.536309 0.857679 0.0485847
0.721599 0.828626 0.0662394
0.842756 0.815503 0.0808576
0.953185 0.79707 0.0909133
1 0.764797 0.0941939
1 0.725093 0.0981765
1 0.686046 0.111009
1 0.645853 0.125917
1 0.601495 0.13138
1 0.546807 0.127428
1 0.478569 0.119966
1 0.389929 0.10959
1 0.274235 0.0823224
1 0.131365 0.00796521
0 0.969985 0.0243687
0 0.971588 0.0243381
0 0.973999 0.0240482
0 0.975692 0.0240635
0 0.977966 0.0242618
0 0.979171 0.0243076
0 0.980835 0.0243076
0 0.981842 0.024445
0 0.983047 0.0243534
0 0.983444 0.0242618
0 0.984039 0.0241093
0 0.983978 0.0240635
0 0.984192 0.0239719
0 0.983719 0.0240482
0 0.983459 0.0240787
0 0.982132 0.0241245
0 0.980636 0.0239567
0.0227207 0.97406 0.021973
0.129702 0.969436 0.0282597
0.314946 0.949676 0.0351263
0.585687 0.902388 0.047303
0.765377 0.877531 0.0675822
0.889815 0.864561 0.084947
1 0.841749 0.0959793
1 0.803632 0.0986496
1 0.758038 0.102113
1 0.709743 0.112657
1 0.664744 0.126284
1 0.615244 0.132189
1 0.558968 0.128588
1 0.488502 0.121675
1 0.396384 0.110201
1 0.277012 0.0835737
0 1 0.0218814
0 1 0.0208133
0 1 0.020676
0 1 0.0207065
0 1 0.0208591
0 1 0.0208743
0 1 0.0207523
0 1 0.0205997
0 1 0.020798
0 1 0.0207065
0 1 0.0203708
0 1 0.020264
0 1 0.0200351
0 1 0.0201572
0 1 0.0201419
0 1 0.0204929
0 1 0.0205844
0 1 0.0205844
0.0231937 1 0.0186923
0.139727 1 0.0264134
0.348714 0.992721 0.0321813
0.634592 0.944411 0.0478981
0.807401 0.924865 0.0713359
0.937804 0.911421 0.0903792
1 0.887266 0.102098
1 0.84358 0.104616
1 0.787778 0.105989
1 0.732174 0.114595
1 0.678798 0.126604
1 0.626764 0.132723
1 0.567941 0.129961
1 0.494514 0.121614
1 0.399481 0.110643
0 1 0.0174258
0 1 0.0174105
0 1 0.0174105
0 1 0.0173342
0 1 0.0168002
0 1 0.0163424
0 1 0.0162051
0 1 0.0159609
0 1 0.0160067
0 1 0.0160678
0 1 0.0160525
0 1 0.0159609
0 1 0.0159609
0 1 0.0159457
0 1 0.0159609
0 1 0.0160372
0 1 0.0161746
0 1 0.0162356
0 1 0.0167391
0.0225071 1 0.0150912
0.146014 1 0.0246281
0.383627 1 0.0312352
0.675929 0.986938 0.0501106
0.844694 0.970413 0.0759594
0.98616 0.955764 0.0961624
1 0.92784 0.107271
1 0.878019 0.109117
1 0.816114 0.109636
1 0.750393 0.11635
1 0.69218 0.126192
1 0.635935 0.132967
1 0.574014 0.130282
1 0.498405 0.122271
0 1 0.0130159
0 1 0.013077
0 1 0.0129854
0 1 0.0129397
0 1 0.012665
0 1 0.0125277
0 1 0.0126802
0 1 0.0130922
0 1 0.0132448
0 1 0.0131991
0 1 0.0131075
0 1 0.0129549
0 1 0.0129397
0 1 0.0128634
0 1 0.0128634
0 1 0.0129091
0 1 0.0130465
0 1 0.0131685
0 1 0.0133974
0 1 0.013611
0.0240177 1 0.0133516
0.156435 1 0.0248112
0.418769 1 0.0318151
0.711803 1 0.053315
0.880507 1 0.0809186
1 0.993912 0.101427
1 0.962829 0.112398
1 0.908782 0.113542
1 0.83856 0.112902
1 0.767971 0.117311
1 0.703105 0.125933
1 0.642618 0.132723
1 0.578454 0.130755
0 1 0.0113832
0 1 0.0113375
0 1 0.0107881
0 1 0.0107424
0 1 0.0109407
0 1 0.0106966
0 1 0.0106355
0 1 0.0105898
0 1 0.0109102
